public/luts/bw-film.cube
TITLE "OneMoment bw-film"
LUT_3D_SIZE 5
DOMAIN_MIN 0.0 0.0 0.0
DOMAIN_MAX 1.0 1.0 1.0
0.041640 0.030000 0.018360
0.081937 0.070786 0.059636
0.126569 0.115960 0.105352
0.174999 0.164979 0.154959
0.226693 0.217300 0.207908
0.179572 0.169607 0.159642
0.231535 0.222202 0.212868
0.286178 0.277508 0.268838
0.342963 0.334983 0.327003
0.401356 0.394085 0.386814
0.348213 0.340297 0.332381
0.406726 0.399520 0.392314
0.466261 0.459778 0.453295
0.526283 0.520529 0.514775
0.586256 0.581231 0.576205
0.531745 0.526057 0.520370
0.591687 0.586728 0.581769
0.650996 0.646757 0.642518
0.709137 0.705604 0.702071
0.765572 0.762725 0.759878
0.714346 0.710876 0.707407
0.770600 0.767813 0.765027
0.824565 0.822434 0.820303
0.875705 0.874195 0.872686
0.923485 0.922555 0.921626
0.059385 0.047961 0.036536
0.101719 0.090809 0.079898
0.148144 0.137797 0.127451
0.198124 0.188384 0.178645
0.251124 0.242028 0.232932
0.202825 0.193143 0.183461
0.256073 0.247037 0.238002
0.311756 0.303397 0.295038
0.369338 0.361679 0.354019
0.428285 0.421341 0.414397
0.374649 0.367053 0.359458
0.433692 0.426814 0.419936
0.493515 0.487363 0.481212
0.553581 0.548159 0.542737
0.613355 0.608659 0.603963
0.559036 0.553680 0.548324
0.618756 0.614126 0.609496
0.677601 0.673685 0.669769
0.735033 0.731814 0.728596
0.790516 0.787972 0.785428
0.740165 0.737009 0.733853
0.795445 0.792961 0.790476
0.848193 0.846349 0.844505
0.897872 0.896631 0.895391
0.943947 0.943266 0.942585
0.078086 0.066889 0.055692
0.122346 0.111686 0.101027
0.170453 0.160378 0.150302
0.221873 0.212422 0.202971
0.276068 0.267275 0.258482
0.226693 0.217300 0.207908
0.281114 0.272382 0.263651
0.337727 0.329683 0.321639
0.395995 0.388659 0.381323
0.455384 0.448769 0.442155
0.401356 0.394085 0.386814
0.460820 0.454271 0.447723
0.520820 0.515000 0.509180
0.580820 0.575729 0.570637
0.640284 0.635915 0.631546
0.586256 0.581231 0.576205
0.645645 0.641341 0.637037
0.703913 0.700317 0.696721
0.760526 0.757618 0.754709
0.814947 0.812700 0.810452
0.765572 0.762725 0.759878
0.819767 0.817578 0.815389
0.871187 0.869622 0.868058
0.919294 0.918314 0.917333
0.963554 0.963111 0.962668
0.097693 0.086734 0.075775
0.143768 0.133369 0.122969
0.193447 0.183651 0.173855
0.246195 0.237039 0.227884
0.301475 0.292991 0.284507
0.251124 0.242028 0.232932
0.306607 0.298186 0.289764
0.364039 0.356315 0.348591
0.422884 0.415874 0.408864
0.482604 0.476320 0.470036
0.428285 0.421341 0.414397
0.488059 0.481841 0.475623
0.548125 0.542637 0.537148
0.607948 0.603186 0.598424
0.666991 0.662947 0.658902
0.613355 0.608659 0.603963
0.672302 0.668321 0.664341
0.729884 0.726603 0.723322
0.785567 0.782963 0.780358
0.838815 0.836857 0.834899
0.790516 0.787972 0.785428
0.843516 0.841616 0.839715
0.893496 0.892203 0.890909
0.939921 0.939191 0.938462
0.982255 0.982039 0.981824
0.118155 0.107445 0.096734
0.165935 0.155805 0.145674
0.217075 0.207566 0.198057
0.271040 0.262187 0.253333
0.327294 0.319124 0.310953
0.276068 0.267275 0.258482
0.332503 0.324396 0.316289
0.390644 0.383243 0.375842
0.449953 0.443272 0.436591
0.509895 0.503943 0.497990
0.455384 0.448769 0.442155
0.515357 0.509471 0.503585
0.575379 0.570222 0.565065
0.634914 0.630480 0.626046
0.693427 0.689703 0.685979
0.640284 0.635915 0.631546
0.698677 0.695017 0.691357
0.755462 0.752492 0.749522
0.810105 0.807798 0.805492
0.862068 0.860393 0.858718
0.814947 0.812700 0.810452
0.866641 0.865021 0.863401
0.915071 0.914040 0.913008
0.959703 0.959214 0.958724
1.000000 1.000000 1.000000
