public/luts/bw-film.cube
TITLE "OneMoment bw-film"
LUT_3D_SIZE 9
DOMAIN_MIN 0.0 0.0 0.0
DOMAIN_MAX 1.0 1.0 1.0
0.041640 0.030000 0.018360
0.061213 0.049811 0.038409
0.081937 0.070786 0.059636
0.103744 0.092859 0.081973
0.126569 0.115960 0.105352
0.150342 0.140023 0.129703
0.174999 0.164979 0.154959
0.200471 0.190761 0.181050
0.226693 0.217300 0.207908
0.105778 0.094917 0.084056
0.128692 0.118109 0.107526
0.152548 0.142256 0.131963
0.177282 0.167290 0.157297
0.202825 0.193143 0.183461
0.229111 0.219748 0.210385
0.256073 0.247037 0.238002
0.283644 0.274943 0.266242
0.311756 0.303397 0.295038
0.179572 0.169607 0.159642
0.205185 0.195532 0.185878
0.231535 0.222202 0.212868
0.258555 0.249550 0.240545
0.286178 0.277508 0.268838
0.314336 0.306008 0.297680
0.342963 0.334983 0.327003
0.371992 0.364365 0.356737
0.401356 0.394085 0.386814
0.261043 0.252067 0.243092
0.288717 0.280078 0.271438
0.316920 0.308624 0.300327
0.345587 0.337638 0.329690
0.374649 0.367053 0.359458
0.404040 0.396801 0.389563
0.433692 0.426814 0.419936
0.463540 0.457024 0.450508
0.493515 0.487363 0.481212
0.348213 0.340297 0.332381
0.377308 0.369745 0.362182
0.406726 0.399520 0.392314
0.436399 0.429553 0.422708
0.466261 0.459778 0.453295
0.496244 0.490126 0.484007
0.526283 0.520529 0.514775
0.556309 0.550920 0.545531
0.586256 0.581231 0.576205
0.439107 0.432294 0.425482
0.468982 0.462533 0.456083
0.498974 0.492888 0.486803
0.529014 0.523293 0.517573
0.559036 0.553680 0.548324
0.588972 0.583980 0.578988
0.618756 0.614126 0.609496
0.648322 0.644050 0.639779
0.677601 0.673685 0.669769
0.531745 0.526057 0.520370
0.561762 0.556439 0.551116
0.591687 0.586728 0.581769
0.621454 0.616857 0.612259
0.650996 0.646757 0.642518
0.680246 0.676362 0.672479
0.709137 0.705604 0.702071
0.737601 0.734414 0.731227
0.765572 0.762725 0.759878
0.624150 0.619585 0.615020
0.653668 0.649462 0.645255
0.682888 0.679037 0.675185
0.711743 0.708242 0.704741
0.740165 0.737009 0.733853
0.768088 0.765272 0.762455
0.795445 0.792961 0.790476
0.822169 0.820009 0.817849
0.848193 0.846349 0.844505
0.714346 0.710876 0.707407
0.742725 0.739600 0.736476
0.770600 0.767813 0.765027
0.797902 0.795447 0.792993
0.824565 0.822434 0.820303
0.850521 0.848706 0.846890
0.875705 0.874195 0.872686
0.900048 0.898834 0.897620
0.923485 0.922555 0.921626
0.050390 0.038856 0.027323
0.070494 0.059205 0.047915
0.091719 0.080687 0.069656
0.113997 0.103236 0.092475
0.137261 0.126783 0.116304
0.161445 0.151260 0.141075
0.186480 0.176600 0.166719
0.212301 0.202734 0.193167
0.238841 0.229596 0.220351
0.116072 0.105336 0.094600
0.139423 0.128970 0.118518
0.163686 0.153529 0.143371
0.188796 0.178944 0.169091
0.214685 0.205147 0.195609
0.241287 0.232072 0.222857
0.268534 0.259649 0.250765
0.296359 0.287813 0.279266
0.324695 0.316493 0.308291
0.191119 0.181294 0.171470
0.217075 0.207566 0.198057
0.243738 0.234553 0.225367
0.271040 0.262187 0.253333
0.298915 0.290400 0.281884
0.327294 0.319124 0.310953
0.356112 0.348292 0.340472
0.385302 0.377836 0.370370
0.414796 0.407688 0.400580
0.273552 0.264728 0.255905
0.301475 0.292991 0.284507
0.329897 0.321758 0.313619
0.358752 0.350963 0.343175
0.387972 0.380538 0.373105
0.417490 0.410415 0.403340
0.447239 0.440526 0.433812
0.477153 0.470803 0.464452
0.507164 0.501179 0.495193
0.361394 0.353638 0.345881
0.390644 0.383243 0.375842
0.420186 0.413143 0.406101
0.449953 0.443272 0.436591
0.479878 0.473561 0.467244
0.509895 0.503943 0.497990
0.539936 0.534349 0.528761
0.569935 0.564712 0.559488
0.599824 0.594963 0.590103
0.452668 0.446020 0.439372
0.482604 0.476320 0.470036
0.512626 0.506707 0.500787
0.542666 0.537112 0.531557
0.572658 0.567467 0.562277
0.602533 0.597706 0.592878
0.632226 0.627760 0.623293
0.661670 0.657561 0.653451
0.690797 0.687041 0.683286
0.545396 0.539874 0.534353
0.575379 0.570222 0.565065
0.605241 0.600447 0.595652
0.634914 0.630480 0.626046
0.664332 0.660255 0.656178
0.693427 0.689703 0.685979
0.722132 0.718757 0.715382
0.750380 0.747348 0.744317
0.778105 0.775410 0.772715
0.637600 0.633199 0.628797
0.666991 0.662947 0.658902
0.696053 0.692362 0.688670
0.724720 0.721376 0.718033
0.752923 0.749922 0.746922
0.780597 0.777933 0.775268
0.807675 0.805339 0.803003
0.834089 0.832074 0.830058
0.859772 0.858069 0.856366
0.727304 0.723992 0.720680
0.755462 0.752492 0.749522
0.783085 0.780450 0.777815
0.810105 0.807798 0.805492
0.836455 0.834468 0.832482
0.862068 0.860393 0.858718
0.886878 0.885504 0.884130
0.910818 0.909734 0.908651
0.933819 0.933016 0.932212
0.059385 0.047961 0.036536
0.080007 0.068833 0.057659
0.101719 0.090809 0.079898
0.124453 0.113819 0.103185
0.148144 0.137797 0.127451
0.172723 0.162675 0.152627
0.198124 0.188384 0.178645
0.224280 0.214858 0.205436
0.251124 0.242028 0.232932
0.126569 0.115960 0.105352
0.150342 0.140023 0.129703
0.174999 0.164979 0.154959
0.200471 0.190761 0.181050
0.226693 0.217300 0.207908
0.253596 0.244530 0.235465
0.281114 0.272382 0.263651
0.309180 0.300789 0.292399
0.337727 0.329683 0.321639
0.202825 0.193143 0.183461
0.229111 0.219748 0.210385
0.256073 0.247037 0.238002
0.283644 0.274943 0.266242
0.311756 0.303397 0.295038
0.340343 0.332331 0.324319
0.369338 0.361679 0.354019
0.398674 0.391371 0.384067
0.428285 0.421341 0.414397
0.286178 0.277508 0.268838
0.314336 0.306008 0.297680
0.342963 0.334983 0.327003
0.371992 0.364365 0.356737
0.401356 0.394085 0.386814
0.430988 0.424077 0.417165
0.460820 0.454271 0.447723
0.490787 0.484602 0.478417
0.520820 0.515000 0.509180
0.374649 0.367053 0.359458
0.404040 0.396801 0.389563
0.433692 0.426814 0.419936
0.463540 0.457024 0.450508
0.493515 0.487363 0.481212
0.523551 0.517764 0.511978
0.553581 0.548159 0.542737
0.583538 0.578480 0.573422
0.613355 0.608659 0.603963
0.466261 0.459778 0.453295
0.496244 0.490126 0.484007
0.526283 0.520529 0.514775
0.556309 0.550920 0.545531
0.586256 0.581231 0.576205
0.616057 0.611394 0.606730
0.645645 0.641341 0.637037
0.674953 0.671005 0.667057
0.703913 0.700317 0.696721
0.559036 0.553680 0.548324
0.588972 0.583980 0.578988
0.618756 0.614126 0.609496
0.648322 0.644050 0.639779
0.677601 0.673685 0.669769
0.706527 0.702962 0.699398
0.735033 0.731814 0.728596
0.763051 0.760174 0.757296
0.790516 0.787972 0.785428
0.650996 0.646757 0.642518
0.680246 0.676362 0.672479
0.709137 0.705604 0.702071
0.737601 0.734414 0.731227
0.765572 0.762725 0.759878
0.792983 0.790469 0.787955
0.819767 0.817578 0.815389
0.845858 0.843985 0.842113
0.871187 0.869622 0.868058
0.740165 0.737009 0.733853
0.768088 0.765272 0.762455
0.795445 0.792961 0.790476
0.822169 0.820009 0.817849
0.848193 0.846349 0.844505
0.873449 0.871912 0.870375
0.897872 0.896631 0.895391
0.921393 0.920438 0.919484
0.943947 0.943266 0.942585
0.068619 0.057307 0.045995
0.089745 0.078689 0.067634
0.111930 0.101144 0.090357
0.135107 0.124602 0.114098
0.159210 0.148998 0.138786
0.184171 0.174262 0.164353
0.209923 0.200327 0.190731
0.236400 0.227126 0.217851
0.263535 0.254590 0.245645
0.137261 0.126783 0.116304
0.161445 0.151260 0.141075
0.186480 0.176600 0.166719
0.212301 0.202734 0.193167
0.238841 0.229596 0.220351
0.266032 0.257117 0.248203
0.293807 0.285230 0.276653
0.322100 0.313866 0.305633
0.350843 0.342959 0.335074
0.214685 0.205147 0.195609
0.241287 0.232072 0.222857
0.268534 0.259649 0.250765
0.296359 0.287813 0.279266
0.324695 0.316493 0.308291
0.353476 0.345624 0.337771
0.382635 0.375136 0.367638
0.412104 0.404963 0.397823
0.441816 0.435037 0.428257
0.298915 0.290400 0.281884
0.327294 0.319124 0.310953
0.356112 0.348292 0.340472
0.385302 0.377836 0.370370
0.414796 0.407688 0.400580
0.444527 0.437780 0.431034
0.474429 0.468045 0.461662
0.504434 0.498415 0.492396
0.534476 0.528821 0.523167
0.387972 0.380538 0.373105
0.417490 0.410415 0.403340
0.447239 0.440526 0.433812
0.477153 0.470803 0.464452
0.507164 0.501179 0.495193
0.537206 0.531585 0.525964
0.567211 0.561955 0.556698
0.597113 0.592220 0.587326
0.626844 0.622312 0.617780
0.479878 0.473561 0.467244
0.509895 0.503943 0.497990
0.539936 0.534349 0.528761
0.569935 0.564712 0.559488
0.599824 0.594963 0.590103
0.629536 0.625037 0.620537
0.659005 0.654864 0.650722
0.688164 0.684376 0.680589
0.716945 0.713507 0.710069
0.572658 0.567467 0.562277
0.602533 0.597706 0.592878
0.632226 0.627760 0.623293
0.661670 0.657561 0.653451
0.690797 0.687041 0.683286
0.719540 0.716134 0.712727
0.747833 0.744770 0.741707
0.775608 0.772883 0.770157
0.802799 0.800404 0.798009
0.664332 0.660255 0.656178
0.693427 0.689703 0.685979
0.722132 0.718757 0.715382
0.750380 0.747348 0.744317
0.778105 0.775410 0.772715
0.805240 0.802874 0.800509
0.831717 0.829673 0.827629
0.857469 0.855738 0.854007
0.882430 0.881002 0.879574
0.752923 0.749922 0.746922
0.780597 0.777933 0.775268
0.807675 0.805339 0.803003
0.834089 0.832074 0.830058
0.859772 0.858069 0.856366
0.884658 0.883257 0.881856
0.908679 0.907570 0.906461
0.931769 0.930940 0.930111
0.953860 0.953300 0.952739
0.078086 0.066889 0.055692
0.099702 0.088767 0.077832
0.122346 0.111686 0.101027
0.145952 0.135579 0.125206
0.170453 0.160378 0.150302
0.195782 0.186015 0.176247
0.221873 0.212422 0.202971
0.248657 0.239531 0.230405
0.276068 0.267275 0.258482
0.148144 0.137797 0.127451
0.172723 0.162675 0.152627
0.198124 0.188384 0.178645
0.224280 0.214858 0.205436
0.251124 0.242028 0.232932
0.278589 0.269826 0.261064
0.306607 0.298186 0.289764
0.335113 0.327038 0.318962
0.364039 0.356315 0.348591
0.226693 0.217300 0.207908
0.253596 0.244530 0.235465
0.281114 0.272382 0.263651
0.309180 0.300789 0.292399
0.337727 0.329683 0.321639
0.366687 0.358995 0.351303
0.395995 0.388659 0.381323
0.425583 0.418606 0.411630
0.455384 0.448769 0.442155
0.311756 0.303397 0.295038
0.340343 0.332331 0.324319
0.369338 0.361679 0.354019
0.398674 0.391371 0.384067
0.428285 0.421341 0.414397
0.458102 0.451520 0.444938
0.488059 0.481841 0.475623
0.518089 0.512236 0.506382
0.548125 0.542637 0.537148
0.401356 0.394085 0.386814
0.430988 0.424077 0.417165
0.460820 0.454271 0.447723
0.490787 0.484602 0.478417
0.520820 0.515000 0.509180
0.550853 0.545398 0.539943
0.580820 0.575729 0.570637
0.610652 0.605923 0.601195
0.640284 0.635915 0.631546
0.493515 0.487363 0.481212
0.523551 0.517764 0.511978
0.553581 0.548159 0.542737
0.583538 0.578480 0.573422
0.613355 0.608659 0.603963
0.642966 0.638629 0.634293
0.672302 0.668321 0.664341
0.701297 0.697669 0.694041
0.729884 0.726603 0.723322
0.586256 0.581231 0.576205
0.616057 0.611394 0.606730
0.645645 0.641341 0.637037
0.674953 0.671005 0.667057
0.703913 0.700317 0.696721
0.732460 0.729211 0.725961
0.760526 0.757618 0.754709
0.788044 0.785470 0.782895
0.814947 0.812700 0.810452
0.677601 0.673685 0.669769
0.706527 0.702962 0.699398
0.735033 0.731814 0.728596
0.763051 0.760174 0.757296
0.790516 0.787972 0.785428
0.817360 0.815142 0.812924
0.843516 0.841616 0.839715
0.868917 0.867325 0.865733
0.893496 0.892203 0.890909
0.765572 0.762725 0.759878
0.792983 0.790469 0.787955
0.819767 0.817578 0.815389
0.845858 0.843985 0.842113
0.871187 0.869622 0.868058
0.895688 0.894421 0.893154
0.919294 0.918314 0.917333
0.941938 0.941233 0.940528
0.963554 0.963111 0.962668
0.087780 0.076700 0.065621
0.109871 0.099060 0.088249
0.132961 0.122430 0.111899
0.156982 0.146743 0.136504
0.181868 0.171931 0.161994
0.207551 0.197926 0.188302
0.233965 0.224661 0.215357
0.261043 0.252067 0.243092
0.288717 0.280078 0.271438
0.159210 0.148998 0.138786
0.184171 0.174262 0.164353
0.209923 0.200327 0.190731
0.236400 0.227126 0.217851
0.263535 0.254590 0.245645
0.291260 0.282652 0.274043
0.319508 0.311243 0.302978
0.348213 0.340297 0.332381
0.377308 0.369745 0.362182
0.238841 0.229596 0.220351
0.266032 0.257117 0.248203
0.293807 0.285230 0.276653
0.322100 0.313866 0.305633
0.350843 0.342959 0.335074
0.379970 0.372439 0.364909
0.409414 0.402240 0.395067
0.439107 0.432294 0.425482
0.468982 0.462533 0.456083
0.324695 0.316493 0.308291
0.353476 0.345624 0.337771
0.382635 0.375136 0.367638
0.412104 0.404963 0.397823
0.441816 0.435037 0.428257
0.471705 0.465288 0.458872
0.501704 0.495651 0.489599
0.531745 0.526057 0.520370
0.561762 0.556439 0.551116
0.414796 0.407688 0.400580
0.444527 0.437780 0.431034
0.474429 0.468045 0.461662
0.504434 0.498415 0.492396
0.534476 0.528821 0.523167
0.564487 0.559197 0.553908
0.594401 0.589474 0.584548
0.624150 0.619585 0.615020
0.653668 0.649462 0.645255
0.507164 0.501179 0.495193
0.537206 0.531585 0.525964
0.567211 0.561955 0.556698
0.597113 0.592220 0.587326
0.626844 0.622312 0.617780
0.656338 0.652164 0.647990
0.685528 0.681708 0.677888
0.714346 0.710876 0.707407
0.742725 0.739600 0.736476
0.599824 0.594963 0.590103
0.629536 0.625037 0.620537
0.659005 0.654864 0.650722
0.688164 0.684376 0.680589
0.716945 0.713507 0.710069
0.745281 0.742187 0.739094
0.773106 0.770351 0.767595
0.800353 0.797928 0.795503
0.826955 0.824853 0.822751
0.690797 0.687041 0.683286
0.719540 0.716134 0.712727
0.747833 0.744770 0.741707
0.775608 0.772883 0.770157
0.802799 0.800404 0.798009
0.829339 0.827266 0.825193
0.855160 0.853400 0.851641
0.880195 0.878740 0.877285
0.904379 0.903217 0.902056
0.778105 0.775410 0.772715
0.805240 0.802874 0.800509
0.831717 0.829673 0.827629
0.857469 0.855738 0.854007
0.882430 0.881002 0.879574
0.906533 0.905398 0.904262
0.929710 0.928856 0.928003
0.951895 0.951311 0.950726
0.973021 0.972693 0.972365
0.097693 0.086734 0.075775
0.120247 0.109562 0.098876
0.143768 0.133369 0.122969
0.168191 0.158088 0.147985
0.193447 0.183651 0.173855
0.219471 0.209991 0.200511
0.246195 0.237039 0.227884
0.273552 0.264728 0.255905
0.301475 0.292991 0.284507
0.170453 0.160378 0.150302
0.195782 0.186015 0.176247
0.221873 0.212422 0.202971
0.248657 0.239531 0.230405
0.276068 0.267275 0.258482
0.304039 0.295586 0.287133
0.332503 0.324396 0.316289
0.361394 0.353638 0.345881
0.390644 0.383243 0.375842
0.251124 0.242028 0.232932
0.278589 0.269826 0.261064
0.306607 0.298186 0.289764
0.335113 0.327038 0.318962
0.364039 0.356315 0.348591
0.393318 0.385950 0.378581
0.422884 0.415874 0.408864
0.452668 0.446020 0.439372
0.482604 0.476320 0.470036
0.337727 0.329683 0.321639
0.366687 0.358995 0.351303
0.395995 0.388659 0.381323
0.425583 0.418606 0.411630
0.455384 0.448769 0.442155
0.485331 0.479080 0.472829
0.515357 0.509471 0.503585
0.545396 0.539874 0.534353
0.575379 0.570222 0.565065
0.428285 0.421341 0.414397
0.458102 0.451520 0.444938
0.488059 0.481841 0.475623
0.518089 0.512236 0.506382
0.548125 0.542637 0.537148
0.578100 0.572976 0.567852
0.607948 0.603186 0.598424
0.637600 0.633199 0.628797
0.666991 0.662947 0.658902
0.520820 0.515000 0.509180
0.550853 0.545398 0.539943
0.580820 0.575729 0.570637
0.610652 0.605923 0.601195
0.640284 0.635915 0.631546
0.669648 0.665635 0.661623
0.698677 0.695017 0.691357
0.727304 0.723992 0.720680
0.755462 0.752492 0.749522
0.613355 0.608659 0.603963
0.642966 0.638629 0.634293
0.672302 0.668321 0.664341
0.701297 0.697669 0.694041
0.729884 0.726603 0.723322
0.757996 0.755057 0.752118
0.785567 0.782963 0.780358
0.812529 0.810252 0.807975
0.838815 0.836857 0.834899
0.703913 0.700317 0.696721
0.732460 0.729211 0.725961
0.760526 0.757618 0.754709
0.788044 0.785470 0.782895
0.814947 0.812700 0.810452
0.841169 0.839239 0.837310
0.866641 0.865021 0.863401
0.891298 0.889977 0.888657
0.915071 0.914040 0.913008
0.790516 0.787972 0.785428
0.817360 0.815142 0.812924
0.843516 0.841616 0.839715
0.868917 0.867325 0.865733
0.893496 0.892203 0.890909
0.917187 0.916181 0.915175
0.939921 0.939191 0.938462
0.961633 0.961167 0.960701
0.982255 0.982039 0.981824
0.107821 0.096984 0.086148
0.130822 0.120266 0.109709
0.154762 0.144496 0.134230
0.179572 0.169607 0.159642
0.205185 0.195532 0.185878
0.231535 0.222202 0.212868
0.258555 0.249550 0.240545
0.286178 0.277508 0.268838
0.314336 0.306008 0.297680
0.181868 0.171931 0.161994
0.207551 0.197926 0.188302
0.233965 0.224661 0.215357
0.261043 0.252067 0.243092
0.288717 0.280078 0.271438
0.316920 0.308624 0.300327
0.345587 0.337638 0.329690
0.374649 0.367053 0.359458
0.404040 0.396801 0.389563
0.263535 0.254590 0.245645
0.291260 0.282652 0.274043
0.319508 0.311243 0.302978
0.348213 0.340297 0.332381
0.377308 0.369745 0.362182
0.406726 0.399520 0.392314
0.436399 0.429553 0.422708
0.466261 0.459778 0.453295
0.496244 0.490126 0.484007
0.350843 0.342959 0.335074
0.379970 0.372439 0.364909
0.409414 0.402240 0.395067
0.439107 0.432294 0.425482
0.468982 0.462533 0.456083
0.498974 0.492888 0.486803
0.529014 0.523293 0.517573
0.559036 0.553680 0.548324
0.588972 0.583980 0.578988
0.441816 0.435037 0.428257
0.471705 0.465288 0.458872
0.501704 0.495651 0.489599
0.531745 0.526057 0.520370
0.561762 0.556439 0.551116
0.591687 0.586728 0.581769
0.621454 0.616857 0.612259
0.650996 0.646757 0.642518
0.680246 0.676362 0.672479
0.534476 0.528821 0.523167
0.564487 0.559197 0.553908
0.594401 0.589474 0.584548
0.624150 0.619585 0.615020
0.653668 0.649462 0.645255
0.682888 0.679037 0.675185
0.711743 0.708242 0.704741
0.740165 0.737009 0.733853
0.768088 0.765272 0.762455
0.626844 0.622312 0.617780
0.656338 0.652164 0.647990
0.685528 0.681708 0.677888
0.714346 0.710876 0.707407
0.742725 0.739600 0.736476
0.770600 0.767813 0.765027
0.797902 0.795447 0.792993
0.824565 0.822434 0.820303
0.850521 0.848706 0.846890
0.716945 0.713507 0.710069
0.745281 0.742187 0.739094
0.773106 0.770351 0.767595
0.800353 0.797928 0.795503
0.826955 0.824853 0.822751
0.852844 0.851056 0.849269
0.877954 0.876471 0.874989
0.902217 0.901030 0.899842
0.925568 0.924664 0.923760
0.802799 0.800404 0.798009
0.829339 0.827266 0.825193
0.855160 0.853400 0.851641
0.880195 0.878740 0.877285
0.904379 0.903217 0.902056
0.927643 0.926764 0.925885
0.949921 0.949313 0.948704
0.971146 0.970795 0.970445
0.991250 0.991144 0.991037
0.118155 0.107445 0.096734
0.141592 0.131166 0.120740
0.165935 0.155805 0.145674
0.191119 0.181294 0.171470
0.217075 0.207566 0.198057
0.243738 0.234553 0.225367
0.271040 0.262187 0.253333
0.298915 0.290400 0.281884
0.327294 0.319124 0.310953
0.193447 0.183651 0.173855
0.219471 0.209991 0.200511
0.246195 0.237039 0.227884
0.273552 0.264728 0.255905
0.301475 0.292991 0.284507
0.329897 0.321758 0.313619
0.358752 0.350963 0.343175
0.387972 0.380538 0.373105
0.417490 0.410415 0.403340
0.276068 0.267275 0.258482
0.304039 0.295586 0.287133
0.332503 0.324396 0.316289
0.361394 0.353638 0.345881
0.390644 0.383243 0.375842
0.420186 0.413143 0.406101
0.449953 0.443272 0.436591
0.479878 0.473561 0.467244
0.509895 0.503943 0.497990
0.364039 0.356315 0.348591
0.393318 0.385950 0.378581
0.422884 0.415874 0.408864
0.452668 0.446020 0.439372
0.482604 0.476320 0.470036
0.512626 0.506707 0.500787
0.542666 0.537112 0.531557
0.572658 0.567467 0.562277
0.602533 0.597706 0.592878
0.455384 0.448769 0.442155
0.485331 0.479080 0.472829
0.515357 0.509471 0.503585
0.545396 0.539874 0.534353
0.575379 0.570222 0.565065
0.605241 0.600447 0.595652
0.634914 0.630480 0.626046
0.664332 0.660255 0.656178
0.693427 0.689703 0.685979
0.548125 0.542637 0.537148
0.578100 0.572976 0.567852
0.607948 0.603186 0.598424
0.637600 0.633199 0.628797
0.666991 0.662947 0.658902
0.696053 0.692362 0.688670
0.724720 0.721376 0.718033
0.752923 0.749922 0.746922
0.780597 0.777933 0.775268
0.640284 0.635915 0.631546
0.669648 0.665635 0.661623
0.698677 0.695017 0.691357
0.727304 0.723992 0.720680
0.755462 0.752492 0.749522
0.783085 0.780450 0.777815
0.810105 0.807798 0.805492
0.836455 0.834468 0.832482
0.862068 0.860393 0.858718
0.729884 0.726603 0.723322
0.757996 0.755057 0.752118
0.785567 0.782963 0.780358
0.812529 0.810252 0.807975
0.838815 0.836857 0.834899
0.864358 0.862710 0.861063
0.889092 0.887744 0.886397
0.912948 0.911891 0.910834
0.935862 0.935083 0.934304
0.814947 0.812700 0.810452
0.841169 0.839239 0.837310
0.866641 0.865021 0.863401
0.891298 0.889977 0.888657
0.915071 0.914040 0.913008
0.937896 0.937141 0.936387
0.959703 0.959214 0.958724
0.980427 0.980189 0.979951
1.000000 1.000000 1.000000
