public/luts/bw-film.cube
TITLE "OneMoment bw-film"
LUT_3D_SIZE 33
DOMAIN_MIN 0.0 0.0 0.0
DOMAIN_MAX 1.0 1.0 1.0
0.041640 0.030000 0.018360
0.046422 0.034840 0.023258
0.051279 0.039756 0.028233
0.056209 0.044746 0.033283
0.061213 0.049811 0.038409
0.066289 0.054948 0.043608
0.071435 0.060157 0.048879
0.076652 0.065437 0.054222
0.081937 0.070786 0.059636
0.087290 0.076204 0.065119
0.092709 0.081690 0.070670
0.098195 0.087242 0.076288
0.103744 0.092859 0.081973
0.109358 0.098540 0.087723
0.115034 0.104285 0.093536
0.120771 0.110092 0.099413
0.126569 0.115960 0.105352
0.132426 0.121888 0.111351
0.138341 0.127875 0.117410
0.144314 0.133921 0.123528
0.150342 0.140023 0.129703
0.156426 0.146181 0.135935
0.162565 0.152393 0.142222
0.168756 0.158660 0.148564
0.174999 0.164979 0.154959
0.181293 0.171349 0.161406
0.187637 0.177771 0.167904
0.194031 0.184241 0.174452
0.200471 0.190761 0.181050
0.206959 0.197327 0.187695
0.213493 0.203940 0.194387
0.220071 0.210598 0.201125
0.226693 0.217300 0.207908
0.056661 0.045204 0.033746
0.061672 0.050275 0.038878
0.066754 0.055419 0.044084
0.071907 0.060634 0.049362
0.077129 0.065920 0.054712
0.082421 0.071276 0.060131
0.087780 0.076700 0.065621
0.093205 0.082192 0.071178
0.098696 0.087749 0.076802
0.104252 0.093373 0.082493
0.109871 0.099060 0.088249
0.115553 0.104810 0.094068
0.121295 0.110623 0.099950
0.127099 0.116497 0.105894
0.132961 0.122430 0.111899
0.138882 0.128423 0.117964
0.144859 0.134473 0.124087
0.150893 0.140580 0.130267
0.156982 0.146743 0.136504
0.163125 0.152961 0.142796
0.169321 0.159232 0.149143
0.175569 0.165556 0.155543
0.181868 0.171931 0.161994
0.188217 0.178357 0.168497
0.194614 0.184832 0.175050
0.201059 0.191356 0.181652
0.207551 0.197926 0.188302
0.214089 0.204543 0.194998
0.220671 0.211206 0.201740
0.227297 0.217912 0.208527
0.233965 0.224661 0.215357
0.240675 0.231452 0.222230
0.247425 0.238284 0.229144
0.072379 0.061112 0.049845
0.077608 0.066405 0.055201
0.082905 0.071766 0.060628
0.088270 0.077197 0.066123
0.093702 0.082694 0.071687
0.099199 0.088258 0.077317
0.104760 0.093887 0.083014
0.110385 0.099580 0.088775
0.116072 0.105336 0.094600
0.121821 0.111154 0.100488
0.127629 0.117033 0.106438
0.133497 0.122972 0.112448
0.139423 0.128970 0.118518
0.145406 0.135026 0.124646
0.151445 0.141138 0.130832
0.157538 0.147306 0.137074
0.163686 0.153529 0.143371
0.169887 0.159805 0.149722
0.176140 0.166133 0.156127
0.182443 0.172513 0.162583
0.188796 0.178944 0.169091
0.195198 0.185423 0.175648
0.201648 0.191951 0.182254
0.208144 0.198526 0.188908
0.214685 0.205147 0.195609
0.221272 0.211813 0.202355
0.227901 0.218524 0.209146
0.234573 0.225277 0.215980
0.241287 0.232072 0.222857
0.248041 0.238908 0.229774
0.254834 0.245783 0.236733
0.261665 0.252698 0.243730
0.268534 0.259649 0.250765
0.088761 0.077694 0.066626
0.094199 0.083197 0.072196
0.099702 0.088767 0.077832
0.105269 0.094402 0.083535
0.110900 0.100101 0.089302
0.116592 0.105863 0.095133
0.122346 0.111686 0.101027
0.128160 0.117571 0.106982
0.134033 0.123515 0.112998
0.139964 0.129518 0.119073
0.145952 0.135579 0.125206
0.151996 0.141697 0.131397
0.158095 0.147870 0.137644
0.164248 0.154097 0.143946
0.170453 0.160378 0.150302
0.176711 0.166711 0.156712
0.183019 0.173096 0.163173
0.189376 0.179531 0.169685
0.195782 0.186015 0.176247
0.202236 0.192547 0.182857
0.208737 0.199126 0.189516
0.215282 0.205751 0.196220
0.221873 0.212422 0.202971
0.228506 0.219136 0.209765
0.235182 0.225893 0.216603
0.241899 0.232692 0.223484
0.248657 0.239531 0.230405
0.255453 0.246410 0.237367
0.262288 0.253328 0.244368
0.269160 0.260283 0.251407
0.276068 0.267275 0.258482
0.283011 0.274302 0.265594
0.289988 0.281364 0.272740
0.105778 0.094917 0.084056
0.111415 0.100622 0.089829
0.117113 0.106389 0.095666
0.122872 0.112219 0.101565
0.128692 0.118109 0.107526
0.134570 0.124059 0.113547
0.140506 0.130067 0.119628
0.146499 0.136133 0.125767
0.152548 0.142256 0.131963
0.158652 0.148433 0.138215
0.164810 0.154666 0.144522
0.171020 0.160952 0.150883
0.177282 0.167290 0.157297
0.183595 0.173679 0.163763
0.189957 0.180118 0.170279
0.196367 0.186607 0.176846
0.202825 0.193143 0.183461
0.209330 0.199726 0.190123
0.215880 0.206356 0.196832
0.222474 0.213030 0.203587
0.229111 0.219748 0.210385
0.235791 0.226509 0.217227
0.242512 0.233312 0.224111
0.249273 0.240155 0.231037
0.256073 0.247037 0.238002
0.262911 0.253959 0.245006
0.269786 0.260917 0.252048
0.276698 0.267913 0.259127
0.283644 0.274943 0.266242
0.290624 0.282008 0.273392
0.297636 0.289106 0.280575
0.304681 0.296236 0.287790
0.311756 0.303397 0.295038
0.123399 0.112752 0.102105
0.129224 0.118647 0.108071
0.135107 0.124602 0.114098
0.141049 0.130616 0.120184
0.147047 0.136687 0.126328
0.153101 0.142815 0.132529
0.159210 0.148998 0.138786
0.165372 0.155235 0.145098
0.171587 0.161526 0.151464
0.177854 0.167868 0.157883
0.184171 0.174262 0.164353
0.190537 0.180706 0.170874
0.196952 0.187199 0.177445
0.203415 0.193740 0.184064
0.209923 0.200327 0.190731
0.216477 0.206961 0.197444
0.223075 0.213639 0.204203
0.229717 0.220361 0.211005
0.236400 0.227126 0.217851
0.243125 0.233932 0.224739
0.249890 0.240779 0.231668
0.256693 0.247665 0.238637
0.263535 0.254590 0.245645
0.270413 0.261552 0.252690
0.277328 0.268550 0.259773
0.284277 0.275584 0.266891
0.291260 0.282652 0.274043
0.298275 0.289752 0.281229
0.305323 0.296885 0.288448
0.312401 0.304049 0.295698
0.319508 0.311243 0.302978
0.326644 0.318466 0.310288
0.333808 0.325717 0.317625
0.141592 0.131166 0.120740
0.147595 0.137242 0.126889
0.153654 0.143375 0.133095
0.159768 0.149563 0.139357
0.165935 0.155805 0.145674
0.172155 0.162100 0.152045
0.178426 0.168447 0.158469
0.184748 0.174846 0.164944
0.191119 0.181294 0.171470
0.197538 0.187791 0.178045
0.204005 0.194337 0.184669
0.210517 0.200928 0.191340
0.217075 0.207566 0.198057
0.223677 0.214248 0.204819
0.230323 0.220974 0.211626
0.237010 0.227743 0.218476
0.243738 0.234553 0.225367
0.250506 0.241403 0.232300
0.257314 0.248293 0.239273
0.264159 0.255221 0.246284
0.271040 0.262187 0.253333
0.277958 0.269188 0.260418
0.284910 0.276225 0.267540
0.291896 0.283296 0.274695
0.298915 0.290400 0.281884
0.305965 0.297535 0.289106
0.313046 0.304702 0.296358
0.320156 0.311899 0.303641
0.327294 0.319124 0.310953
0.334460 0.326377 0.318294
0.341653 0.333657 0.325661
0.348871 0.340962 0.333054
0.356112 0.348292 0.340472
0.160326 0.150128 0.139929
0.166498 0.156375 0.146251
0.172723 0.162675 0.152627
0.178999 0.169027 0.159055
0.185325 0.175430 0.165535
0.191700 0.181883 0.172065
0.198124 0.188384 0.178645
0.204595 0.194934 0.185273
0.211112 0.201530 0.191948
0.217674 0.208172 0.198670
0.224280 0.214858 0.205436
0.230929 0.221588 0.212247
0.237620 0.228360 0.219101
0.244352 0.235174 0.225996
0.251124 0.242028 0.232932
0.257934 0.248921 0.239908
0.264783 0.255853 0.246923
0.271668 0.262822 0.253975
0.278589 0.269826 0.261064
0.285544 0.276866 0.268189
0.292533 0.283940 0.275347
0.299554 0.291047 0.282540
0.306607 0.298186 0.289764
0.313691 0.305355 0.297019
0.320804 0.312554 0.304305
0.327945 0.319782 0.311620
0.335113 0.327038 0.318962
0.342308 0.334320 0.326332
0.349528 0.341627 0.333727
0.356772 0.348960 0.341147
0.364039 0.356315 0.348591
0.371329 0.363693 0.356057
0.378639 0.371092 0.363545
0.179572 0.169607 0.159642
0.185902 0.176015 0.166127
0.192282 0.182472 0.172662
0.198710 0.188978 0.179246
0.205185 0.195532 0.185878
0.211706 0.202132 0.192558
0.218272 0.208778 0.199283
0.224882 0.215468 0.206054
0.231535 0.222202 0.212868
0.238230 0.228978 0.219726
0.244966 0.235795 0.226625
0.251741 0.242653 0.233565
0.258555 0.249550 0.240545
0.265407 0.256485 0.247563
0.272295 0.263457 0.254618
0.279219 0.270465 0.261711
0.286178 0.277508 0.268838
0.293170 0.284585 0.276000
0.300194 0.291695 0.283195
0.307250 0.298836 0.290422
0.314336 0.306008 0.297680
0.321452 0.313210 0.304969
0.328595 0.320441 0.312286
0.335766 0.327699 0.319631
0.342963 0.334983 0.327003
0.350185 0.342293 0.334401
0.357432 0.349627 0.341823
0.364701 0.356985 0.349269
0.371992 0.364365 0.356737
0.379304 0.371766 0.364227
0.386636 0.379187 0.371737
0.393987 0.386627 0.379266
0.401356 0.394085 0.386814
0.199297 0.189572 0.179847
0.205776 0.196130 0.186483
0.212301 0.202734 0.193167
0.218872 0.209384 0.199897
0.225486 0.216078 0.206671
0.232142 0.222816 0.213490
0.238841 0.229596 0.220351
0.245580 0.236417 0.227254
0.252359 0.243278 0.234198
0.259177 0.250179 0.241181
0.266032 0.257117 0.248203
0.272923 0.264093 0.255262
0.279851 0.271104 0.262357
0.286812 0.278150 0.269488
0.293807 0.285230 0.276653
0.300834 0.292343 0.283851
0.307893 0.299487 0.291081
0.314982 0.306662 0.298342
0.322100 0.313866 0.305633
0.329246 0.321099 0.312953
0.336419 0.328360 0.320300
0.343619 0.335647 0.327674
0.350843 0.342959 0.335074
0.358092 0.350295 0.342499
0.365363 0.357655 0.349947
0.372656 0.365037 0.357417
0.379970 0.372439 0.364909
0.387304 0.379862 0.372421
0.394656 0.387304 0.379952
0.402027 0.394764 0.387501
0.409414 0.402240 0.395067
0.416816 0.409733 0.402650
0.424233 0.417240 0.410247
0.219471 0.209991 0.200511
0.226089 0.216689 0.207290
0.232750 0.223431 0.214112
0.239452 0.230214 0.220977
0.246195 0.237039 0.227884
0.252977 0.243904 0.234831
0.259798 0.250808 0.241818
0.266657 0.257750 0.248843
0.273552 0.264728 0.255905
0.280482 0.271743 0.263004
0.287447 0.278792 0.270138
0.294445 0.285875 0.277306
0.301475 0.292991 0.284507
0.308536 0.300138 0.291740
0.315628 0.307316 0.299003
0.322748 0.314523 0.306297
0.329897 0.321758 0.313619
0.337073 0.329021 0.320969
0.344275 0.336310 0.328346
0.351501 0.343625 0.335748
0.358752 0.350963 0.343175
0.366025 0.358325 0.350625
0.373320 0.365709 0.358097
0.380636 0.373113 0.365591
0.387972 0.380538 0.373105
0.395326 0.387982 0.380637
0.402698 0.395443 0.388188
0.410086 0.402921 0.395756
0.417490 0.410415 0.403340
0.424908 0.417923 0.410938
0.432340 0.425445 0.418550
0.439784 0.432980 0.426175
0.447239 0.440526 0.433812
0.240063 0.230833 0.221603
0.246810 0.237662 0.228514
0.253596 0.244530 0.235465
0.260420 0.251438 0.242455
0.267282 0.258383 0.249483
0.274180 0.265365 0.256549
0.281114 0.272382 0.263651
0.288082 0.279435 0.270788
0.295082 0.286521 0.277959
0.302116 0.293639 0.285163
0.309180 0.300789 0.292399
0.316274 0.307970 0.299665
0.323397 0.315179 0.306961
0.330548 0.322417 0.314286
0.337727 0.329683 0.321639
0.344931 0.336974 0.329018
0.352159 0.344291 0.336422
0.359412 0.351632 0.343851
0.366687 0.358995 0.351303
0.373984 0.366381 0.358778
0.381302 0.373788 0.366273
0.388639 0.381214 0.373789
0.395995 0.388659 0.381323
0.403369 0.396122 0.388875
0.410758 0.403602 0.396445
0.418164 0.411097 0.404030
0.425583 0.418606 0.411630
0.433016 0.426130 0.419243
0.440461 0.433665 0.426869
0.447918 0.441212 0.434507
0.455384 0.448769 0.442155
0.462860 0.456336 0.449812
0.470344 0.463910 0.457477
0.261043 0.252067 0.243092
0.267908 0.259016 0.250124
0.274809 0.266001 0.257193
0.281746 0.273022 0.264298
0.288717 0.280078 0.271438
0.295721 0.287166 0.278612
0.302756 0.294288 0.285819
0.309823 0.301441 0.293058
0.316920 0.308624 0.300327
0.324046 0.315836 0.307626
0.331200 0.323077 0.314954
0.338380 0.330345 0.322309
0.345587 0.337638 0.329690
0.352818 0.344957 0.337097
0.360072 0.352300 0.344528
0.367350 0.359666 0.351982
0.374649 0.367053 0.359458
0.381968 0.374462 0.366955
0.389307 0.381890 0.374473
0.396665 0.389337 0.382009
0.404040 0.396801 0.389563
0.411431 0.404282 0.397134
0.418837 0.411779 0.404720
0.426258 0.419290 0.412321
0.433692 0.426814 0.419936
0.441139 0.434351 0.427563
0.448596 0.441899 0.435201
0.456063 0.449457 0.442850
0.463540 0.457024 0.450508
0.471024 0.464599 0.458175
0.478516 0.472182 0.465848
0.486013 0.479770 0.473527
0.493515 0.487363 0.481212
0.282378 0.273662 0.264946
0.289352 0.280721 0.272089
0.296359 0.287813 0.279266
0.303398 0.294937 0.286476
0.310467 0.302092 0.293718
0.317567 0.309278 0.300990
0.324695 0.316493 0.308291
0.331852 0.323736 0.315621
0.339034 0.331007 0.322979
0.346243 0.338303 0.330362
0.353476 0.345624 0.337771
0.360733 0.352969 0.345204
0.368013 0.360337 0.352661
0.375313 0.367726 0.360139
0.382635 0.375136 0.367638
0.389975 0.382566 0.375157
0.397335 0.390015 0.382695
0.404711 0.397481 0.390251
0.412104 0.404963 0.397823
0.419512 0.412461 0.405411
0.426934 0.419973 0.413013
0.434369 0.427499 0.420629
0.441816 0.435037 0.428257
0.449274 0.442585 0.435896
0.456743 0.450144 0.443546
0.464220 0.457712 0.451205
0.471705 0.465288 0.458872
0.479197 0.472871 0.466546
0.486695 0.480460 0.474226
0.494197 0.488054 0.481911
0.501704 0.495651 0.489599
0.509213 0.503252 0.497291
0.516723 0.510853 0.504984
0.304039 0.295586 0.287133
0.311112 0.302744 0.294377
0.318214 0.309933 0.301652
0.325345 0.317151 0.308956
0.332503 0.324396 0.316289
0.339689 0.331669 0.323649
0.346900 0.338967 0.331035
0.354135 0.346291 0.338446
0.361394 0.353638 0.345881
0.368675 0.361007 0.353340
0.375978 0.368399 0.360820
0.383301 0.375811 0.368321
0.390644 0.383243 0.375842
0.398004 0.390693 0.383381
0.405382 0.398160 0.390938
0.412776 0.405644 0.398512
0.420186 0.413143 0.406101
0.427609 0.420657 0.413705
0.435045 0.428184 0.421322
0.442494 0.435722 0.428951
0.449953 0.443272 0.436591
0.457422 0.450832 0.444242
0.464900 0.458401 0.451902
0.472386 0.465978 0.459569
0.479878 0.473561 0.467244
0.487377 0.481150 0.474924
0.494880 0.488745 0.482609
0.502386 0.496342 0.490298
0.509895 0.503943 0.497990
0.517406 0.511544 0.505683
0.524917 0.519147 0.513376
0.532427 0.526748 0.521069
0.539936 0.534349 0.528761
0.325994 0.317808 0.309622
0.333156 0.325056 0.316957
0.340343 0.332331 0.324319
0.347556 0.339632 0.331708
0.354794 0.346958 0.339121
0.362055 0.354307 0.346558
0.369338 0.361679 0.354019
0.376643 0.369072 0.361501
0.383968 0.376486 0.369004
0.391312 0.383919 0.376526
0.398674 0.391371 0.384067
0.406054 0.398840 0.391626
0.413449 0.406325 0.399201
0.420860 0.413826 0.406792
0.428285 0.421341 0.414397
0.435722 0.428868 0.422015
0.443171 0.436408 0.429645
0.450632 0.443959 0.437287
0.458102 0.451520 0.444938
0.465580 0.459089 0.452598
0.473067 0.466667 0.460267
0.480560 0.474251 0.467942
0.488059 0.481841 0.475623
0.495562 0.489435 0.483308
0.503069 0.497033 0.490997
0.510578 0.504634 0.498689
0.518089 0.512236 0.506382
0.525600 0.519838 0.514076
0.533110 0.527439 0.521769
0.540619 0.535039 0.529460
0.548125 0.542637 0.537148
0.555627 0.550230 0.544833
0.563124 0.557818 0.552512
0.348213 0.340297 0.332381
0.355453 0.347625 0.339796
0.362716 0.354976 0.347236
0.370002 0.362350 0.354698
0.377308 0.369745 0.362182
0.384635 0.377161 0.369687
0.391981 0.384596 0.377211
0.399345 0.392049 0.384754
0.406726 0.399520 0.392314
0.414123 0.407007 0.399891
0.421534 0.414508 0.407483
0.428960 0.422024 0.415089
0.436399 0.429553 0.422708
0.443849 0.437094 0.430339
0.451310 0.444646 0.437982
0.458781 0.452208 0.445634
0.466261 0.459778 0.453295
0.473748 0.467356 0.460964
0.481241 0.474941 0.468640
0.488741 0.482531 0.476321
0.496244 0.490126 0.484007
0.503751 0.497724 0.491697
0.511261 0.505325 0.499389
0.518772 0.512927 0.507082
0.526283 0.520529 0.514775
0.533793 0.528130 0.522468
0.541301 0.535730 0.530159
0.548807 0.543327 0.537847
0.556309 0.550920 0.545531
0.563806 0.558508 0.553210
0.571296 0.566090 0.560883
0.578780 0.573664 0.568548
0.586256 0.581231 0.576205
0.370665 0.363021 0.355377
0.377973 0.370418 0.362863
0.385302 0.377836 0.370370
0.392649 0.385273 0.377896
0.400015 0.392728 0.385440
0.407397 0.400200 0.393002
0.414796 0.407688 0.400580
0.422209 0.415191 0.408173
0.429636 0.422708 0.415781
0.437076 0.430238 0.423401
0.444527 0.437780 0.431034
0.451989 0.445333 0.438677
0.459461 0.452895 0.446330
0.466941 0.460467 0.453992
0.474429 0.468045 0.461662
0.481923 0.475630 0.469338
0.489423 0.483221 0.477020
0.496927 0.490816 0.484706
0.504434 0.498415 0.492396
0.511943 0.506016 0.500088
0.519454 0.513618 0.507781
0.526965 0.521220 0.515475
0.534476 0.528821 0.523167
0.541984 0.536421 0.530858
0.549489 0.544017 0.538546
0.556991 0.551610 0.546229
0.564487 0.559197 0.553908
0.571977 0.566778 0.561580
0.579460 0.574352 0.569245
0.586935 0.581918 0.576901
0.594401 0.589474 0.584548
0.601856 0.597020 0.592185
0.609300 0.604555 0.599810
0.393318 0.385950 0.378581
0.400685 0.393406 0.386127
0.408069 0.400880 0.393690
0.415469 0.408369 0.401270
0.422884 0.415874 0.408864
0.430312 0.423392 0.416473
0.437752 0.430924 0.424095
0.445205 0.438466 0.431728
0.452668 0.446020 0.439372
0.460140 0.453583 0.447026
0.467621 0.461155 0.454689
0.475110 0.468735 0.462359
0.482604 0.476320 0.470036
0.490105 0.483911 0.477718
0.497609 0.491507 0.485405
0.505116 0.499106 0.493095
0.512626 0.506707 0.500787
0.520137 0.514309 0.508481
0.527648 0.521911 0.516174
0.535158 0.529512 0.523867
0.542666 0.537112 0.531557
0.550171 0.544708 0.539244
0.557672 0.552300 0.546927
0.565168 0.559887 0.554605
0.572658 0.567467 0.562277
0.580140 0.575041 0.569941
0.587614 0.582605 0.577597
0.595079 0.590161 0.585243
0.602533 0.597706 0.592878
0.609976 0.605239 0.600502
0.617407 0.612760 0.608113
0.624824 0.620267 0.615710
0.632226 0.627760 0.623293
0.416142 0.409051 0.401960
0.423558 0.416557 0.409556
0.430988 0.424077 0.417165
0.438430 0.431609 0.424788
0.445883 0.439153 0.432423
0.453347 0.446707 0.440068
0.460820 0.454271 0.447723
0.468302 0.461844 0.455386
0.475791 0.469424 0.463057
0.483286 0.477010 0.470734
0.490787 0.484602 0.478417
0.498291 0.492198 0.486104
0.505799 0.499797 0.493794
0.513309 0.507398 0.501487
0.520820 0.515000 0.509180
0.528331 0.522602 0.516873
0.535841 0.530203 0.524566
0.543349 0.537802 0.532256
0.550853 0.545398 0.539943
0.558354 0.552990 0.547626
0.565849 0.560576 0.555303
0.573338 0.568156 0.562974
0.580820 0.575729 0.570637
0.588293 0.583293 0.578292
0.595757 0.590847 0.585937
0.603210 0.598391 0.593572
0.610652 0.605923 0.601195
0.618082 0.613443 0.608804
0.625498 0.620949 0.616400
0.632899 0.628440 0.623981
0.640284 0.635915 0.631546
0.647653 0.643373 0.639094
0.655004 0.650813 0.646623
0.439107 0.432294 0.425482
0.446561 0.439839 0.433117
0.454026 0.447395 0.440763
0.461500 0.454959 0.448419
0.468982 0.462533 0.456083
0.476472 0.470113 0.463755
0.483968 0.477700 0.471433
0.491469 0.485292 0.479116
0.498974 0.492888 0.486803
0.506482 0.500488 0.494493
0.513992 0.508089 0.502186
0.521503 0.515691 0.509879
0.529014 0.523293 0.517573
0.536524 0.530894 0.525265
0.544031 0.538493 0.532955
0.551535 0.546089 0.540642
0.559036 0.553680 0.548324
0.566530 0.561265 0.556001
0.574019 0.568845 0.563671
0.581500 0.576417 0.571334
0.588972 0.583980 0.578988
0.596435 0.591534 0.586632
0.603888 0.599076 0.594265
0.611328 0.606608 0.601887
0.618756 0.614126 0.609496
0.626171 0.621631 0.617090
0.633571 0.629120 0.624670
0.640955 0.636594 0.632233
0.648322 0.644050 0.639779
0.655671 0.651489 0.647307
0.663001 0.658908 0.654815
0.670311 0.666307 0.662303
0.677601 0.673685 0.669769
0.462180 0.455648 0.449115
0.469663 0.463222 0.456780
0.477153 0.470803 0.464452
0.484649 0.478390 0.472131
0.492151 0.485983 0.479814
0.499656 0.493579 0.487502
0.507164 0.501179 0.495193
0.514675 0.508780 0.502885
0.522186 0.516382 0.510579
0.529697 0.523984 0.518272
0.537206 0.531585 0.525964
0.544713 0.539184 0.533654
0.552217 0.546779 0.541340
0.559717 0.554370 0.549022
0.567211 0.561955 0.556698
0.574699 0.569533 0.564368
0.582179 0.577105 0.572030
0.589651 0.584667 0.579683
0.597113 0.592220 0.587326
0.604564 0.599762 0.594959
0.612004 0.607292 0.602579
0.619431 0.614809 0.610187
0.626844 0.622312 0.617780
0.634243 0.629800 0.625358
0.641625 0.637272 0.632920
0.648991 0.644727 0.640464
0.656338 0.652164 0.647990
0.663667 0.659582 0.655497
0.670975 0.666979 0.662983
0.678262 0.674355 0.670447
0.685528 0.681708 0.677888
0.692769 0.689038 0.685306
0.699987 0.696343 0.692699
0.485331 0.479080 0.472829
0.492833 0.486673 0.480513
0.500339 0.494270 0.488201
0.507847 0.501870 0.495892
0.515357 0.509471 0.503585
0.522868 0.517073 0.511278
0.530379 0.524675 0.518971
0.537889 0.532276 0.526663
0.545396 0.539874 0.534353
0.552899 0.547469 0.542039
0.560399 0.555059 0.549720
0.567892 0.562644 0.557396
0.575379 0.570222 0.565065
0.582859 0.577792 0.572726
0.590330 0.585354 0.580378
0.597791 0.592906 0.588021
0.605241 0.600447 0.595652
0.612680 0.607976 0.603271
0.620106 0.615492 0.610877
0.627517 0.622993 0.618469
0.634914 0.630480 0.626046
0.642295 0.637951 0.633606
0.649659 0.645404 0.641149
0.657005 0.652839 0.648673
0.664332 0.660255 0.656178
0.671638 0.667650 0.663662
0.678924 0.675024 0.671124
0.686187 0.682375 0.678564
0.693427 0.689703 0.685979
0.700642 0.697006 0.693370
0.707832 0.704283 0.700735
0.714996 0.711534 0.708072
0.722132 0.718757 0.715382
0.508530 0.502561 0.496591
0.516040 0.510162 0.504284
0.523551 0.517764 0.511978
0.531062 0.525366 0.519671
0.538571 0.532967 0.527363
0.546078 0.540565 0.535052
0.553581 0.548159 0.542737
0.561080 0.555749 0.550418
0.568573 0.563333 0.558093
0.576060 0.570911 0.565762
0.583538 0.578480 0.573422
0.591008 0.586041 0.581073
0.598469 0.593592 0.588715
0.605918 0.601132 0.596345
0.613355 0.608659 0.603963
0.620780 0.616174 0.611568
0.628191 0.623675 0.619159
0.635586 0.631160 0.626734
0.642966 0.638629 0.634293
0.650328 0.646081 0.641834
0.657672 0.653514 0.649356
0.664997 0.660928 0.656859
0.672302 0.668321 0.664341
0.679585 0.675693 0.671802
0.686846 0.683042 0.679239
0.694084 0.690368 0.686652
0.701297 0.697669 0.694041
0.708484 0.704944 0.701403
0.715646 0.712192 0.708738
0.722779 0.719412 0.716045
0.729884 0.726603 0.723322
0.736959 0.733764 0.730570
0.744004 0.740894 0.737785
0.531745 0.526057 0.520370
0.539254 0.533658 0.528062
0.546760 0.541255 0.535751
0.554263 0.548850 0.543436
0.561762 0.556439 0.551116
0.569254 0.564022 0.558791
0.576740 0.571599 0.566458
0.584218 0.579168 0.574118
0.591687 0.586728 0.581769
0.599146 0.594278 0.589409
0.606595 0.601816 0.597038
0.614031 0.609343 0.604655
0.621454 0.616857 0.612259
0.628864 0.624356 0.619848
0.636258 0.631840 0.627422
0.643636 0.639307 0.634979
0.650996 0.646757 0.642518
0.658339 0.654189 0.650039
0.665662 0.661601 0.657540
0.672965 0.668993 0.665020
0.680246 0.676362 0.672479
0.687505 0.683709 0.679914
0.694740 0.691033 0.687325
0.701951 0.698331 0.694711
0.709137 0.705604 0.702071
0.716295 0.712849 0.709404
0.723426 0.720067 0.716708
0.730528 0.727256 0.723983
0.737601 0.734414 0.731227
0.744643 0.741541 0.738440
0.751652 0.748636 0.745620
0.758629 0.755698 0.752766
0.765572 0.762725 0.759878
0.554945 0.549540 0.544134
0.562443 0.557129 0.551814
0.569935 0.564712 0.559488
0.577420 0.572288 0.567155
0.584897 0.579856 0.574814
0.592366 0.587415 0.582464
0.599824 0.594963 0.590103
0.607271 0.602501 0.597731
0.614706 0.610027 0.605347
0.622128 0.617539 0.612949
0.629536 0.625037 0.620537
0.636929 0.632519 0.628109
0.644305 0.639985 0.635665
0.651665 0.647434 0.643203
0.659005 0.654864 0.650722
0.666327 0.662274 0.658221
0.673627 0.669663 0.665699
0.680907 0.677031 0.673156
0.688164 0.684376 0.680589
0.695397 0.691697 0.687998
0.702606 0.698993 0.695381
0.709788 0.706264 0.702739
0.716945 0.713507 0.710069
0.724073 0.720722 0.717370
0.731173 0.727908 0.724642
0.738242 0.735063 0.731884
0.745281 0.742187 0.739094
0.752288 0.749279 0.746271
0.759262 0.756338 0.753414
0.766202 0.763362 0.760522
0.773106 0.770351 0.767595
0.779975 0.777302 0.774630
0.786806 0.784217 0.781627
0.578100 0.572976 0.567852
0.585577 0.580543 0.575510
0.593044 0.588101 0.583159
0.600501 0.595649 0.590797
0.607948 0.603186 0.598424
0.615382 0.610710 0.606039
0.622803 0.618221 0.613640
0.630209 0.625718 0.621226
0.637600 0.633199 0.628797
0.644975 0.640663 0.636351
0.652333 0.648110 0.643887
0.659672 0.655538 0.651405
0.666991 0.662947 0.658902
0.674290 0.670334 0.666378
0.681568 0.677700 0.673832
0.688822 0.685043 0.681263
0.696053 0.692362 0.688670
0.703260 0.699655 0.696051
0.710440 0.706923 0.703406
0.717594 0.714164 0.710734
0.724720 0.721376 0.718033
0.731817 0.728559 0.725302
0.738884 0.735712 0.732541
0.745919 0.742834 0.739748
0.752923 0.749922 0.746922
0.759894 0.756978 0.754062
0.766831 0.763999 0.761167
