public/luts/moody-cool.cube
TITLE "OneMoment moody-cool"
LUT_3D_SIZE 9
DOMAIN_MIN 0.0 0.0 0.0
DOMAIN_MAX 1.0 1.0 1.0
0.000000 0.000000 0.043239
0.072407 0.000000 0.044045
0.184822 0.001233 0.045034
0.305775 0.004873 0.046190
0.430962 0.008633 0.047489
0.556088 0.012384 0.048890
0.676867 0.015998 0.050340
0.789018 0.019348 0.051774
0.888271 0.022308 0.053112
0.000000 0.100491 0.046209
0.085599 0.103478 0.047233
0.197868 0.106846 0.048468
0.318664 0.110462 0.049889
0.443688 0.114199 0.051462
0.568652 0.117926 0.053137
0.689273 0.121518 0.054853
0.801279 0.124846 0.056532
0.900402 0.127788 0.058088
0.000684 0.219749 0.050445
0.099977 0.222715 0.051715
0.212081 0.226059 0.053228
0.332699 0.229649 0.054949
0.457540 0.233359 0.056831
0.582320 0.237060 0.058817
0.702763 0.240625 0.060831
0.814604 0.243930 0.062789
0.913581 0.246850 0.064591
0.015698 0.348033 0.056050
0.114833 0.350976 0.057585
0.226760 0.354293 0.059397
0.347187 0.357856 0.061440
0.471830 0.361537 0.063656
0.596412 0.365209 0.065975
0.716665 0.368747 0.068312
0.828328 0.372026 0.070568
0.927148 0.374923 0.072635
0.030567 0.480772 0.062996
0.129540 0.483691 0.064805
0.241283 0.486982 0.066927
0.361512 0.490516 0.069303
0.485950 0.494167 0.071865
0.610327 0.497809 0.074529
0.730382 0.501318 0.077199
0.841861 0.504570 0.079766
0.940519 0.507444 0.082107
0.044748 0.613410 0.071104
0.143558 0.616306 0.073187
0.255117 0.619570 0.075619
0.375148 0.623076 0.078329
0.499381 0.626697 0.081236
0.623553 0.630309 0.084245
0.743410 0.633789 0.087249
0.854706 0.637015 0.090125
0.953201 0.639865 0.092741
0.057787 0.741406 0.080036
0.156440 0.744279 0.082385
0.267822 0.747517 0.085116
0.387662 0.750995 0.088147
0.511698 0.754588 0.091388
0.635672 0.758171 0.094731
0.755338 0.761624 0.098057
0.866456 0.764823 0.101232
0.964793 0.767650 0.104113
0.069326 0.860230 0.089305
0.167832 0.863082 0.091900
0.279049 0.866296 0.094909
0.398712 0.869748 0.098240
0.522563 0.873314 0.101790
0.646354 0.876870 0.105443
0.765842 0.880297 0.109068
0.876795 0.883473 0.112522
0.974987 0.886278 0.115648
0.079078 0.965364 0.098292
0.177455 0.968196 0.101105
0.288526 0.971389 0.104359
0.408032 0.974818 0.107955
0.531721 0.978360 0.111780
0.655348 0.981894 0.115707
0.774679 0.985297 0.119597
0.885487 0.988452 0.123297
0.983549 0.991239 0.126641
0.000000 0.000000 0.139068
0.073758 0.000000 0.139896
0.186159 0.002251 0.140910
0.307096 0.005888 0.142093
0.432266 0.009645 0.143419
0.557376 0.013394 0.144848
0.678139 0.017006 0.146325
0.790276 0.020354 0.147783
0.889515 0.023312 0.149143
0.000000 0.101506 0.142112
0.086907 0.104492 0.143158
0.199161 0.107857 0.144418
0.319941 0.111471 0.145866
0.444949 0.115205 0.147466
0.569896 0.118930 0.149169
0.690501 0.122519 0.150912
0.802492 0.125846 0.152616
0.901602 0.128785 0.154194
0.001955 0.220757 0.146432
0.101235 0.223721 0.147724
0.213324 0.227062 0.149261
0.333927 0.230651 0.151009
0.458751 0.234358 0.152919
0.583514 0.238057 0.154932
0.703942 0.241620 0.156974
0.815768 0.244922 0.158956
0.914732 0.247841 0.160780
0.016916 0.349033 0.152127
0.116038 0.351974 0.153684
0.227950 0.355289 0.155521
0.348361 0.358850 0.157590
0.472988 0.362528 0.159834
0.597553 0.366198 0.162180
0.717790 0.369733 0.164544
0.829438 0.373010 0.166825
0.928245 0.375906 0.168914
0.031730 0.481764 0.159166
0.130689 0.484681 0.160997
0.242418 0.487970 0.163144
0.362631 0.491502 0.165547
0.487053 0.495150 0.168136
0.611413 0.498790 0.170828
0.731452 0.502297 0.173525
0.842917 0.505547 0.176116
0.941561 0.508419 0.178479
0.045855 0.614394 0.167366
0.144652 0.617288 0.169472
0.256196 0.620550 0.171929
0.376212 0.624053 0.174665
0.500428 0.627672 0.177600
0.624584 0.631282 0.180637
0.744425 0.634760 0.183668
0.855706 0.637983 0.186569
0.954188 0.640831 0.189206
0.058841 0.742383 0.176389
0.157481 0.745254 0.178760
0.268848 0.748490 0.181515
0.388673 0.751965 0.184574
0.512691 0.755555 0.187842
0.636649 0.759136 0.191213
0.756299 0.762586 0.194565
0.867402 0.765784 0.197766
0.965727 0.768609 0.200668
0.070330 0.861199 0.185742
0.168824 0.864049 0.188358
0.280026 0.867261 0.191392
0.399673 0.870711 0.194750
0.523508 0.874274 0.198328
0.647282 0.877828 0.202008
0.766754 0.881253 0.205660
0.877693 0.884426 0.209139
0.975871 0.887230 0.212287
0.080038 0.966326 0.194802
0.178403 0.969157 0.197637
0.289459 0.972348 0.200917
0.408949 0.975775 0.204540
0.532621 0.979314 0.208392
0.656232 0.982845 0.212347
0.775547 0.986246 0.216263
0.886340 0.989399 0.219988
0.984389 0.992184 0.223354
0.000000 0.000000 0.247315
0.075279 0.000015 0.248169
0.187663 0.003399 0.249210
0.308582 0.007034 0.250424
0.433734 0.010789 0.251781
0.558826 0.014535 0.253241
0.679570 0.018144 0.254749
0.791691 0.021489 0.256235
0.890915 0.024446 0.257620
0.000000 0.102652 0.250443
0.088378 0.105635 0.251514
0.200616 0.108998 0.252802
0.321378 0.112610 0.254280
0.446367 0.116341 0.255912
0.571296 0.120063 0.257646
0.691883 0.123650 0.259419
0.803858 0.126974 0.261151
0.902953 0.129911 0.262754
0.003385 0.221895 0.254857
0.102650 0.224857 0.256174
0.214723 0.228195 0.257740
0.335308 0.231781 0.259517
0.460113 0.235486 0.261459
0.584858 0.239182 0.263503
0.705268 0.242742 0.265575
0.817077 0.246042 0.267585
0.916027 0.248958 0.269434
0.018286 0.350161 0.260654
0.117393 0.353100 0.262236
0.229289 0.356413 0.264101
0.349682 0.359972 0.266200
0.474290 0.363647 0.268475
0.598837 0.367314 0.270853
0.719056 0.370847 0.273247
0.830687 0.374121 0.275556
0.929480 0.377015 0.277670
0.033037 0.482883 0.267798
0.131982 0.485799 0.269654
0.243694 0.489085 0.271829
0.363890 0.492614 0.274262
0.488293 0.496260 0.276883
0.612635 0.499897 0.279606
0.732656 0.503401 0.282333
0.844103 0.506649 0.284952
0.942733 0.509519 0.287341
0.047100 0.615505 0.276104
0.145882 0.618397 0.278235
0.257410 0.621656 0.280719
0.377408 0.625157 0.283486
0.501606 0.628773 0.286452
0.625743 0.632380 0.289520
0.745566 0.635855 0.292581
0.856830 0.639076 0.295510
0.955297 0.641922 0.298173
0.060026 0.743485 0.285228
0.158651 0.746353 0.287624
0.270002 0.749587 0.290407
0.389808 0.753060 0.293496
0.513808 0.756647 0.296796
0.637748 0.760226 0.300198
0.757380 0.763673 0.303581
0.868466 0.766868 0.306809
0.966776 0.769691 0.309736
0.071459 0.862293 0.294675
0.169938 0.865141 0.297317
0.281123 0.868350 0.300379
0.400752 0.871797 0.303767
0.524569 0.875358 0.307376
0.648324 0.878910 0.311088
0.767779 0.882331 0.314770
0.878700 0.885502 0.318276
0.976864 0.888304 0.321449
0.081117 0.967413 0.303820
0.179467 0.970241 0.306679
0.290507 0.973430 0.309987
0.409979 0.976854 0.313640
0.533632 0.980391 0.317523
0.657225 0.983919 0.321510
0.776522 0.987318 0.325457
0.887298 0.990468 0.329209
0.985333 0.993251 0.332600
0.000000 0.000000 0.363847
0.076910 0.001253 0.364727
0.189276 0.004634 0.365799
0.310176 0.008266 0.367045
0.435308 0.012018 0.368436
0.560380 0.015761 0.369930
0.681105 0.019368 0.371470
0.793207 0.022711 0.372986
0.892416 0.025664 0.374398
0.000000 0.103885 0.367065
0.089956 0.106865 0.368163
0.202176 0.110225 0.369480
0.322919 0.113834 0.370991
0.447888 0.117563 0.372657
0.572797 0.121282 0.374425
0.693365 0.124866 0.376230
0.805321 0.128188 0.377992
0.904401 0.131122 0.379622
0.004919 0.223118 0.371581
0.104168 0.226078 0.372925
0.216223 0.229414 0.374520
0.336788 0.232997 0.376330
0.461574 0.236699 0.378306
0.586298 0.240392 0.380384
0.706689 0.243949 0.382488
0.818480 0.247247 0.384528
0.917414 0.250161 0.386404
0.019754 0.351376 0.377487
0.118846 0.354312 0.379095
0.230724 0.357623 0.380990
0.351098 0.361178 0.383123
0.475685 0.364851 0.385431
0.600212 0.368515 0.387843
0.720412 0.372045 0.390269
0.832026 0.375317 0.392609
0.930802 0.378208 0.394749
0.034439 0.484088 0.384744
0.133368 0.487001 0.386627
0.245062 0.490284 0.388832
0.365238 0.493811 0.391298
0.489621 0.497454 0.393952
0.613943 0.501088 0.396709
0.733944 0.504589 0.399469
0.845375 0.507835 0.402118
0.943988 0.510702 0.404533
0.048434 0.616700 0.393163
0.147200 0.619589 0.395321
0.258710 0.622846 0.397836
0.378689 0.626344 0.400635
0.502867 0.629957 0.403634
0.626984 0.633561 0.406737
0.746788 0.637034 0.409830
0.858034 0.640252 0.412789
0.956485 0.643096 0.415478
0.061295 0.744670 0.402397
0.159905 0.747536 0.404819
0.271237 0.750767 0.407633
0.391024 0.754237 0.410754
0.515005 0.757822 0.414088
0.638924 0.761397 0.417523
0.758537 0.764842 0.420939
0.869605 0.768035 0.424197
0.967899 0.770855 0.427151
0.072668 0.863469 0.411946
0.171131 0.866315 0.414614
0.282298 0.869522 0.417706
0.401908 0.872966 0.421126
0.525705 0.876524 0.424769
0.649440 0.880072 0.428515
0.768875 0.883491 0.432229
0.879779 0.886660 0.435766
0.977927 0.889459 0.438966
0.082273 0.968581 0.421180
0.180607 0.971408 0.424066
0.291629 0.974594 0.427404
0.411081 0.978015 0.431090
0.534715 0.981549 0.435007
0.658288 0.985074 0.439027
0.777566 0.988470 0.443006
0.888324 0.991617 0.446789
0.986342 0.994398 0.450207
0.000000 0.000000 0.484528
0.078593 0.002534 0.485436
0.190940 0.005912 0.486539
0.311820 0.009541 0.487818
0.436931 0.013290 0.489244
0.561982 0.017031 0.490773
0.682687 0.020634 0.492347
0.794771 0.023974 0.493894
0.893963 0.026926 0.495334
0.000000 0.105160 0.487839
0.091583 0.108138 0.488964
0.203784 0.111495 0.490313
0.324507 0.115102 0.491858
0.449456 0.118827 0.493558
0.574344 0.122543 0.495361
0.694892 0.126124 0.497200
0.806829 0.129443 0.498994
0.905893 0.132376 0.500651
0.006500 0.224385 0.492460
0.105732 0.227342 0.493831
0.217769 0.230675 0.495458
0.338314 0.234255 0.497302
0.463079 0.237954 0.499312
0.587783 0.241644 0.501425
0.708154 0.245199 0.503563
0.819926 0.248494 0.505635
0.918844 0.251405 0.507538
0.021268 0.352632 0.498479
0.120343 0.355566 0.500116
0.232202 0.358874 0.502042
0.352556 0.362426 0.504208
0.477123 0.366096 0.506551
0.601630 0.369757 0.508998
0.721809 0.373284 0.511458
0.833405 0.376553 0.513829
0.932165 0.379442 0.515997
0.035883 0.485334 0.505854
0.134796 0.488245 0.507765
0.246471 0.491526 0.510001
0.366627 0.495049 0.512500
0.490989 0.498689 0.515189
0.615291 0.502320 0.517981
0.735272 0.505819 0.520774
0.846684 0.509061 0.523455
0.945281 0.511926 0.525898
0.049809 0.617936 0.514390
0.148559 0.620823 0.516576
0.260050 0.624077 0.519122
0.380008 0.627572 0.521954
0.504166 0.631182 0.524989
0.628262 0.634783 0.528126
0.748046 0.638253 0.531253
0.859274 0.641469 0.534244
0.957708 0.644310 0.536960
0.062603 0.745896 0.523737
0.161196 0.748760 0.526187
0.272510 0.751989 0.529032
0.392277 0.755456 0.532187
0.516236 0.759037 0.535555
0.640135 0.762610 0.539026
0.759728 0.766051 0.542475
0.870778 0.769241 0.545765
0.969055 0.772059 0.548747
0.073913 0.864687 0.533391
0.172359 0.867530 0.536087
0.283508 0.870734 0.539210
0.403098 0.874175 0.542665
0.526874 0.877730 0.546342
0.650589 0.881276 0.550123
0.770004 0.884692 0.553871
0.880889 0.887857 0.557439
0.979021 0.890654 0.560667
0.083463 0.969791 0.542719
0.181780 0.972615 0.545633
0.292783 0.975798 0.549002
0.412216 0.979216 0.552721
0.535829 0.982747 0.556673
0.659381 0.986269 0.560728
0.778639 0.989662 0.564741
0.889378 0.992807 0.568555
0.987380 0.995585 0.572001
0.000000 0.000819 0.605221
0.080268 0.003814 0.606156
0.192597 0.007189 0.607290
0.313456 0.010815 0.608604
0.438547 0.014562 0.610064
0.563577 0.018299 0.611628
0.684263 0.021899 0.613235
0.796328 0.025237 0.614814
0.895504 0.028186 0.616281
0.000000 0.106434 0.608625
0.093203 0.109410 0.609778
0.205386 0.112765 0.611158
0.326088 0.116368 0.612736
0.451016 0.120090 0.614472
0.575884 0.123804 0.616309
0.696412 0.127381 0.618182
0.808331 0.130698 0.620007
0.907378 0.133628 0.621692
0.008074 0.225650 0.613351
0.107290 0.228604 0.614750
0.219308 0.231935 0.616408
0.339833 0.235512 0.618286
0.464577 0.239208 0.620331
0.589261 0.242895 0.622479
0.709611 0.246447 0.624650
0.821365 0.249739 0.626753
0.920266 0.252648 0.628684
0.022774 0.353887 0.619483
0.121833 0.356819 0.621147
0.233674 0.360124 0.623105
0.354008 0.363674 0.625305
0.478555 0.367340 0.627683
0.603040 0.370998 0.630164
0.723200 0.374523 0.632658
0.834776 0.377789 0.635060
0.933520 0.380675 0.637256
0.037320 0.486579 0.626975
0.136216 0.489487 0.628914
0.247873 0.492766 0.631181
0.368009 0.496286 0.633714
0.492351 0.499923 0.636438
0.616631 0.503552 0.639265
0.736593 0.507047 0.642092
0.847986 0.510287 0.644804
0.946567 0.513149 0.647274
0.051176 0.619171 0.635629
0.149910 0.622055 0.637842
0.261383 0.625307 0.640419
0.381321 0.628799 0.643286
0.505458 0.632406 0.646355
0.629533 0.636004 0.649527
0.749297 0.639471 0.652688
0.860506 0.642684 0.655710
0.958925 0.645523 0.658454
0.063903 0.747121 0.645089
0.162479 0.749983 0.647567
0.273775 0.753209 0.650443
0.393522 0.756673 0.653632
0.517461 0.760251 0.657035
0.641339 0.763821 0.660540
0.760912 0.767260 0.664023
0.871943 0.770447 0.667344
0.970204 0.773263 0.670354
0.075150 0.865903 0.654848
0.173581 0.868743 0.657572
0.284711 0.871945 0.660727
0.404281 0.875383 0.664215
0.528036 0.878935 0.667927
0.651730 0.882478 0.671742
0.771126 0.885891 0.675524
0.881992 0.889054 0.679123
0.980107 0.891849 0.682379
0.084645 0.970999 0.664269
0.182946 0.973820 0.667211
0.293931 0.977001 0.670611
0.413344 0.980416 0.674364
0.536936 0.983944 0.678351
0.660467 0.987463 0.682441
0.779705 0.990854 0.686487
0.890426 0.993996 0.690333
0.988412 0.996771 0.693806
0.000000 0.002056 0.721787
0.081879 0.005048 0.722749
0.194190 0.008422 0.723913
0.315030 0.012045 0.725259
0.440101 0.015788 0.726753
0.565111 0.019522 0.728351
0.685777 0.023120 0.729991
0.797824 0.026455 0.731600
0.896984 0.029402 0.733093
0.000000 0.107663 0.725280
0.094760 0.110637 0.726460
0.206925 0.113989 0.727871
0.327609 0.117589 0.729482
0.452517 0.121309 0.731251
0.577364 0.125019 0.733122
0.697873 0.128594 0.735027
0.809774 0.131908 0.736882
0.908805 0.134836 0.738594
0.009587 0.226870 0.730108
0.108787 0.229823 0.731534
0.220787 0.233151 0.733223
0.341293 0.236725 0.735133
0.466017 0.240418 0.737211
0.590681 0.244102 0.739393
0.711012 0.247651 0.741597
0.822748 0.250941 0.743730
0.921633 0.253847 0.745688
0.024223 0.355099 0.736350
0.123266 0.358028 0.738041
0.235089 0.361330 0.740029
0.355403 0.364877 0.742261
0.479930 0.368541 0.744673
0.604395 0.372196 0.747188
0.724536 0.375718 0.749714
0.836095 0.378981 0.752147
0.934822 0.381865 0.754369
0.038701 0.487781 0.743955
0.137581 0.490687 0.745921
0.249220 0.493962 0.748218
0.369337 0.497480 0.750784
0.493659 0.501114 0.753541
0.617919 0.504740 0.756402
0.737862 0.508232 0.759261
0.849237 0.511469 0.762004
0.947802 0.514329 0.764501
0.052490 0.620363 0.752723
0.151208 0.623245 0.754962
0.262663 0.626494 0.757570
0.382582 0.629983 0.760469
0.506699 0.633587 0.763572
0.630754 0.637183 0.766777
0.750499 0.640646 0.769970
0.861690 0.643857 0.773023
0.960092 0.646693 0.775794
0.065152 0.748304 0.762292
0.163713 0.751163 0.764796
0.274990 0.754386 0.767703
0.394718 0.757847 0.770924
0.518637 0.761423 0.774361
0.642495 0.764990 0.777900
0.762049 0.768426 0.781415
0.873062 0.771610 0.784766
0.971307 0.774424 0.787803
0.076339 0.867076 0.772153
0.174754 0.869915 0.774903
0.285866 0.873114 0.778088
0.405417 0.876549 0.781608
0.529152 0.880098 0.785355
0.652826 0.883638 0.789204
0.772202 0.887048 0.793018
0.883051 0.890209 0.796647
0.981150 0.893001 0.799930
0.085781 0.972164 0.781663
0.184066 0.974984 0.784632
0.295033 0.978162 0.788063
0.414426 0.981574 0.791848
0.537998 0.985099 0.795868
0.661510 0.988616 0.799992
0.780729 0.992003 0.804071
0.891431 0.995142 0.807946
0.989401 0.997916 0.811447
0.000000 0.003205 0.830085
0.083370 0.006195 0.831072
0.195664 0.009566 0.832265
0.316486 0.013186 0.833641
0.441539 0.016927 0.835167
0.566530 0.020658 0.836795
0.687178 0.024254 0.838465
0.799209 0.027586 0.840103
0.898354 0.030531 0.841621
0.000000 0.108805 0.833663
0.096201 0.111776 0.834868
0.208350 0.115126 0.836306
0.329015 0.118724 0.837947
0.453905 0.122440 0.839747
0.578734 0.126148 0.841650
0.699225 0.129721 0.843585
0.811109 0.133032 0.845469
0.910125 0.135958 0.847205
0.010987 0.228004 0.838585
0.110172 0.230954 0.840036
0.222156 0.234280 0.841753
0.342644 0.237851 0.843693
0.467349 0.241541 0.845803
0.591994 0.245223 0.848015
0.712308 0.248769 0.850250
0.824027 0.252056 0.852411
0.922898 0.254961 0.854393
0.025562 0.356223 0.844929
0.124591 0.359150 0.846644
0.236397 0.362450 0.848660
0.356694 0.365994 0.850922
0.481202 0.369656 0.853366
0.605649 0.373308 0.855912
0.725771 0.376827 0.858468
0.837313 0.380088 0.860929
0.936026 0.382970 0.863176
0.039978 0.488896 0.852639
0.138844 0.491800 0.854629
0.250466 0.495073 0.856955
0.370565 0.498588 0.859551
0.494868 0.502220 0.862340
0.619110 0.505842 0.865231
0.739035 0.509332 0.868121
0.850393 0.512567 0.870891
0.948943 0.515425 0.873413
0.053705 0.621469 0.861512
0.152408 0.624349 0.863776
0.263846 0.627595 0.866411
0.383747 0.631082 0.869341
0.507845 0.634684 0.872475
0.631883 0.638276 0.875712
0.751609 0.641737 0.878935
0.862784 0.644945 0.882015
0.961171 0.647780 0.884811
0.066307 0.749401 0.871183
0.164852 0.752258 0.873712
0.276113 0.755479 0.876647
0.395823 0.758938 0.879898
0.519724 0.762511 0.883366
0.643563 0.766075 0.886936
0.763099 0.769508 0.890481
0.874096 0.772690 0.893861
0.972326 0.775502 0.896922
0.077438 0.868166 0.881138
0.175838 0.871002 0.883913
0.286933 0.874198 0.887126
0.406466 0.877631 0.890676
0.530183 0.881177 0.894454
0.653838 0.884715 0.898334
0.773196 0.888122 0.902179
0.884028 0.891280 0.905836
0.982113 0.894071 0.909143
0.086830 0.973247 0.890732
0.185100 0.976064 0.893725
0.296050 0.979239 0.897184
0.415426 0.982649 0.900999
0.538979 0.986172 0.905051
0.662472 0.989685 0.909206
0.781673 0.993070 0.913315
0.892359 0.996207 0.917219
0.990314 0.998978 0.920744
0.000000 0.004221 0.925976
0.084685 0.007209 0.926985
0.196964 0.010578 0.928202
0.317771 0.014196 0.929605
0.442807 0.017934 0.931158
0.567782 0.021663 0.932815
0.688414 0.025256 0.934511
0.800430 0.028587 0.936173
0.899562 0.031529 0.937714
0.000000 0.109814 0.929627
0.097473 0.112784 0.930854
0.209606 0.116132 0.932317
0.330256 0.119727 0.933985
0.455129 0.123441 0.935813
0.579941 0.127147 0.937743
0.700416 0.130717 0.939705
0.812286 0.134026 0.941613
0.911289 0.136950 0.943372
0.012221 0.229006 0.934633
0.111394 0.231955 0.936106
0.223363 0.235278 0.937847
0.343835 0.238848 0.939814
0.468524 0.242535 0.941952
0.593152 0.246214 0.944192
0.713450 0.249758 0.946453
0.825155 0.253043 0.948639
0.924012 0.255946 0.950644
0.026744 0.357218 0.941066
0.125759 0.360143 0.942804
0.237550 0.363441 0.944845
0.357831 0.366983 0.947134
0.482323 0.370642 0.949605
0.606753 0.374292 0.952179
0.726860 0.377808 0.954762
0.838387 0.381067 0.957247
0.937087 0.383947 0.959517
0.041104 0.489883 0.948870
0.139957 0.492785 0.950882
0.251564 0.496056 0.953233
0.371648 0.499569 0.955855
0.495934 0.503198 0.958672
0.620160 0.506818 0.961591
0.740069 0.510306 0.964508
0.851412 0.513538 0.967303
0.949949 0.516394 0.969847
0.054776 0.622448 0.957836
0.153466 0.625326 0.960122
0.264889 0.628570 0.962783
0.384774 0.632054 0.965739
0.508856 0.635654 0.968900
0.632877 0.639244 0.972165
0.752588 0.642703 0.975415
0.863748 0.645909 0.978520
0.962122 0.648741 0.981338
0.067324 0.750372 0.967597
0.165857 0.753227 0.970148
0.277103 0.756446 0.973108
0.396797 0.759902 0.976386
0.520681 0.763473 0.979881
0.644504 0.767034 0.983479
0.764024 0.770465 0.987051
0.875006 0.773646 0.990456
0.973223 0.776455 0.993539
0.078406 0.869129 0.977635
0.176792 0.871964 0.980433
0.287874 0.875158 0.983670
0.407390 0.878589 0.987248
0.531090 0.882132 0.991053
0.654729 0.885667 0.994961
0.774072 0.889072 0.998832
0.884889 0.892229 1.000000
0.982960 0.895017 1.000000
0.087754 0.974204 0.987304
0.186011 0.977019 0.990319
0.296946 0.980193 0.993803
0.416306 0.983600 0.997645
0.539843 0.987120 1.000000
0.663320 0.990631 1.000000
0.782505 0.994014 1.000000
0.893176 0.997149 1.000000
0.991118 0.999918 1.000000
