public/luts/moody-cool.cube
TITLE "OneMoment moody-cool"
LUT_3D_SIZE 5
DOMAIN_MIN 0.0 0.0 0.0
DOMAIN_MAX 1.0 1.0 1.0
0.000000 0.000000 0.043239
0.184822 0.001233 0.045034
0.430962 0.008633 0.047489
0.676867 0.015998 0.050340
0.888271 0.022308 0.053112
0.000684 0.219749 0.050445
0.212081 0.226059 0.053228
0.457540 0.233359 0.056831
0.702763 0.240625 0.060831
0.913581 0.246850 0.064591
0.030567 0.480772 0.062996
0.241283 0.486982 0.066927
0.485950 0.494167 0.071865
0.730382 0.501318 0.077199
0.940519 0.507444 0.082107
0.057787 0.741406 0.080036
0.267822 0.747517 0.085116
0.511698 0.754588 0.091388
0.755338 0.761624 0.098057
0.964793 0.767650 0.104113
0.079078 0.965364 0.098292
0.288526 0.971389 0.104359
0.531721 0.978360 0.111780
0.774679 0.985297 0.119597
0.983549 0.991239 0.126641
0.000000 0.000000 0.247315
0.187663 0.003399 0.249210
0.433734 0.010789 0.251781
0.679570 0.018144 0.254749
0.890915 0.024446 0.257620
0.003385 0.221895 0.254857
0.214723 0.228195 0.257740
0.460113 0.235486 0.261459
0.705268 0.242742 0.265575
0.916027 0.248958 0.269434
0.033037 0.482883 0.267798
0.243694 0.489085 0.271829
0.488293 0.496260 0.276883
0.732656 0.503401 0.282333
0.942733 0.509519 0.287341
0.060026 0.743485 0.285228
0.270002 0.749587 0.290407
0.513808 0.756647 0.296796
0.757380 0.763673 0.303581
0.966776 0.769691 0.309736
0.081117 0.967413 0.303820
0.290507 0.973430 0.309987
0.533632 0.980391 0.317523
0.776522 0.987318 0.325457
0.985333 0.993251 0.332600
0.000000 0.000000 0.484528
0.190940 0.005912 0.486539
0.436931 0.013290 0.489244
0.682687 0.020634 0.492347
0.893963 0.026926 0.495334
0.006500 0.224385 0.492460
0.217769 0.230675 0.495458
0.463079 0.237954 0.499312
0.708154 0.245199 0.503563
0.918844 0.251405 0.507538
0.035883 0.485334 0.505854
0.246471 0.491526 0.510001
0.490989 0.498689 0.515189
0.735272 0.505819 0.520774
0.945281 0.511926 0.525898
0.062603 0.745896 0.523737
0.272510 0.751989 0.529032
0.516236 0.759037 0.535555
0.759728 0.766051 0.542475
0.969055 0.772059 0.548747
0.083463 0.969791 0.542719
0.292783 0.975798 0.549002
0.535829 0.982747 0.556673
0.778639 0.989662 0.564741
0.987380 0.995585 0.572001
0.000000 0.002056 0.721787
0.194190 0.008422 0.723913
0.440101 0.015788 0.726753
0.685777 0.023120 0.729991
0.896984 0.029402 0.733093
0.009587 0.226870 0.730108
0.220787 0.233151 0.733223
0.466017 0.240418 0.737211
0.711012 0.247651 0.741597
0.921633 0.253847 0.745688
0.038701 0.487781 0.743955
0.249220 0.493962 0.748218
0.493659 0.501114 0.753541
0.737862 0.508232 0.759261
0.947802 0.514329 0.764501
0.065152 0.748304 0.762292
0.274990 0.754386 0.767703
0.518637 0.761423 0.774361
0.762049 0.768426 0.781415
0.971307 0.774424 0.787803
0.085781 0.972164 0.781663
0.295033 0.978162 0.788063
0.537998 0.985099 0.795868
0.780729 0.992003 0.804071
0.989401 0.997916 0.811447
0.000000 0.004221 0.925976
0.196964 0.010578 0.928202
0.442807 0.017934 0.931158
0.688414 0.025256 0.934511
0.899562 0.031529 0.937714
0.012221 0.229006 0.934633
0.223363 0.235278 0.937847
0.468524 0.242535 0.941952
0.713450 0.249758 0.946453
0.924012 0.255946 0.950644
0.041104 0.489883 0.948870
0.251564 0.496056 0.953233
0.495934 0.503198 0.958672
0.740069 0.510306 0.964508
0.949949 0.516394 0.969847
0.067324 0.750372 0.967597
0.277103 0.756446 0.973108
0.520681 0.763473 0.979881
0.764024 0.770465 0.987051
0.973223 0.776455 0.993539
0.087754 0.974204 0.987304
0.296946 0.980193 0.993803
0.539843 0.987120 1.000000
0.782505 0.994014 1.000000
0.991118 0.999918 1.000000
