public/luts/moody-cool.cube
TITLE "OneMoment moody-cool"
LUT_3D_SIZE 33
DOMAIN_MIN 0.0 0.0 0.0
DOMAIN_MAX 1.0 1.0 1.0
0.000000 0.000000 0.043239
0.000000 0.000000 0.043423
0.020747 0.000000 0.043619
0.046142 0.000000 0.043826
0.072407 0.000000 0.044045
0.099474 0.000000 0.044275
0.127278 0.000000 0.044517
0.155749 0.000357 0.044770
0.184822 0.001233 0.045034
0.214428 0.002125 0.045308
0.244500 0.003030 0.045592
0.274972 0.003946 0.045887
0.305775 0.004873 0.046190
0.336843 0.005807 0.046503
0.368108 0.006746 0.046824
0.399503 0.007689 0.047153
0.430962 0.008633 0.047489
0.462417 0.009576 0.047831
0.493801 0.010517 0.048179
0.525047 0.011454 0.048533
0.556088 0.012384 0.048890
0.586858 0.013305 0.049250
0.617288 0.014216 0.049613
0.647314 0.015114 0.049977
0.676867 0.015998 0.050340
0.705880 0.016865 0.050703
0.734288 0.017714 0.051064
0.762023 0.018542 0.051421
0.789018 0.019348 0.051774
0.815207 0.020130 0.052120
0.840524 0.020885 0.052460
0.864900 0.021612 0.052791
0.888271 0.022308 0.053112
0.000000 0.019725 0.043872
0.000000 0.020433 0.044068
0.023909 0.021170 0.044277
0.049296 0.021936 0.044497
0.075553 0.022727 0.044730
0.102612 0.023542 0.044974
0.130407 0.024379 0.045230
0.158870 0.025236 0.045498
0.187933 0.026111 0.045776
0.217530 0.027001 0.046066
0.247594 0.027904 0.046366
0.278056 0.028820 0.046676
0.308849 0.029745 0.046995
0.339908 0.030677 0.047324
0.371163 0.031615 0.047661
0.402549 0.032556 0.048006
0.433998 0.033499 0.048358
0.465443 0.034441 0.048717
0.496818 0.035381 0.049082
0.528054 0.036316 0.049451
0.559086 0.037245 0.049824
0.589846 0.038165 0.050200
0.620268 0.039074 0.050579
0.650284 0.039971 0.050958
0.679827 0.040854 0.051337
0.708832 0.041719 0.051715
0.737231 0.042567 0.052090
0.764958 0.043394 0.052462
0.791945 0.044199 0.052828
0.818126 0.044979 0.053189
0.843434 0.045733 0.053541
0.867803 0.046459 0.053885
0.891167 0.047154 0.054218
0.000000 0.045678 0.044576
0.002739 0.046384 0.044785
0.027181 0.047120 0.045006
0.052559 0.047884 0.045241
0.078808 0.048675 0.045487
0.105859 0.049489 0.045746
0.133645 0.050324 0.046017
0.162099 0.051180 0.046300
0.191153 0.052053 0.046594
0.220741 0.052942 0.046900
0.250794 0.053844 0.047216
0.281246 0.054758 0.047542
0.312030 0.055681 0.047878
0.343079 0.056612 0.048224
0.374324 0.057549 0.048578
0.405700 0.058489 0.048940
0.437139 0.059430 0.049309
0.468574 0.060371 0.049684
0.499939 0.061309 0.050066
0.531165 0.062243 0.050452
0.562187 0.063170 0.050842
0.592937 0.064088 0.051235
0.623349 0.064996 0.051629
0.653355 0.065892 0.052025
0.682890 0.066773 0.052420
0.711885 0.067638 0.052813
0.740275 0.068484 0.053204
0.767993 0.069309 0.053591
0.794971 0.070113 0.053972
0.821144 0.070892 0.054346
0.846444 0.071645 0.054712
0.870806 0.072369 0.055069
0.894161 0.073064 0.055415
0.000000 0.072623 0.045354
0.006117 0.073329 0.045576
0.030551 0.074064 0.045811
0.055921 0.074827 0.046059
0.082161 0.075616 0.046321
0.109203 0.076428 0.046595
0.136979 0.077263 0.046881
0.165424 0.078117 0.047180
0.194469 0.078988 0.047491
0.224046 0.079876 0.047812
0.254090 0.080777 0.048145
0.284532 0.081689 0.048489
0.315306 0.082611 0.048842
0.346344 0.083541 0.049205
0.377579 0.084476 0.049576
0.408944 0.085414 0.049956
0.440373 0.086354 0.050343
0.471798 0.087293 0.050736
0.503152 0.088230 0.051135
0.534368 0.089162 0.051538
0.565379 0.090088 0.051946
0.596119 0.091005 0.052356
0.626521 0.091911 0.052767
0.656518 0.092805 0.053180
0.686042 0.093685 0.053591
0.715028 0.094548 0.054001
0.743408 0.095393 0.054407
0.771117 0.096217 0.054810
0.798086 0.097019 0.055206
0.824250 0.097797 0.055595
0.849542 0.098549 0.055975
0.873896 0.099272 0.056345
0.897244 0.099966 0.056704
0.000000 0.100491 0.046209
0.009581 0.101195 0.046444
0.034007 0.101929 0.046693
0.059368 0.102691 0.046956
0.085599 0.103478 0.047233
0.112632 0.104290 0.047523
0.140399 0.105123 0.047825
0.168834 0.105975 0.048140
0.197868 0.106846 0.048468
0.227436 0.107732 0.048807
0.257469 0.108631 0.049157
0.287901 0.109542 0.049518
0.318664 0.110462 0.049889
0.349691 0.111390 0.050270
0.380916 0.112324 0.050659
0.412271 0.113260 0.051057
0.443688 0.114199 0.051462
0.475102 0.115136 0.051873
0.506446 0.116072 0.052290
0.537651 0.117002 0.052712
0.568652 0.117926 0.053137
0.599381 0.118842 0.053565
0.629773 0.119747 0.053995
0.659759 0.120639 0.054424
0.689273 0.121518 0.054853
0.718249 0.122379 0.055279
0.746620 0.123223 0.055702
0.774318 0.124046 0.056120
0.801279 0.124846 0.056532
0.827434 0.125623 0.056937
0.852717 0.126373 0.057332
0.877062 0.127096 0.057716
0.900402 0.127788 0.058088
0.000000 0.129209 0.047143
0.013120 0.129912 0.047392
0.037537 0.130645 0.047656
0.062889 0.131405 0.047934
0.089111 0.132191 0.048227
0.116134 0.133001 0.048532
0.143892 0.133833 0.048852
0.172316 0.134684 0.049184
0.201341 0.135553 0.049528
0.230898 0.136437 0.049885
0.260920 0.137335 0.050253
0.291341 0.138244 0.050632
0.322094 0.139163 0.051022
0.353110 0.140090 0.051421
0.384323 0.141021 0.051829
0.415667 0.141957 0.052245
0.447074 0.142893 0.052669
0.478477 0.143829 0.053099
0.509809 0.144763 0.053535
0.541003 0.145692 0.053975
0.571993 0.146614 0.054419
0.602712 0.147528 0.054865
0.633092 0.148432 0.055313
0.663068 0.149323 0.055760
0.692572 0.150199 0.056207
0.721537 0.151060 0.056650
0.749898 0.151902 0.057090
0.777587 0.152723 0.057525
0.804537 0.153523 0.057953
0.830683 0.154298 0.058373
0.855957 0.155047 0.058783
0.880294 0.155768 0.059182
0.903625 0.156459 0.059568
0.000000 0.158706 0.048159
0.016722 0.159408 0.048423
0.041130 0.160139 0.048702
0.066473 0.160898 0.048996
0.092685 0.161683 0.049304
0.119699 0.162491 0.049626
0.147446 0.163322 0.049962
0.175860 0.164171 0.050312
0.204874 0.165038 0.050674
0.234421 0.165921 0.051049
0.264432 0.166818 0.051435
0.294842 0.167725 0.051833
0.325583 0.168643 0.052242
0.356588 0.169567 0.052660
0.387791 0.170497 0.053087
0.419123 0.171431 0.053523
0.450518 0.172366 0.053966
0.481909 0.173300 0.054415
0.513230 0.174232 0.054870
0.544413 0.175160 0.055330
0.575392 0.176080 0.055792
0.606099 0.176993 0.056257
0.636469 0.177895 0.056724
0.666433 0.178784 0.057189
0.695926 0.179659 0.057654
0.724881 0.180518 0.058115
0.753232 0.181358 0.058573
0.780911 0.182178 0.059024
0.807851 0.182976 0.059469
0.833988 0.183750 0.059905
0.859253 0.184498 0.060331
0.883580 0.185217 0.060744
0.906903 0.185907 0.061145
0.000000 0.188910 0.049260
0.020376 0.189610 0.049538
0.044775 0.190340 0.049832
0.070109 0.191098 0.050142
0.096311 0.191881 0.050466
0.123314 0.192688 0.050806
0.151051 0.193517 0.051159
0.179455 0.194365 0.051526
0.208458 0.195231 0.051907
0.237993 0.196112 0.052300
0.267994 0.197007 0.052706
0.298393 0.197913 0.053123
0.329122 0.198828 0.053550
0.360116 0.199751 0.053988
0.391306 0.200680 0.054435
0.422627 0.201612 0.054890
0.454010 0.202545 0.055353
0.485390 0.203478 0.055822
0.516699 0.204408 0.056297
0.547870 0.205333 0.056776
0.578838 0.206253 0.057258
0.609533 0.207163 0.057742
0.639892 0.208064 0.058228
0.669845 0.208951 0.058712
0.699327 0.209825 0.059195
0.728271 0.210682 0.059675
0.756611 0.211521 0.060150
0.784280 0.212339 0.060619
0.811210 0.213136 0.061081
0.837337 0.213908 0.061533
0.862593 0.214655 0.061975
0.886911 0.215373 0.062404
0.910225 0.216061 0.062819
0.000684 0.219749 0.050445
0.024071 0.220448 0.050738
0.048460 0.221177 0.051048
0.073784 0.221933 0.051374
0.099977 0.222715 0.051715
0.126970 0.223521 0.052072
0.154696 0.224348 0.052443
0.183089 0.225194 0.052829
0.212081 0.226059 0.053228
0.241605 0.226938 0.053640
0.271594 0.227831 0.054065
0.301981 0.228736 0.054501
0.332699 0.229649 0.054949
0.363681 0.230571 0.055406
0.394860 0.231497 0.055873
0.426168 0.232427 0.056348
0.457540 0.233359 0.056831
0.488908 0.234290 0.057321
0.520205 0.235218 0.057815
0.551364 0.236142 0.058314
0.582320 0.237060 0.058817
0.613004 0.237969 0.059321
0.643350 0.238867 0.059825
0.673292 0.239753 0.060329
0.702763 0.240625 0.060831
0.731697 0.241481 0.061330
0.760025 0.242318 0.061823
0.787683 0.243135 0.062310
0.814604 0.243930 0.062789
0.840721 0.244701 0.063258
0.865967 0.245446 0.063716
0.890276 0.246163 0.064160
0.913581 0.246850 0.064591
0.004418 0.251153 0.051717
0.027795 0.251850 0.052025
0.052175 0.252578 0.052351
0.077490 0.253333 0.052693
0.103672 0.254113 0.053052
0.130654 0.254917 0.053426
0.158370 0.255743 0.053815
0.186752 0.256588 0.054219
0.215733 0.257450 0.054638
0.245246 0.258328 0.055069
0.275223 0.259219 0.055513
0.305598 0.260122 0.055970
0.336304 0.261034 0.056437
0.367274 0.261954 0.056915
0.398441 0.262879 0.057402
0.429737 0.263807 0.057898
0.461097 0.264737 0.058401
0.492452 0.265666 0.058911
0.523737 0.266593 0.059426
0.554885 0.267515 0.059946
0.585828 0.268430 0.060468
0.616500 0.269338 0.060992
0.646835 0.270234 0.061517
0.676765 0.271119 0.062041
0.706225 0.271989 0.062562
0.735147 0.272843 0.063079
0.763465 0.273679 0.063591
0.791112 0.274494 0.064096
0.818022 0.275288 0.064592
0.844128 0.276057 0.065079
0.869365 0.276801 0.065553
0.893664 0.277516 0.066014
0.916961 0.278202 0.066459
0.008171 0.283049 0.053075
0.031540 0.283745 0.053399
0.055910 0.284471 0.053741
0.081215 0.285224 0.054100
0.107386 0.286003 0.054476
0.134358 0.286806 0.054868
0.162063 0.287630 0.055276
0.190434 0.288473 0.055699
0.219403 0.289334 0.056136
0.248904 0.290210 0.056587
0.278870 0.291100 0.057051
0.309233 0.292001 0.057528
0.339927 0.292911 0.058016
0.370885 0.293829 0.058514
0.402039 0.294752 0.059022
0.433323 0.295678 0.059539
0.464670 0.296606 0.060063
0.496013 0.297534 0.060593
0.527286 0.298459 0.061129
0.558421 0.299379 0.061670
0.589352 0.300293 0.062213
0.620013 0.301198 0.062757
0.650335 0.302094 0.063302
0.680254 0.302976 0.063845
0.709702 0.303845 0.064386
0.738612 0.304697 0.064923
0.766919 0.305531 0.065454
0.794555 0.306345 0.065977
0.821455 0.307137 0.066491
0.847551 0.307905 0.066995
0.872777 0.308647 0.067486
0.897067 0.309361 0.067963
0.920355 0.310046 0.068424
0.011935 0.315366 0.054519
0.035294 0.316061 0.054859
0.059654 0.316785 0.055217
0.084949 0.317537 0.055594
0.111110 0.318315 0.055987
0.138071 0.319116 0.056397
0.165765 0.319938 0.056824
0.194124 0.320780 0.057266
0.223082 0.321639 0.057723
0.252572 0.322513 0.058194
0.282525 0.323401 0.058678
0.312876 0.324300 0.059175
0.343558 0.325209 0.059684
0.374503 0.326125 0.060203
0.405645 0.327046 0.060732
0.436917 0.327971 0.061269
0.468251 0.328897 0.061815
0.499582 0.329823 0.062367
0.530842 0.330746 0.062924
0.561965 0.331664 0.063485
0.592883 0.332576 0.064049
0.623531 0.333480 0.064614
0.653842 0.334373 0.065179
0.683749 0.335254 0.065743
0.713185 0.336121 0.066303
0.742084 0.336972 0.066859
0.770379 0.337804 0.067409
0.798004 0.338616 0.067951
0.824893 0.339407 0.068484
0.850979 0.340173 0.069005
0.876195 0.340914 0.069513
0.900475 0.341627 0.070007
0.923753 0.342310 0.070483
0.015698 0.348033 0.056050
0.039048 0.348726 0.056406
0.063398 0.349449 0.056780
0.088683 0.350200 0.057174
0.114833 0.350976 0.057585
0.141784 0.351775 0.058014
0.169466 0.352596 0.058459
0.197814 0.353436 0.058920
0.226760 0.354293 0.059397
0.256238 0.355166 0.059888
0.286179 0.356052 0.060393
0.316518 0.356949 0.060910
0.347187 0.357856 0.061440
0.378120 0.358770 0.061980
0.409249 0.359690 0.062530
0.440508 0.360613 0.063089
0.471830 0.361537 0.063656
0.503148 0.362461 0.064229
0.534396 0.363382 0.064808
0.565506 0.364299 0.065390
0.596412 0.365209 0.065975
0.627048 0.366111 0.066561
0.657346 0.367002 0.067147
0.687240 0.367882 0.067731
0.716665 0.368747 0.068312
0.745552 0.369595 0.068887
0.773836 0.370426 0.069457
0.801450 0.371237 0.070017
0.828328 0.372026 0.070568
0.854403 0.372791 0.071107
0.879609 0.373530 0.071633
0.903879 0.374241 0.072143
0.927148 0.374923 0.072635
0.019452 0.380978 0.057665
0.042792 0.381670 0.058037
0.067133 0.382392 0.058428
0.092407 0.383141 0.058839
0.118547 0.383915 0.059268
0.145486 0.384713 0.059715
0.173157 0.385532 0.060180
0.201494 0.386370 0.060661
0.230428 0.387226 0.061157
0.259893 0.388097 0.061668
0.289823 0.388981 0.062194
0.320149 0.389877 0.062732
0.350806 0.390782 0.063283
0.381726 0.391694 0.063844
0.412843 0.392612 0.064416
0.444089 0.393533 0.064996
0.475398 0.394455 0.065584
0.506703 0.395377 0.066179
0.537938 0.396296 0.066779
0.569035 0.397211 0.067383
0.599929 0.398120 0.067989
0.630552 0.399020 0.068596
0.660838 0.399910 0.069203
0.690720 0.400787 0.069808
0.720133 0.401650 0.070409
0.749008 0.402497 0.071004
0.777281 0.403326 0.071593
0.804883 0.404136 0.072173
0.831750 0.404923 0.072742
0.857815 0.405686 0.073299
0.883010 0.406424 0.073842
0.907271 0.407134 0.074368
0.930530 0.407814 0.074877
0.023187 0.414130 0.059363
0.046518 0.414821 0.059751
0.070848 0.415541 0.060159
0.096112 0.416289 0.060587
0.122241 0.417061 0.061035
0.149170 0.417858 0.061500
0.176830 0.418675 0.061984
0.205154 0.419512 0.062484
0.234077 0.420366 0.063001
0.263530 0.421235 0.063532
0.293447 0.422117 0.064078
0.323761 0.423011 0.064638
0.354405 0.423914 0.065210
0.385313 0.424825 0.065792
0.416417 0.425741 0.066386
0.447650 0.426660 0.066988
0.478946 0.427580 0.067598
0.510239 0.428500 0.068214
0.541460 0.429418 0.068836
0.572545 0.430331 0.069461
0.603426 0.431237 0.070088
0.634036 0.432136 0.070717
0.664310 0.433024 0.071345
0.694180 0.433899 0.071970
0.723580 0.434761 0.072591
0.752444 0.435606 0.073207
0.780705 0.436434 0.073815
0.808296 0.437241 0.074414
0.835152 0.438027 0.075002
0.861205 0.438788 0.075577
0.886391 0.439524 0.076137
0.910641 0.440233 0.076681
0.933891 0.440912 0.077206
0.026895 0.447418 0.061141
0.050216 0.448108 0.061545
0.074537 0.448827 0.061970
0.099790 0.449573 0.062416
0.125909 0.450344 0.062881
0.152826 0.451138 0.063366
0.180474 0.451954 0.063869
0.208787 0.452789 0.064389
0.237698 0.453641 0.064925
0.267139 0.454509 0.065477
0.297044 0.455389 0.066044
0.327345 0.456281 0.066625
0.357977 0.457183 0.067218
0.388871 0.458091 0.067822
0.419962 0.459005 0.068437
0.451183 0.459923 0.069061
0.482466 0.460841 0.069692
0.513746 0.461759 0.070331
0.544955 0.462675 0.070974
0.576027 0.463586 0.071621
0.606895 0.464491 0.072270
0.637493 0.465387 0.072919
0.667754 0.466273 0.073568
0.697611 0.467147 0.074214
0.726999 0.468007 0.074856
0.755851 0.468851 0.075492
0.784100 0.469676 0.076120
0.811680 0.470482 0.076738
0.838525 0.471266 0.077345
0.864568 0.472026 0.077938
0.889743 0.472761 0.078516
0.913983 0.473468 0.079076
0.937223 0.474146 0.079617
0.030567 0.480772 0.062996
0.053879 0.481460 0.063416
0.078189 0.482177 0.063858
0.103432 0.482921 0.064322
0.129540 0.483691 0.064805
0.156446 0.484484 0.065309
0.184083 0.485298 0.065831
0.212385 0.486131 0.066370
0.241283 0.486982 0.066927
0.270712 0.487847 0.067500
0.300605 0.488726 0.068087
0.330894 0.489617 0.068689
0.361512 0.490516 0.069303
0.392394 0.491423 0.069929
0.423472 0.492335 0.070566
0.454680 0.493250 0.071211
0.485950 0.494167 0.071865
0.517217 0.495083 0.072525
0.548413 0.495997 0.073190
0.579472 0.496906 0.073858
0.610327 0.497809 0.074529
0.640913 0.498704 0.075200
0.671161 0.499588 0.075870
0.701006 0.500460 0.076537
0.730382 0.501318 0.077199
0.759222 0.502160 0.077855
0.787459 0.502984 0.078503
0.815028 0.503788 0.079140
0.841861 0.504570 0.079766
0.867894 0.505329 0.080377
0.893058 0.506062 0.080973
0.917289 0.506768 0.081550
0.940519 0.507444 0.082107
0.034196 0.514118 0.064924
0.057498 0.514805 0.065361
0.081799 0.515521 0.065820
0.107031 0.516264 0.066301
0.133128 0.517032 0.066803
0.160023 0.517823 0.067325
0.187649 0.518635 0.067866
0.215938 0.519467 0.068426
0.244825 0.520316 0.069002
0.274242 0.521180 0.069596
0.304122 0.522057 0.070204
0.334398 0.522945 0.070827
0.365005 0.523843 0.071463
0.395874 0.524748 0.072110
0.426939 0.525658 0.072768
0.458133 0.526571 0.073436
0.489391 0.527486 0.074111
0.520645 0.528401 0.074793
0.551828 0.529313 0.075479
0.582874 0.530220 0.076170
0.613716 0.531121 0.076862
0.644289 0.532014 0.077554
0.674525 0.532896 0.078245
0.704358 0.533767 0.078933
0.733722 0.534623 0.079616
0.762549 0.535463 0.080292
0.790775 0.536285 0.080959
0.818332 0.537088 0.081616
0.845155 0.537868 0.082260
0.871176 0.538625 0.082890
0.896330 0.539357 0.083503
0.920550 0.540061 0.084097
0.943771 0.540736 0.084670
0.037774 0.547388 0.066922
0.061066 0.548073 0.067375
0.085357 0.548787 0.067851
0.110579 0.549529 0.068349
0.136665 0.550295 0.068869
0.163549 0.551085 0.069410
0.191163 0.551896 0.069970
0.219441 0.552726 0.070549
0.248316 0.553573 0.071146
0.277721 0.554435 0.071760
0.307588 0.555310 0.072389
0.337852 0.556197 0.073033
0.368446 0.557092 0.073690
0.399302 0.557995 0.074359
0.430354 0.558904 0.075039
0.461536 0.559815 0.075728
0.492781 0.560728 0.076425
0.524021 0.561641 0.077129
0.555192 0.562551 0.077837
0.586225 0.563456 0.078549
0.617055 0.564356 0.079263
0.647615 0.565247 0.079976
0.677838 0.566127 0.080689
0.707659 0.566996 0.081397
0.737010 0.567850 0.082101
0.765826 0.568689 0.082797
0.794040 0.569509 0.083484
0.821586 0.570310 0.084160
0.848397 0.571089 0.084823
0.874408 0.571845 0.085470
0.899552 0.572575 0.086101
0.923762 0.573277 0.086712
0.946973 0.573951 0.087301
0.041293 0.580509 0.068983
0.064576 0.581193 0.069452
0.088857 0.581905 0.069945
0.114068 0.582645 0.070461
0.140144 0.583410 0.070999
0.167017 0.584198 0.071559
0.194620 0.585007 0.072138
0.222886 0.585836 0.072737
0.251749 0.586681 0.073354
0.281141 0.587541 0.073988
0.310997 0.588415 0.074638
0.341248 0.589300 0.075303
0.371829 0.590194 0.075981
0.402673 0.591095 0.076671
0.433712 0.592001 0.077373
0.464881 0.592911 0.078083
0.496113 0.593822 0.078802
0.527341 0.594733 0.079527
0.558498 0.595641 0.080258
0.589519 0.596545 0.080991
0.620336 0.597442 0.081726
0.650883 0.598331 0.082461
0.681094 0.599210 0.083194
0.710903 0.600077 0.083923
0.740242 0.600929 0.084647
0.769046 0.601766 0.085363
0.797248 0.602585 0.086070
0.824783 0.603384 0.086765
0.851583 0.604161 0.087447
0.877583 0.604915 0.088112
0.902716 0.605644 0.088760
0.926917 0.606345 0.089388
0.950118 0.607017 0.089994
0.044748 0.613410 0.071104
0.068021 0.614093 0.071588
0.092291 0.614804 0.072098
0.117493 0.615543 0.072631
0.143558 0.616306 0.073187
0.170419 0.617093 0.073765
0.198011 0.617900 0.074364
0.226266 0.618727 0.074982
0.255117 0.619570 0.075619
0.284497 0.620429 0.076273
0.314341 0.621301 0.076944
0.344580 0.622183 0.077629
0.375148 0.623076 0.078329
0.405979 0.623975 0.079040
0.437006 0.624880 0.079763
0.468162 0.625788 0.080495
0.499381 0.626697 0.081236
0.530596 0.627606 0.081982
0.561741 0.628512 0.082734
0.592749 0.629414 0.083489
0.623553 0.630309 0.084245
0.654088 0.631196 0.085001
0.684287 0.632073 0.085755
0.714083 0.632938 0.086505
0.743410 0.633789 0.087249
0.772203 0.634624 0.087985
0.800393 0.635442 0.088711
0.827917 0.636239 0.089425
0.854706 0.637015 0.090125
0.880695 0.637767 0.090809
0.905818 0.638494 0.091474
0.930009 0.639194 0.092119
0.953201 0.639865 0.092741
0.048130 0.646022 0.073276
0.071394 0.646703 0.073777
0.095655 0.647413 0.074303
0.120846 0.648150 0.074853
0.146900 0.648912 0.075427
0.173751 0.649697 0.076023
0.201331 0.650502 0.076641
0.229575 0.651327 0.077278
0.258414 0.652169 0.077935
0.287783 0.653026 0.078609
0.317614 0.653896 0.079300
0.347841 0.654777 0.080007
0.378397 0.655668 0.080727
0.409215 0.656565 0.081460
0.440230 0.657468 0.082204
0.471373 0.658374 0.082957
0.502580 0.659281 0.083719
0.533782 0.660188 0.084487
0.564914 0.661093 0.085260
0.595909 0.661993 0.086036
0.626701 0.662886 0.086813
0.657224 0.663772 0.087590
0.687410 0.664647 0.088365
0.717194 0.665510 0.089135
0.746509 0.666360 0.089899
0.775290 0.667193 0.090655
0.803469 0.668008 0.091400
0.830981 0.668804 0.092133
0.857760 0.669579 0.092852
0.883738 0.670329 0.093553
0.908851 0.671055 0.094236
0.933032 0.671753 0.094897
0.956214 0.672423 0.095535
0.051435 0.678272 0.075494
0.074689 0.678952 0.076010
0.098940 0.679660 0.076553
0.124121 0.680396 0.077120
0.150165 0.681156 0.077712
0.177005 0.681940 0.078326
0.204575 0.682744 0.078962
0.232807 0.683567 0.079619
0.261634 0.684407 0.080295
0.290991 0.685262 0.080989
0.320810 0.686131 0.081700
0.351025 0.687010 0.082427
0.381569 0.687899 0.083168
0.412375 0.688794 0.083922
0.443377 0.689695 0.084687
0.474508 0.690600 0.085461
0.505702 0.691505 0.086244
0.536892 0.692410 0.087033
0.568011 0.693313 0.087827
0.598994 0.694211 0.088624
0.629774 0.695103 0.089422
0.660284 0.695987 0.090220
0.690458 0.696860 0.091015
0.720230 0.697722 0.091806
0.749534 0.698569 0.092589
0.778303 0.699401 0.093365
0.806471 0.700215 0.094129
0.833972 0.701009 0.094881
0.860739 0.701782 0.095617
0.886708 0.702531 0.096337
0.911810 0.703255 0.097036
0.935981 0.703952 0.097714
0.959154 0.704620 0.098367
0.054656 0.710091 0.077750
0.077901 0.710769 0.078282
0.102142 0.711476 0.078841
0.127313 0.712210 0.079425
0.153347 0.712969 0.080034
0.180176 0.713751 0.080666
0.207735 0.714553 0.081320
0.235956 0.715375 0.081996
0.264772 0.716214 0.082691
0.294117 0.717067 0.083405
0.323925 0.717934 0.084136
0.354128 0.718811 0.084883
0.384659 0.719698 0.085644
0.415453 0.720592 0.086419
0.446443 0.721491 0.087204
0.477562 0.722394 0.088000
0.508743 0.723298 0.088803
0.539920 0.724201 0.089613
0.571028 0.725102 0.090428
0.601998 0.725998 0.091246
0.632766 0.726888 0.092065
0.663264 0.727770 0.092883
0.693426 0.728642 0.093698
0.723186 0.729502 0.094508
0.752478 0.730347 0.095312
0.781236 0.731177 0.096106
0.809393 0.731990 0.096890
0.836883 0.732782 0.097660
0.863640 0.733553 0.098414
0.889598 0.734301 0.099151
0.914690 0.735024 0.099867
0.938852 0.735719 0.100561
0.962016 0.736386 0.101230
0.057787 0.741406 0.080036
0.081024 0.742083 0.080583
0.105256 0.742789 0.081158
0.130417 0.743522 0.081759
0.156440 0.744279 0.082385
0.183259 0.745059 0.083035
0.210807 0.745861 0.083707
0.239017 0.746681 0.084401
0.267822 0.747517 0.085116
0.297156 0.748369 0.085849
0.326952 0.749234 0.086599
0.357143 0.750110 0.087366
0.387662 0.750995 0.088147
0.418444 0.751887 0.088942
0.449422 0.752785 0.089748
0.480528 0.753686 0.090564
0.511698 0.754588 0.091388
0.542863 0.755489 0.092218
0.573958 0.756388 0.093054
0.604916 0.757283 0.093892
0.635672 0.758171 0.094731
0.666158 0.759051 0.095569
0.696309 0.759921 0.096404
0.726057 0.760779 0.097234
0.755338 0.761624 0.098057
0.784084 0.762452 0.098870
0.812230 0.763263 0.099672
0.839709 0.764054 0.100460
0.866456 0.764823 0.101232
0.892404 0.765570 0.101986
0.917486 0.766291 0.102719
0.941638 0.766985 0.103429
0.964793 0.767650 0.104113
0.060825 0.772149 0.082344
0.084052 0.772825 0.082906
0.108275 0.773529 0.083496
0.133427 0.774260 0.084114
0.159440 0.775016 0.084756
0.186249 0.775795 0.085423
0.213786 0.776595 0.086114
0.241985 0.777413 0.086826
0.270779 0.778248 0.087559
0.300102 0.779098 0.088311
0.329886 0.779962 0.089081
0.360066 0.780836 0.089867
0.390574 0.781719 0.090668
0.421344 0.782610 0.091483
0.452309 0.783505 0.092309
0.483404 0.784404 0.093145
0.514561 0.785305 0.093989
0.545715 0.786205 0.094840
0.576798 0.787102 0.095695
0.607744 0.787995 0.096553
0.638488 0.788881 0.097412
0.668962 0.789760 0.098270
0.699101 0.790628 0.099124
0.728839 0.791485 0.099974
0.758108 0.792327 0.100815
0.786843 0.793154 0.101647
0.814978 0.793963 0.102467
0.842447 0.794753 0.103273
0.869183 0.795521 0.104063
0.895121 0.796266 0.104833
0.920194 0.796985 0.105582
0.944337 0.797678 0.106308
0.967483 0.798342 0.107007
0.063764 0.802247 0.084664
0.086982 0.802922 0.085241
0.111196 0.803625 0.085847
0.136338 0.804355 0.086480
0.162342 0.805109 0.087139
0.189140 0.805887 0.087823
0.216667 0.806685 0.088531
0.244856 0.807502 0.089261
0.273639 0.808335 0.090012
0.302951 0.809184 0.090783
0.332724 0.810046 0.091572
0.362892 0.810918 0.092377
0.393389 0.811800 0.093197
0.424147 0.812689 0.094031
0.455101 0.813583 0.094877
0.486184 0.814480 0.095732
0.517330 0.815379 0.096596
0.548471 0.816277 0.097467
0.579543 0.817172 0.098342
0.610478 0.818064 0.099220
0.641210 0.818948 0.100098
0.671673 0.819825 0.100975
0.701800 0.820692 0.101849
0.731526 0.821547 0.102717
0.760785 0.822388 0.103577
0.789509 0.823213 0.104427
0.817634 0.824020 0.105265
