public/luts/teal-orange.cube
TITLE "OneMoment teal-orange"
LUT_3D_SIZE 9
DOMAIN_MIN 0.0 0.0 0.0
DOMAIN_MAX 1.0 1.0 1.0
0.000000 0.015633 0.049233
0.094579 0.012209 0.044261
0.229852 0.008329 0.038558
0.376566 0.004167 0.032362
0.529030 0.000000 0.025910
0.681546 0.000000 0.019442
0.828408 0.000000 0.013202
0.963903 0.000000 0.007434
1.000000 0.000000 0.002385
0.000000 0.124027 0.032470
0.089288 0.120709 0.027467
0.224681 0.116949 0.021729
0.371526 0.112918 0.015494
0.524126 0.108783 0.009002
0.676778 0.104699 0.002494
0.823772 0.100817 0.000000
0.959387 0.097280 0.000000
1.000000 0.094223 0.000000
0.000000 0.248533 0.013154
0.083667 0.245336 0.008116
0.219199 0.241714 0.002337
0.366193 0.237833 0.000000
0.518949 0.233853 0.000000
0.671756 0.229925 0.000000
0.818899 0.226193 0.000000
0.954653 0.222794 0.000000
1.000000 0.219858 0.000000
0.000000 0.384053 0.000000
0.078098 0.380986 0.000000
0.213779 0.377514 0.000000
0.360935 0.373796 0.000000
0.513860 0.369984 0.000000
0.666836 0.366225 0.000000
0.814142 0.362655 0.000000
0.950045 0.359406 0.000000
1.000000 0.356600 0.000000
0.000000 0.525415 0.000000
0.072890 0.522484 0.000000
0.208727 0.519168 0.000000
0.356052 0.515618 0.000000
0.509152 0.511982 0.000000
0.662303 0.508398 0.000000
0.809777 0.504997 0.000000
0.945836 0.501903 0.000000
1.000000 0.499234 0.000000
0.000000 0.667367 0.000000
0.068272 0.664572 0.000000
0.204264 0.661411 0.000000
0.351758 0.658030 0.000000
0.505033 0.654569 0.000000
0.658360 0.651160 0.000000
0.806003 0.647928 0.000000
0.942217 0.644990 0.000000
1.000000 0.642456 0.000000
0.000000 0.804568 0.000000
0.064384 0.801903 0.000000
0.200526 0.798892 0.000000
0.348182 0.795674 0.000000
0.501626 0.792381 0.000000
0.655121 0.789141 0.000000
0.802926 0.786071 0.000000
0.939290 0.783282 0.000000
1.000000 0.780880 0.000000
0.000000 0.931593 0.000000
0.061282 0.929049 0.000000
0.197562 0.926176 0.000000
0.345368 0.923107 0.000000
0.498967 0.919971 0.000000
0.652618 0.916886 0.000000
0.800572 0.913966 0.000000
0.937075 0.911315 0.000000
1.000000 0.909033 0.000000
0.000000 1.000000 0.000000
0.058952 1.000000 0.000000
0.195352 1.000000 0.000000
0.343289 1.000000 0.000000
0.497024 1.000000 0.000000
0.650811 1.000000 0.000000
0.798897 1.000000 0.000000
0.935520 1.000000 0.000000
1.000000 1.000000 0.000000
0.000000 0.014467 0.167333
0.094029 0.011054 0.162358
0.229314 0.007185 0.156652
0.376041 0.003037 0.150451
0.528519 0.000000 0.143995
0.681049 0.000000 0.137523
0.827924 0.000000 0.131279
0.963431 0.000000 0.125508
1.000000 0.000000 0.120456
0.000000 0.122897 0.150559
0.088774 0.119589 0.145553
0.224179 0.115841 0.139812
0.371037 0.111824 0.133573
0.523651 0.107702 0.127077
0.676317 0.103632 0.120565
0.823323 0.099764 0.114283
0.958951 0.096238 0.108476
1.000000 0.093192 0.103393
0.000000 0.247444 0.131232
0.083194 0.244257 0.126190
0.218737 0.240647 0.120408
0.365745 0.236780 0.114125
0.518514 0.232813 0.107584
0.671336 0.228899 0.101026
0.818492 0.225180 0.094700
0.954258 0.221793 0.088853
1.000000 0.218868 0.083734
0.000000 0.383008 0.110122
0.077669 0.379952 0.105042
0.213362 0.376492 0.099216
0.360532 0.372787 0.092886
0.513470 0.368989 0.086294
0.666460 0.365243 0.079688
0.813779 0.361687 0.073314
0.949694 0.358450 0.067422
1.000000 0.355655 0.062265
0.000000 0.524416 0.088023
0.072507 0.521496 0.082903
0.208356 0.518192 0.077031
0.355695 0.514655 0.070651
0.508808 0.511033 0.064008
0.661973 0.507462 0.057350
0.809461 0.504075 0.050927
0.945532 0.500993 0.044989
1.000000 0.498334 0.039793
0.000000 0.666414 0.065750
0.067936 0.663630 0.060590
0.203940 0.660481 0.054673
0.351447 0.657114 0.048243
0.504736 0.653666 0.041549
0.658076 0.650271 0.034840
0.805732 0.647052 0.028366
0.941959 0.644126 0.022384
1.000000 0.641603 0.017147
0.000000 0.803659 0.044147
0.064092 0.801006 0.038949
0.200246 0.798007 0.032987
0.347915 0.794801 0.026510
0.501372 0.791523 0.019766
0.654882 0.788296 0.013007
0.802700 0.785239 0.006487
0.939076 0.782463 0.000460
1.000000 0.780071 0.000000
0.000000 0.930726 0.024080
0.061030 0.928193 0.018846
0.197322 0.925332 0.012844
0.345142 0.922276 0.006323
0.498754 0.919153 0.000000
0.652419 0.916082 0.000000
0.800387 0.913175 0.000000
0.936902 0.910537 0.000000
1.000000 0.908265 0.000000
0.000000 1.000000 0.006437
0.058736 1.000000 0.001172
0.195149 1.000000 0.000000
0.343099 1.000000 0.000000
0.496848 1.000000 0.000000
0.650648 1.000000 0.000000
0.798747 1.000000 0.000000
0.935382 1.000000 0.000000
1.000000 1.000000 0.000000
0.000000 0.013136 0.302513
0.093404 0.009735 0.297534
0.228702 0.005881 0.291824
0.375444 0.001748 0.285619
0.527938 0.000000 0.279158
0.680484 0.000000 0.272682
0.827374 0.000000 0.266433
0.962896 0.000000 0.260658
1.000000 0.000000 0.255602
0.000000 0.121607 0.285727
0.088190 0.118311 0.280717
0.223609 0.114578 0.274971
0.370482 0.110576 0.268728
0.523111 0.106469 0.262227
0.675793 0.102415 0.255711
0.822814 0.098562 0.249424
0.958456 0.095051 0.243613
1.000000 0.092017 0.238527
0.000000 0.246201 0.266386
0.082656 0.243026 0.261340
0.218214 0.239431 0.255554
0.365236 0.235579 0.249267
0.518022 0.231628 0.242721
0.670859 0.227729 0.236159
0.818030 0.224025 0.229828
0.953810 0.220652 0.223976
1.000000 0.217739 0.218854
0.000000 0.381816 0.245261
0.077182 0.378772 0.240177
0.212889 0.375326 0.234347
0.360074 0.371636 0.228012
0.513028 0.367854 0.221416
0.666034 0.364124 0.214805
0.813367 0.360583 0.208427
0.949297 0.357359 0.202531
1.000000 0.354577 0.197371
0.000000 0.523278 0.223146
0.072074 0.520369 0.218023
0.207936 0.517079 0.212147
0.355290 0.513558 0.205762
0.508419 0.509951 0.199115
0.661600 0.506396 0.192452
0.809102 0.503023 0.186024
0.945188 0.499956 0.180083
1.000000 0.497309 0.174883
0.000000 0.665328 0.200858
0.067555 0.662556 0.195695
0.203573 0.659421 0.189773
0.351095 0.656069 0.183339
0.504399 0.652637 0.176640
0.657756 0.649258 0.169926
0.805427 0.646054 0.163449
0.941667 0.643141 0.157462
1.000000 0.640631 0.152222
0.000000 0.802624 0.179240
0.063761 0.799983 0.174038
0.199929 0.796998 0.168073
0.347614 0.793807 0.161591
0.501087 0.790544 0.154843
0.654612 0.787334 0.148079
0.802445 0.784292 0.141554
0.938836 0.781529 0.135523
1.000000 0.779150 0.130244
0.000000 0.929737 0.159159
0.060747 0.927216 0.153922
0.197053 0.924369 0.147916
0.344888 0.921329 0.141390
0.498516 0.918222 0.134596
0.652197 0.915166 0.127787
0.800180 0.912274 0.121218
0.936708 0.909650 0.115146
1.000000 0.907391 0.109832
0.000000 1.000000 0.141504
0.058494 1.000000 0.136236
0.194921 1.000000 0.130195
0.342886 1.000000 0.123631
0.496650 1.000000 0.116797
0.650467 1.000000 0.109947
0.798580 1.000000 0.103340
0.935230 1.000000 0.097233
1.000000 1.000000 0.091888
0.000000 0.011699 0.449078
0.092731 0.008311 0.444095
0.228045 0.004472 0.438380
0.374803 0.000355 0.432171
0.527314 0.000000 0.425705
0.679877 0.000000 0.419224
0.826784 0.000000 0.412970
0.962320 0.000000 0.407190
1.000000 0.000000 0.402131
0.000000 0.120214 0.432279
0.087561 0.116932 0.427265
0.222996 0.113213 0.421515
0.369885 0.109228 0.415267
0.522531 0.105138 0.408761
0.675230 0.101101 0.402240
0.822268 0.097264 0.395949
0.957925 0.093768 0.390133
1.000000 0.090747 0.385043
0.000000 0.244859 0.412923
0.082079 0.241698 0.407874
0.217651 0.238117 0.402083
0.364690 0.234281 0.395791
0.517493 0.230348 0.389240
0.670347 0.226466 0.382673
0.817534 0.222779 0.376337
0.953329 0.219421 0.370481
1.000000 0.216521 0.365355
0.000000 0.380529 0.391782
0.076660 0.377498 0.386695
0.212382 0.374068 0.380860
0.359583 0.370394 0.374520
0.512554 0.366629 0.367919
0.665577 0.362916 0.361303
0.812927 0.359391 0.354920
0.948872 0.356183 0.349020
1.000000 0.353414 0.343856
0.000000 0.522048 0.369650
0.071609 0.519153 0.364523
0.207486 0.515878 0.358643
0.354857 0.512373 0.352253
0.508003 0.508783 0.345601
0.661201 0.505245 0.338933
0.808719 0.501889 0.332500
0.944820 0.498836 0.326555
1.000000 0.496203 0.321351
0.000000 0.664156 0.347345
0.067147 0.661397 0.342178
0.203180 0.658277 0.336252
0.350719 0.654941 0.329813
0.504040 0.651527 0.323110
0.657414 0.648164 0.316390
0.805101 0.644976 0.309908
0.941357 0.642079 0.303917
1.000000 0.639582 0.298673
0.000000 0.801507 0.325711
0.063409 0.798879 0.320505
0.199592 0.795909 0.314535
0.347293 0.792735 0.308049
0.500783 0.789489 0.301296
0.654325 0.786295 0.294527
0.802175 0.783270 0.287997
0.938580 0.780523 0.281962
1.000000 0.778156 0.276679
0.000000 0.928671 0.305615
0.060445 0.926163 0.300374
0.196766 0.923331 0.294364
0.344617 0.920307 0.287834
0.498263 0.917217 0.281034
0.651960 0.914179 0.274220
0.799960 0.911303 0.267646
0.936504 0.908694 0.261570
1.000000 0.906448 0.256252
0.000000 1.000000 0.287947
0.058237 1.000000 0.282675
0.194678 1.000000 0.276629
0.342660 1.000000 0.270061
0.496441 1.000000 0.263222
0.650275 1.000000 0.256367
0.798405 1.000000 0.249755
0.935070 1.000000 0.243644
1.000000 1.000000 0.238295
0.000000 0.010212 0.601335
0.092038 0.006838 0.596348
0.227367 0.003014 0.590629
0.374143 0.000000 0.584414
0.526671 0.000000 0.577943
0.679252 0.000000 0.571457
0.826176 0.000000 0.565198
0.961728 0.000000 0.559414
1.000000 0.000000 0.554350
0.000000 0.118773 0.584522
0.086914 0.115504 0.579505
0.222364 0.111802 0.573750
0.369271 0.107833 0.567497
0.521935 0.103761 0.560986
0.674651 0.099742 0.554460
0.821706 0.095922 0.548163
0.957379 0.092442 0.542343
1.000000 0.089434 0.537249
0.000000 0.243471 0.565151
0.081485 0.240323 0.560098
0.217073 0.236758 0.554302
0.364129 0.232940 0.548005
0.516949 0.229023 0.541449
0.669821 0.225160 0.534877
0.817026 0.221489 0.528536
0.952836 0.218147 0.522676
1.000000 0.215261 0.517546
0.000000 0.379198 0.543993
0.076123 0.376181 0.538902
0.211861 0.372766 0.533063
0.359080 0.369110 0.526718
0.512068 0.365362 0.520112
0.665109 0.361667 0.513490
0.812476 0.358159 0.507102
0.948436 0.354967 0.501197
1.000000 0.352211 0.496029
0.000000 0.520777 0.521844
0.071132 0.517895 0.516713
0.207025 0.514636 0.510828
0.354412 0.511148 0.504433
0.507576 0.507576 0.497776
0.660792 0.504056 0.491103
0.808327 0.500717 0.484665
0.944443 0.497680 0.478715
1.000000 0.495060 0.473507
0.000000 0.662944 0.499522
0.066729 0.660199 0.494350
0.202778 0.657095 0.488420
0.350334 0.653776 0.481976
0.503673 0.650379 0.475267
0.657064 0.647034 0.468543
0.804768 0.643863 0.462055
0.941040 0.640982 0.456059
1.000000 0.638498 0.450811
0.000000 0.800352 0.477870
0.063048 0.797738 0.472661
0.199247 0.794784 0.466686
0.346965 0.791627 0.460195
0.500473 0.788399 0.453436
0.654033 0.785222 0.446662
0.801899 0.782214 0.440127
0.938321 0.779483 0.434087
1.000000 0.777130 0.428801
0.000000 0.927569 0.457759
0.060138 0.925075 0.452514
0.196475 0.922259 0.446499
0.344343 0.919252 0.439964
0.498006 0.916179 0.433159
0.651721 0.913159 0.426340
0.799737 0.910300 0.419761
0.936297 0.907707 0.413681
1.000000 0.905475 0.408359
0.000000 1.000000 0.440078
0.057975 1.000000 0.434802
0.194433 1.000000 0.428751
0.342431 1.000000 0.422177
0.496230 1.000000 0.415333
0.650082 1.000000 0.408474
0.798229 1.000000 0.401856
0.934909 1.000000 0.395741
1.000000 1.000000 0.390388
0.000000 0.008731 0.753590
0.091351 0.005370 0.748599
0.226696 0.001562 0.742875
0.373489 0.000000 0.736656
0.526035 0.000000 0.730179
0.678633 0.000000 0.723688
0.825574 0.000000 0.717425
0.961142 0.000000 0.711635
1.000000 0.000000 0.706568
0.000000 0.117338 0.736764
0.086274 0.114083 0.731742
0.221739 0.110396 0.725983
0.368663 0.106444 0.719725
0.521345 0.102391 0.713209
0.674079 0.098389 0.706677
0.821151 0.094586 0.700376
0.956839 0.091121 0.694551
1.000000 0.088128 0.689453
0.000000 0.242089 0.717377
0.080897 0.238955 0.712320
0.216501 0.235406 0.706520
0.363574 0.231604 0.700218
0.516412 0.227705 0.693656
0.669301 0.223859 0.687079
0.816523 0.220206 0.680733
0.952349 0.216879 0.674868
1.000000 0.214007 0.669734
0.000000 0.377874 0.696203
0.075593 0.374870 0.691107
0.211346 0.371471 0.685263
0.358582 0.367831 0.678914
0.511588 0.364102 0.672302
0.664646 0.360424 0.665676
0.812030 0.356933 0.659282
0.948006 0.353756 0.653373
1.000000 0.351014 0.648201
0.000000 0.519511 0.674036
0.070660 0.516644 0.668900
0.206570 0.513400 0.663011
0.353974 0.509929 0.656612
0.507155 0.506375 0.649949
0.660389 0.502872 0.643271
0.807941 0.499550 0.636828
0.944073 0.496529 0.630873
1.000000 0.493923 0.625661
0.000000 0.661738 0.651696
0.066318 0.659007 0.646521
0.202382 0.655918 0.640585
0.349955 0.652616 0.634137
0.503312 0.649237 0.627423
0.656720 0.645910 0.620693
0.804442 0.642756 0.614201
0.940729 0.639891 0.608200
1.000000 0.637421 0.602948
0.000000 0.799204 0.630028
0.062694 0.796603 0.624814
0.198909 0.793664 0.618835
0.346644 0.790525 0.612339
0.500169 0.787314 0.605575
0.653746 0.784156 0.598796
0.801630 0.781164 0.592256
0.938067 0.778448 0.586211
1.000000 0.776109 0.580921
0.000000 0.926473 0.609901
0.059836 0.923993 0.604652
0.196189 0.921193 0.598633
0.344074 0.918203 0.592092
0.497755 0.915148 0.585283
0.651488 0.912145 0.578458
0.799521 0.909303 0.571874
0.936096 0.906726 0.565789
1.000000 0.904507 0.560463
0.000000 1.000000 0.592206
0.057720 1.000000 0.586926
0.194193 1.000000 0.580871
0.342209 1.000000 0.574292
0.496026 1.000000 0.567443
0.649894 1.000000 0.560578
0.798059 1.000000 0.553956
0.934754 1.000000 0.547835
1.000000 1.000000 0.542478
0.000000 0.007311 0.900150
0.090696 0.003963 0.895156
0.226056 0.000170 0.889427
0.372865 0.000000 0.883203
0.525428 0.000000 0.876721
0.678043 0.000000 0.870225
0.825000 0.000000 0.863957
0.960583 0.000000 0.858163
1.000000 0.000000 0.853092
0.000000 0.115962 0.883311
0.085663 0.112721 0.878286
0.221143 0.109049 0.872522
0.368083 0.105113 0.866259
0.520782 0.101077 0.859738
0.673533 0.097092 0.853201
0.820622 0.093305 0.846895
0.956325 0.089856 0.841066
1.000000 0.086876 0.835963
0.000000 0.240764 0.863909
0.080337 0.237643 0.858848
0.215956 0.234109 0.853044
0.363045 0.230324 0.846737
0.515900 0.226442 0.840170
0.668806 0.222613 0.833588
0.816045 0.218976 0.827238
0.951886 0.215665 0.821368
1.000000 0.212805 0.816230
0.000000 0.376604 0.842719
0.075087 0.373614 0.837619
0.210856 0.370229 0.831771
0.358108 0.366606 0.825416
0.511131 0.362894 0.818800
0.664206 0.359233 0.812168
0.811607 0.355759 0.805770
0.947598 0.352597 0.799857
1.000000 0.349868 0.794680
0.000000 0.518299 0.820535
0.070213 0.515444 0.815396
0.206137 0.512216 0.809502
0.353557 0.508761 0.803098
0.506756 0.505224 0.796430
0.660006 0.501739 0.789747
0.807575 0.498433 0.783299
0.943722 0.495427 0.777340
1.000000 0.492834 0.772124
0.000000 0.660583 0.798178
0.065927 0.657865 0.792999
0.202007 0.654791 0.787060
0.349596 0.651506 0.780606
0.502970 0.648144 0.773887
0.656395 0.644833 0.767152
0.804133 0.641696 0.760655
0.940436 0.638846 0.754650
1.000000 0.636389 0.749394
0.000000 0.798104 0.776494
0.062359 0.795516 0.771277
0.198588 0.792593 0.765293
0.346340 0.789469 0.758792
0.499882 0.786276 0.752023
0.653476 0.783134 0.745239
0.801377 0.780160 0.738694
0.937829 0.777459 0.732645
1.000000 0.775133 0.727351
0.000000 0.925424 0.756353
0.059552 0.922957 0.751100
0.195919 0.920172 0.745076
0.343821 0.917198 0.738530
0.497519 0.914160 0.731716
0.651268 0.911174 0.724886
0.799318 0.908349 0.718297
0.935909 0.905787 0.712208
1.000000 0.903581 0.706878
0.000000 1.000000 0.738644
0.057480 1.000000 0.733360
0.193968 1.000000 0.727301
0.342000 1.000000 0.720717
0.495834 1.000000 0.713863
0.649720 1.000000 0.706993
0.797900 1.000000 0.700366
0.934611 1.000000 0.694241
1.000000 1.000000 0.688880
0.000000 0.006006 1.000000
0.090096 0.002671 1.000000
0.225470 0.000000 1.000000
0.372294 0.000000 1.000000
0.524873 0.000000 1.000000
0.677504 0.000000 1.000000
0.824476 0.000000 0.999103
0.960073 0.000000 0.993305
1.000000 0.000000 0.988230
0.000000 0.114699 1.000000
0.085104 0.111469 1.000000
0.220599 0.107811 1.000000
0.367554 0.103891 1.000000
0.520268 0.099870 0.994881
0.673035 0.095901 0.988340
0.820138 0.092129 0.982029
0.955856 0.088693 0.976196
1.000000 0.085726 0.971090
0.000000 0.239547 0.999055
0.079825 0.236438 0.993991
0.215458 0.232918 0.988183
0.362563 0.229148 0.981871
0.515433 0.225282 0.975300
0.668355 0.221469 0.968713
0.815608 0.217847 0.962358
0.951464 0.214550 0.956484
1.000000 0.211702 0.951343
0.000000 0.375438 0.977850
0.074626 0.372460 0.972747
0.210409 0.369089 0.966895
0.357676 0.365481 0.960536
0.510715 0.361784 0.953915
0.663806 0.358140 0.947278
0.811222 0.354680 0.940876
0.947227 0.351532 0.934958
1.000000 0.348816 0.929778
0.000000 0.517185 0.955651
0.069804 0.514343 0.950508
0.205743 0.511128 0.944610
0.353178 0.507689 0.938201
0.506392 0.504168 0.931529
0.659659 0.500698 0.924841
0.807243 0.497407 0.918389
0.943404 0.494415 0.912426
1.000000 0.491834 0.907206
0.000000 0.659523 0.933279
0.065572 0.656816 0.928096
0.201666 0.653757 0.922152
0.349270 0.650487 0.915694
0.502659 0.647140 0.908970
0.656101 0.643846 0.902231
0.803853 0.640724 0.895730
0.940170 0.637887 0.889721
1.000000 0.635442 0.884461
0.000000 0.797094 0.911580
0.062054 0.794519 0.906358
0.198298 0.791609 0.900371
0.346064 0.788501 0.893865
0.499622 0.785323 0.887092
0.653233 0.782197 0.880303
0.801148 0.779238 0.873754
0.937614 0.776551 0.867701
1.000000 0.774237 0.862403
0.000000 0.924462 0.891424
0.059294 0.922007 0.886168
0.195676 0.919235 0.880139
0.343592 0.916277 0.873590
0.497306 0.913255 0.866771
0.651071 0.910284 0.859936
0.799136 0.907475 0.853343
0.935741 0.904926 0.847250
1.000000 0.902733 0.841916
0.000000 1.000000 0.873704
0.057263 1.000000 0.868416
0.193765 1.000000 0.862353
0.341813 1.000000 0.855765
0.495662 1.000000 0.848906
0.649564 1.000000 0.842032
0.797759 1.000000 0.835400
0.934484 1.000000 0.829271
1.000000 1.000000 0.823907
0.000000 0.004870 1.000000
0.089576 0.001545 1.000000
0.224962 0.000000 1.000000
0.371799 0.000000 1.000000
0.524392 0.000000 1.000000
0.677037 0.000000 1.000000
0.824022 0.000000 1.000000
0.959631 0.000000 1.000000
1.000000 0.000000 1.000000
0.000000 0.113598 1.000000
0.084620 0.110379 1.000000
0.220127 0.106733 1.000000
0.367095 0.102827 1.000000
0.519823 0.098819 1.000000
0.672604 0.094864 1.000000
0.819720 0.091106 1.000000
0.955450 0.087682 1.000000
1.000000 0.084725 1.000000
0.000000 0.238488 1.000000
0.079382 0.235390 1.000000
0.215027 0.231882 1.000000
0.362145 0.228125 1.000000
0.515029 0.224273 1.000000
0.667965 0.220473 1.000000
0.815231 0.216864 1.000000
0.951099 0.213579 1.000000
1.000000 0.210742 1.000000
0.000000 0.374423 1.000000
0.074228 0.371455 1.000000
0.210022 0.368097 1.000000
0.357303 0.364502 1.000000
0.510355 0.360819 1.000000
0.663460 0.357188 1.000000
0.810889 0.353742 1.000000
0.946906 0.350606 1.000000
1.000000 0.347901 1.000000
0.000000 0.516217 1.000000
0.069452 0.513385 1.000000
0.205402 0.510183 1.000000
0.352851 0.506757 1.000000
0.506079 0.503249 1.000000
0.659359 0.499793 1.000000
0.806956 0.496515 1.000000
0.943129 0.493535 1.000000
1.000000 0.490965 1.000000
0.000000 0.658600 1.000000
0.065265 0.655904 1.000000
0.201371 0.652857 1.000000
0.348989 0.649600 1.000000
0.502392 0.646267 1.000000
0.655847 0.642987 1.000000
0.803613 0.639878 1.000000
0.939942 0.637053 1.000000
1.000000 0.634619 1.000000
0.000000 0.796216 1.000000
0.061792 0.793651 1.000000
0.198048 0.790754 1.000000
0.345828 0.787659 1.000000
0.499399 0.784495 1.000000
0.653023 0.781383 0.998300
0.800952 0.778436 0.991747
0.937430 0.775762 0.985690
1.000000 0.773458 0.980389
0.000000 0.923624 1.000000
0.059073 0.921180 1.000000
0.195467 0.918421 0.998136
0.343396 0.915476 0.991583
0.497124 0.912467 0.984760
0.650903 0.909511 0.977921
0.798981 0.906714 0.971324
0.935598 0.904177 0.965227
1.000000 0.901995 0.959890
0.000000 1.000000 0.991697
0.057078 1.000000 0.986406
0.193592 1.000000 0.980339
0.341653 1.000000 0.973747
0.495516 1.000000 0.966884
0.649431 1.000000 0.960006
0.797640 1.000000 0.953370
0.934377 1.000000 0.947238
1.000000 1.000000 0.941870
