public/luts/teal-orange.cube
TITLE "OneMoment teal-orange"
LUT_3D_SIZE 5
DOMAIN_MIN 0.0 0.0 0.0
DOMAIN_MAX 1.0 1.0 1.0
0.000000 0.015633 0.049233
0.229852 0.008329 0.038558
0.529030 0.000000 0.025910
0.828408 0.000000 0.013202
1.000000 0.000000 0.002385
0.000000 0.248533 0.013154
0.219199 0.241714 0.002337
0.518949 0.233853 0.000000
0.818899 0.226193 0.000000
1.000000 0.219858 0.000000
0.000000 0.525415 0.000000
0.208727 0.519168 0.000000
0.509152 0.511982 0.000000
0.809777 0.504997 0.000000
1.000000 0.499234 0.000000
0.000000 0.804568 0.000000
0.200526 0.798892 0.000000
0.501626 0.792381 0.000000
0.802926 0.786071 0.000000
1.000000 0.780880 0.000000
0.000000 1.000000 0.000000
0.195352 1.000000 0.000000
0.497024 1.000000 0.000000
0.798897 1.000000 0.000000
1.000000 1.000000 0.000000
0.000000 0.013136 0.302513
0.228702 0.005881 0.291824
0.527938 0.000000 0.279158
0.827374 0.000000 0.266433
1.000000 0.000000 0.255602
0.000000 0.246201 0.266386
0.218214 0.239431 0.255554
0.518022 0.231628 0.242721
0.818030 0.224025 0.229828
1.000000 0.217739 0.218854
0.000000 0.523278 0.223146
0.207936 0.517079 0.212147
0.508419 0.509951 0.199115
0.809102 0.503023 0.186024
1.000000 0.497309 0.174883
0.000000 0.802624 0.179240
0.199929 0.796998 0.168073
0.501087 0.790544 0.154843
0.802445 0.784292 0.141554
1.000000 0.779150 0.130244
0.000000 1.000000 0.141504
0.194921 1.000000 0.130195
0.496650 1.000000 0.116797
0.798580 1.000000 0.103340
1.000000 1.000000 0.091888
0.000000 0.010212 0.601335
0.227367 0.003014 0.590629
0.526671 0.000000 0.577943
0.826176 0.000000 0.565198
1.000000 0.000000 0.554350
0.000000 0.243471 0.565151
0.217073 0.236758 0.554302
0.516949 0.229023 0.541449
0.817026 0.221489 0.528536
1.000000 0.215261 0.517546
0.000000 0.520777 0.521844
0.207025 0.514636 0.510828
0.507576 0.507576 0.497776
0.808327 0.500717 0.484665
1.000000 0.495060 0.473507
0.000000 0.800352 0.477870
0.199247 0.794784 0.466686
0.500473 0.788399 0.453436
0.801899 0.782214 0.440127
1.000000 0.777130 0.428801
0.000000 1.000000 0.440078
0.194433 1.000000 0.428751
0.496230 1.000000 0.415333
0.798229 1.000000 0.401856
1.000000 1.000000 0.390388
0.000000 0.007311 0.900150
0.226056 0.000170 0.889427
0.525428 0.000000 0.876721
0.825000 0.000000 0.863957
1.000000 0.000000 0.853092
0.000000 0.240764 0.863909
0.215956 0.234109 0.853044
0.515900 0.226442 0.840170
0.816045 0.218976 0.827238
1.000000 0.212805 0.816230
0.000000 0.518299 0.820535
0.206137 0.512216 0.809502
0.506756 0.505224 0.796430
0.807575 0.498433 0.783299
1.000000 0.492834 0.772124
0.000000 0.798104 0.776494
0.198588 0.792593 0.765293
0.499882 0.786276 0.752023
0.801377 0.780160 0.738694
1.000000 0.775133 0.727351
0.000000 1.000000 0.738644
0.193968 1.000000 0.727301
0.495834 1.000000 0.713863
0.797900 1.000000 0.700366
1.000000 1.000000 0.688880
0.000000 0.004870 1.000000
0.224962 0.000000 1.000000
0.524392 0.000000 1.000000
0.824022 0.000000 1.000000
1.000000 0.000000 1.000000
0.000000 0.238488 1.000000
0.215027 0.231882 1.000000
0.515029 0.224273 1.000000
0.815231 0.216864 1.000000
1.000000 0.210742 1.000000
0.000000 0.516217 1.000000
0.205402 0.510183 1.000000
0.506079 0.503249 1.000000
0.806956 0.496515 1.000000
1.000000 0.490965 1.000000
0.000000 0.796216 1.000000
0.198048 0.790754 1.000000
0.499399 0.784495 1.000000
0.800952 0.778436 0.991747
1.000000 0.773458 0.980389
0.000000 1.000000 0.991697
0.193592 1.000000 0.980339
0.495516 1.000000 0.966884
0.797640 1.000000 0.953370
1.000000 1.000000 0.941870
