public/luts/teal-orange.cube
TITLE "OneMoment teal-orange"
LUT_3D_SIZE 33
DOMAIN_MIN 0.0 0.0 0.0
DOMAIN_MAX 1.0 1.0 1.0
0.000000 0.015633 0.049233
0.004053 0.014830 0.048071
0.033010 0.013989 0.046853
0.063215 0.013115 0.045582
0.094579 0.012209 0.044261
0.127014 0.011275 0.042895
0.160430 0.010315 0.041486
0.194739 0.009332 0.040040
0.229852 0.008329 0.038558
0.265680 0.007308 0.037046
0.302134 0.006272 0.035507
0.339126 0.005225 0.033944
0.376566 0.004167 0.032362
0.414365 0.003103 0.030763
0.452435 0.002035 0.029153
0.490686 0.000965 0.027533
0.529030 0.000000 0.025910
0.567377 0.000000 0.024285
0.605638 0.000000 0.022663
0.643724 0.000000 0.021047
0.681546 0.000000 0.019442
0.719015 0.000000 0.017851
0.756041 0.000000 0.016278
0.792535 0.000000 0.014727
0.828408 0.000000 0.013202
0.863571 0.000000 0.011706
0.897934 0.000000 0.010243
0.931408 0.000000 0.008818
0.963903 0.000000 0.007434
0.995331 0.000000 0.006095
1.000000 0.000000 0.004804
1.000000 0.000000 0.003566
1.000000 0.000000 0.002385
0.000000 0.040944 0.045323
0.002766 0.040147 0.044160
0.031729 0.039312 0.042940
0.061940 0.038444 0.041666
0.093310 0.037545 0.040344
0.125752 0.036617 0.038975
0.159175 0.035664 0.037565
0.193491 0.034689 0.036116
0.228611 0.033693 0.034633
0.264447 0.032679 0.033119
0.300908 0.031651 0.031577
0.337908 0.030611 0.030012
0.375356 0.029562 0.028427
0.413163 0.028506 0.026827
0.451241 0.027446 0.025214
0.489500 0.026384 0.023592
0.527852 0.025322 0.021966
0.566206 0.024264 0.020338
0.604476 0.023212 0.018714
0.642570 0.022168 0.017096
0.680400 0.021135 0.015489
0.717876 0.020114 0.013896
0.754910 0.019109 0.012321
0.791412 0.018121 0.010767
0.827293 0.017153 0.009240
0.862463 0.016207 0.007742
0.896833 0.015285 0.006277
0.930314 0.014389 0.004850
0.962816 0.013523 0.003464
0.994250 0.012687 0.002122
1.000000 0.011884 0.000830
1.000000 0.011116 0.000000
1.000000 0.010385 0.000000
0.000000 0.067500 0.041218
0.001436 0.066708 0.040053
0.030406 0.065880 0.038831
0.060624 0.065019 0.037556
0.092001 0.064126 0.036231
0.124450 0.063206 0.034861
0.157880 0.062260 0.033448
0.192203 0.061292 0.031997
0.227331 0.060303 0.030512
0.263175 0.059298 0.028995
0.299644 0.058278 0.027451
0.336652 0.057246 0.025884
0.374108 0.056205 0.024297
0.411923 0.055157 0.022693
0.450009 0.054105 0.021078
0.488277 0.053051 0.019454
0.526637 0.051998 0.017825
0.565000 0.050949 0.016196
0.603278 0.049905 0.014569
0.641380 0.048869 0.012948
0.679219 0.047844 0.011339
0.716703 0.046831 0.009743
0.753745 0.045834 0.008165
0.790255 0.044854 0.006610
0.826144 0.043894 0.005080
0.861321 0.042956 0.003580
0.895699 0.042041 0.002113
0.929187 0.041153 0.000683
0.961696 0.040294 0.000000
0.993137 0.039465 0.000000
1.000000 0.038668 0.000000
1.000000 0.037907 0.000000
1.000000 0.037182 0.000000
0.000000 0.095220 0.036930
0.000073 0.094435 0.035763
0.029049 0.093614 0.034539
0.059274 0.092759 0.033262
0.090658 0.091874 0.031935
0.123114 0.090961 0.030562
0.156552 0.090022 0.029147
0.190883 0.089062 0.027694
0.226019 0.088082 0.026206
0.261871 0.087084 0.024687
0.298349 0.086073 0.023141
0.335365 0.085049 0.021571
0.372829 0.084017 0.019981
0.410653 0.082977 0.018376
0.448748 0.081934 0.016758
0.487024 0.080889 0.015131
0.525393 0.079845 0.013500
0.563765 0.078804 0.011868
0.602051 0.077769 0.010238
0.640163 0.076742 0.008615
0.678009 0.075725 0.007003
0.715503 0.074721 0.005405
0.752553 0.073732 0.003825
0.789071 0.072761 0.002267
0.824968 0.071809 0.000735
0.860154 0.070878 0.000000
0.894539 0.069972 0.000000
0.928035 0.069092 0.000000
0.960551 0.068239 0.000000
0.991999 0.067417 0.000000
1.000000 0.066628 0.000000
1.000000 0.065873 0.000000
1.000000 0.065155 0.000000
0.000000 0.124027 0.032470
0.000000 0.123248 0.031301
0.027664 0.122434 0.030075
0.057896 0.121586 0.028796
0.089288 0.120709 0.027467
0.121752 0.119803 0.026092
0.155198 0.118873 0.024675
0.189537 0.117921 0.023219
0.224681 0.116949 0.021729
0.260541 0.115960 0.020207
0.297028 0.114957 0.018659
0.334053 0.113942 0.017086
0.371526 0.112918 0.015494
0.409359 0.111888 0.013886
0.447463 0.110854 0.012265
0.485748 0.109818 0.010636
0.524126 0.108783 0.009002
0.562507 0.107751 0.007367
0.600803 0.106725 0.005735
0.638923 0.105707 0.004109
0.676778 0.104699 0.002494
0.714280 0.103704 0.000894
0.751340 0.102724 0.000000
0.787866 0.101761 0.000000
0.823772 0.100817 0.000000
0.858966 0.099895 0.000000
0.893359 0.098997 0.000000
0.926863 0.098124 0.000000
0.959387 0.097280 0.000000
0.990843 0.096465 0.000000
1.000000 0.095683 0.000000
1.000000 0.094935 0.000000
1.000000 0.094223 0.000000
0.000000 0.153841 0.027850
0.000000 0.153069 0.026680
0.026259 0.152262 0.025452
0.056498 0.151422 0.024170
0.087898 0.150552 0.022839
0.120369 0.149654 0.021462
0.153824 0.148732 0.020042
0.188171 0.147788 0.018584
0.223324 0.146825 0.017091
0.259193 0.145845 0.015567
0.295689 0.144851 0.014016
0.332722 0.143845 0.012441
0.370205 0.142831 0.010846
0.408047 0.141810 0.009235
0.446160 0.140784 0.007611
0.484455 0.139758 0.005979
0.522842 0.138732 0.004343
0.561233 0.137710 0.002705
0.599537 0.136693 0.001070
0.637667 0.135684 0.000000
0.675532 0.134686 0.000000
0.713043 0.133700 0.000000
0.750111 0.132729 0.000000
0.786647 0.131775 0.000000
0.822561 0.130840 0.000000
0.857763 0.129927 0.000000
0.892165 0.129037 0.000000
0.925677 0.128172 0.000000
0.958210 0.127336 0.000000
0.989673 0.126529 0.000000
1.000000 0.125754 0.000000
1.000000 0.125013 0.000000
1.000000 0.124308 0.000000
0.000000 0.184583 0.023083
0.000000 0.183819 0.021910
0.024839 0.183018 0.020680
0.055086 0.182186 0.019397
0.086494 0.181324 0.018063
0.118973 0.180435 0.016683
0.152436 0.179521 0.015262
0.186792 0.178586 0.013801
0.221954 0.177631 0.012305
0.257832 0.176660 0.010779
0.294337 0.175675 0.009225
0.331380 0.174679 0.007647
0.368872 0.173674 0.006049
0.406724 0.172662 0.004435
0.444846 0.171647 0.002809
0.483151 0.170630 0.001174
0.521547 0.169614 0.000000
0.559948 0.168601 0.000000
0.598262 0.167594 0.000000
0.636401 0.166595 0.000000
0.674275 0.165606 0.000000
0.711796 0.164629 0.000000
0.748874 0.163668 0.000000
0.785419 0.162723 0.000000
0.821341 0.161797 0.000000
0.856553 0.160892 0.000000
0.890964 0.160011 0.000000
0.924484 0.159155 0.000000
0.957024 0.158327 0.000000
0.988495 0.157528 0.000000
1.000000 0.156761 0.000000
1.000000 0.156027 0.000000
1.000000 0.155329 0.000000
0.000000 0.216174 0.018181
0.000000 0.215416 0.017006
0.023411 0.214624 0.015773
0.053666 0.213799 0.014487
0.085082 0.212945 0.013151
0.117570 0.212064 0.011769
0.151041 0.211159 0.010345
0.185406 0.210233 0.008882
0.220577 0.209287 0.007383
0.256464 0.208326 0.005854
0.292978 0.207350 0.004297
0.330031 0.206363 0.002716
0.367532 0.205368 0.001116
0.405394 0.204366 0.000000
0.443527 0.203361 0.000000
0.481841 0.202354 0.000000
0.520248 0.201347 0.000000
0.558658 0.200345 0.000000
0.596982 0.199347 0.000000
0.635131 0.198358 0.000000
0.673015 0.197379 0.000000
0.710545 0.196412 0.000000
0.747633 0.195460 0.000000
0.784187 0.194525 0.000000
0.820119 0.193608 0.000000
0.855340 0.192713 0.000000
0.889759 0.191840 0.000000
0.923288 0.190993 0.000000
0.955837 0.190173 0.000000
0.987316 0.189382 0.000000
1.000000 0.188623 0.000000
1.000000 0.187897 0.000000
1.000000 0.187206 0.000000
0.000000 0.248533 0.013154
0.000000 0.247783 0.011977
0.021981 0.246998 0.010743
0.052243 0.246181 0.009454
0.083667 0.245336 0.008116
0.116164 0.244463 0.006731
0.149644 0.243567 0.005304
0.184018 0.242650 0.003838
0.219199 0.241714 0.002337
0.255095 0.240762 0.000805
0.291619 0.239796 0.000000
0.328681 0.238819 0.000000
0.366193 0.237833 0.000000
0.404065 0.236842 0.000000
0.442207 0.235846 0.000000
0.480532 0.234849 0.000000
0.518949 0.233853 0.000000
0.557369 0.232861 0.000000
0.595703 0.231873 0.000000
0.633862 0.230894 0.000000
0.671756 0.229925 0.000000
0.709297 0.228968 0.000000
0.746394 0.228026 0.000000
0.782958 0.227100 0.000000
0.818899 0.226193 0.000000
0.854129 0.225307 0.000000
0.888558 0.224444 0.000000
0.922096 0.223605 0.000000
0.954653 0.222794 0.000000
0.986140 0.222011 0.000000
1.000000 0.221260 0.000000
1.000000 0.220541 0.000000
1.000000 0.219858 0.000000
0.000000 0.281582 0.008017
0.000000 0.280839 0.006837
0.020553 0.280061 0.005600
0.050824 0.279253 0.004310
0.082257 0.278416 0.002969
0.114762 0.277552 0.001582
0.148251 0.276665 0.000152
0.182635 0.275757 0.000000
0.217824 0.274830 0.000000
0.253731 0.273888 0.000000
0.290264 0.272932 0.000000
0.327337 0.271965 0.000000
0.364858 0.270990 0.000000
0.402740 0.270008 0.000000
0.440893 0.269023 0.000000
0.479228 0.268036 0.000000
0.517655 0.267051 0.000000
0.556086 0.266068 0.000000
0.594431 0.265092 0.000000
0.632600 0.264123 0.000000
0.670504 0.263164 0.000000
0.708055 0.262217 0.000000
0.745162 0.261285 0.000000
0.781735 0.260369 0.000000
0.817687 0.259471 0.000000
0.852926 0.258595 0.000000
0.887364 0.257741 0.000000
0.920911 0.256911 0.000000
0.953477 0.256109 0.000000
0.984973 0.255335 0.000000
1.000000 0.254591 0.000000
1.000000 0.253881 0.000000
1.000000 0.253205 0.000000
0.000000 0.315238 0.002780
0.000000 0.314503 0.001598
0.019134 0.313733 0.000359
0.049414 0.312933 0.000000
0.080855 0.312105 0.000000
0.113369 0.311250 0.000000
0.146867 0.310372 0.000000
0.181261 0.309473 0.000000
0.216460 0.308557 0.000000
0.252376 0.307624 0.000000
0.288920 0.306678 0.000000
0.326002 0.305721 0.000000
0.363534 0.304756 0.000000
0.401427 0.303785 0.000000
0.439590 0.302810 0.000000
0.477935 0.301834 0.000000
0.516373 0.300859 0.000000
0.554814 0.299887 0.000000
0.593169 0.298921 0.000000
0.631349 0.297963 0.000000
0.669264 0.297014 0.000000
0.706825 0.296078 0.000000
0.743942 0.295155 0.000000
0.780526 0.294249 0.000000
0.816487 0.293362 0.000000
0.851736 0.292495 0.000000
0.886183 0.291650 0.000000
0.919739 0.290830 0.000000
0.952314 0.290037 0.000000
0.983819 0.289271 0.000000
1.000000 0.288536 0.000000
1.000000 0.287833 0.000000
1.000000 0.287165 0.000000
0.000000 0.349422 0.000000
0.000000 0.348694 0.000000
0.017729 0.347933 0.000000
0.048017 0.347142 0.000000
0.079467 0.346322 0.000000
0.111990 0.345476 0.000000
0.145498 0.344608 0.000000
0.179901 0.343719 0.000000
0.215110 0.342811 0.000000
0.251036 0.341889 0.000000
0.287590 0.340953 0.000000
0.324683 0.340007 0.000000
0.362225 0.339052 0.000000
0.400128 0.338091 0.000000
0.438302 0.337127 0.000000
0.476658 0.336162 0.000000
0.515106 0.335197 0.000000
0.553558 0.334236 0.000000
0.591924 0.333281 0.000000
0.630114 0.332333 0.000000
0.668040 0.331395 0.000000
0.705611 0.330469 0.000000
0.742738 0.329557 0.000000
0.779332 0.328661 0.000000
0.815304 0.327784 0.000000
0.850562 0.326927 0.000000
0.885019 0.326092 0.000000
0.918585 0.325281 0.000000
0.951169 0.324496 0.000000
0.982682 0.323740 0.000000
1.000000 0.323013 0.000000
1.000000 0.322318 0.000000
1.000000 0.321657 0.000000
0.000000 0.384053 0.000000
0.000000 0.383333 0.000000
0.016343 0.382580 0.000000
0.046639 0.381797 0.000000
0.078098 0.380986 0.000000
0.110630 0.380150 0.000000
0.144147 0.379291 0.000000
0.178560 0.378411 0.000000
0.213779 0.377514 0.000000
0.249715 0.376601 0.000000
0.286279 0.375676 0.000000
0.323382 0.374740 0.000000
0.360935 0.373796 0.000000
0.398849 0.372846 0.000000
0.437034 0.371892 0.000000
0.475400 0.370938 0.000000
0.513860 0.369984 0.000000
0.552322 0.369034 0.000000
0.590699 0.368089 0.000000
0.628900 0.367152 0.000000
0.666836 0.366225 0.000000
0.704418 0.365310 0.000000
0.741556 0.364408 0.000000
0.778160 0.363523 0.000000
0.814142 0.362655 0.000000
0.849410 0.361808 0.000000
0.883877 0.360983 0.000000
0.917452 0.360181 0.000000
0.950045 0.359406 0.000000
0.981567 0.358658 0.000000
1.000000 0.357940 0.000000
1.000000 0.357254 0.000000
1.000000 0.356600 0.000000
0.000000 0.419050 0.000000
0.000000 0.418338 0.000000
0.014979 0.417593 0.000000
0.045284 0.416818 0.000000
0.076752 0.416016 0.000000
0.109293 0.415189 0.000000
0.142820 0.414340 0.000000
0.177242 0.413470 0.000000
0.212471 0.412583 0.000000
0.248418 0.411680 0.000000
0.284992 0.410765 0.000000
0.322106 0.409840 0.000000
0.359670 0.408906 0.000000
0.397594 0.407967 0.000000
0.435790 0.407025 0.000000
0.474167 0.406081 0.000000
0.512637 0.405138 0.000000
0.551111 0.404199 0.000000
0.589499 0.403265 0.000000
0.627710 0.402339 0.000000
0.665657 0.401422 0.000000
0.703250 0.400518 0.000000
0.740398 0.399627 0.000000
0.777013 0.398752 0.000000
0.813004 0.397895 0.000000
0.848283 0.397057 0.000000
0.882760 0.396242 0.000000
0.916344 0.395450 0.000000
0.948947 0.394684 0.000000
0.980478 0.393945 0.000000
1.000000 0.393236 0.000000
1.000000 0.392557 0.000000
1.000000 0.391912 0.000000
0.000000 0.454330 0.000000
0.000000 0.453626 0.000000
0.013642 0.452890 0.000000
0.043956 0.452124 0.000000
0.075433 0.451331 0.000000
0.107984 0.450513 0.000000
0.141520 0.449673 0.000000
0.175952 0.448813 0.000000
0.211191 0.447936 0.000000
0.247148 0.447044 0.000000
0.283733 0.446139 0.000000
0.320857 0.445225 0.000000
0.358432 0.444302 0.000000
0.396367 0.443374 0.000000
0.434573 0.442442 0.000000
0.472962 0.441509 0.000000
0.511443 0.440578 0.000000
0.549928 0.439649 0.000000
0.588326 0.438726 0.000000
0.626549 0.437811 0.000000
0.664507 0.436905 0.000000
0.702110 0.436011 0.000000
0.739269 0.435131 0.000000
0.775894 0.434267 0.000000
0.811896 0.433420 0.000000
0.847185 0.432593 0.000000
0.881671 0.431787 0.000000
0.915265 0.431005 0.000000
0.947877 0.430248 0.000000
0.979417 0.429518 0.000000
1.000000 0.428817 0.000000
1.000000 0.428147 0.000000
1.000000 0.427510 0.000000
0.000000 0.489813 0.000000
0.000000 0.489117 0.000000
0.012336 0.488389 0.000000
0.042659 0.487632 0.000000
0.074144 0.486848 0.000000
0.106705 0.486039 0.000000
0.140251 0.485209 0.000000
0.174693 0.484359 0.000000
0.209942 0.483492 0.000000
0.245909 0.482610 0.000000
0.282504 0.481716 0.000000
0.319640 0.480812 0.000000
0.357225 0.479900 0.000000
0.395171 0.478983 0.000000
0.433388 0.478062 0.000000
0.471788 0.477140 0.000000
0.510280 0.476220 0.000000
0.548776 0.475302 0.000000
0.587185 0.474391 0.000000
0.625419 0.473486 0.000000
0.663388 0.472591 0.000000
0.701002 0.471708 0.000000
0.738171 0.470839 0.000000
0.774807 0.469985 0.000000
0.810819 0.469148 0.000000
0.846118 0.468331 0.000000
0.880614 0.467535 0.000000
0.914218 0.466763 0.000000
0.946839 0.466015 0.000000
0.978388 0.465294 0.000000
1.000000 0.464602 0.000000
1.000000 0.463941 0.000000
1.000000 0.463311 0.000000
0.000000 0.525415 0.000000
0.000000 0.524727 0.000000
0.011065 0.524008 0.000000
0.041395 0.523259 0.000000
0.072890 0.522484 0.000000
0.105460 0.521685 0.000000
0.139016 0.520865 0.000000
0.173468 0.520025 0.000000
0.208727 0.519168 0.000000
0.244704 0.518296 0.000000
0.281310 0.517413 0.000000
0.318456 0.516519 0.000000
0.356052 0.515618 0.000000
0.394009 0.514712 0.000000
0.432238 0.513802 0.000000
0.470648 0.512892 0.000000
0.509152 0.511982 0.000000
0.547659 0.511076 0.000000
0.586079 0.510175 0.000000
0.624324 0.509282 0.000000
0.662303 0.508398 0.000000
0.699928 0.507525 0.000000
0.737109 0.506667 0.000000
0.773755 0.505823 0.000000
0.809777 0.504997 0.000000
0.845087 0.504190 0.000000
0.879593 0.503404 0.000000
0.913206 0.502641 0.000000
0.945836 0.501903 0.000000
0.977395 0.501191 0.000000
1.000000 0.500508 0.000000
1.000000 0.499855 0.000000
1.000000 0.499234 0.000000
0.000000 0.561055 0.000000
0.000000 0.560375 0.000000
0.009830 0.559664 0.000000
0.040170 0.558924 0.000000
0.071674 0.558158 0.000000
0.104253 0.557369 0.000000
0.137818 0.556558 0.000000
0.172280 0.555728 0.000000
0.207549 0.554881 0.000000
0.243537 0.554020 0.000000
0.280154 0.553147 0.000000
0.317310 0.552264 0.000000
0.354917 0.551374 0.000000
0.392885 0.550478 0.000000
0.431124 0.549580 0.000000
0.469546 0.548680 0.000000
0.508061 0.547782 0.000000
0.546578 0.546887 0.000000
0.585010 0.545997 0.000000
0.623266 0.545114 0.000000
0.661256 0.544242 0.000000
0.698892 0.543380 0.000000
0.736083 0.542532 0.000000
0.772740 0.541699 0.000000
0.808773 0.540883 0.000000
0.844092 0.540086 0.000000
0.878608 0.539310 0.000000
0.912231 0.538557 0.000000
0.944871 0.537828 0.000000
0.976438 0.537126 0.000000
1.000000 0.536451 0.000000
1.000000 0.535806 0.000000
1.000000 0.535193 0.000000
0.000000 0.596649 0.000000
0.000000 0.595977 0.000000
0.008635 0.595274 0.000000
0.038984 0.594543 0.000000
0.070497 0.593787 0.000000
0.103085 0.593006 0.000000
0.136660 0.592205 0.000000
0.171132 0.591385 0.000000
0.206412 0.590548 0.000000
0.242410 0.589698 0.000000
0.279037 0.588835 0.000000
0.316204 0.587963 0.000000
0.353822 0.587083 0.000000
0.391800 0.586199 0.000000
0.430051 0.585311 0.000000
0.468484 0.584423 0.000000
0.507009 0.583535 0.000000
0.545538 0.582651 0.000000
0.583981 0.581772 0.000000
0.622248 0.580901 0.000000
0.660249 0.580039 0.000000
0.697895 0.579188 0.000000
0.735097 0.578351 0.000000
0.771764 0.577528 0.000000
0.807808 0.576723 0.000000
0.843137 0.575936 0.000000
0.877663 0.575170 0.000000
0.911295 0.574426 0.000000
0.943945 0.573707 0.000000
0.975521 0.573014 0.000000
1.000000 0.572348 0.000000
1.000000 0.571711 0.000000
1.000000 0.571106 0.000000
0.000000 0.632115 0.000000
0.000000 0.631450 0.000000
0.007483 0.630756 0.000000
0.037840 0.630034 0.000000
0.069362 0.629286 0.000000
0.101960 0.628515 0.000000
0.135545 0.627723 0.000000
0.170026 0.626913 0.000000
0.205316 0.626086 0.000000
0.241324 0.625246 0.000000
0.277962 0.624394 0.000000
0.315140 0.623532 0.000000
0.352768 0.622664 0.000000
0.390758 0.621790 0.000000
0.429019 0.620913 0.000000
0.467463 0.620035 0.000000
0.506000 0.619159 0.000000
0.544539 0.618286 0.000000
0.582993 0.617418 0.000000
0.621271 0.616558 0.000000
0.659283 0.615707 0.000000
0.696940 0.614867 0.000000
0.734152 0.614040 0.000000
0.770830 0.613228 0.000000
0.806884 0.612433 0.000000
0.842223 0.611656 0.000000
0.876759 0.610900 0.000000
0.910401 0.610166 0.000000
0.943060 0.609456 0.000000
0.974645 0.608771 0.000000
1.000000 0.608114 0.000000
1.000000 0.607486 0.000000
1.000000 0.606888 0.000000
0.000000 0.667367 0.000000
0.000000 0.666711 0.000000
0.006376 0.666025 0.000000
0.036741 0.665311 0.000000
0.068272 0.664572 0.000000
0.100879 0.663810 0.000000
0.134473 0.663028 0.000000
0.168965 0.662228 0.000000
0.204264 0.661411 0.000000
0.240283 0.660581 0.000000
0.276931 0.659739 0.000000
0.314119 0.658888 0.000000
0.351758 0.658030 0.000000
0.389759 0.657167 0.000000
0.428031 0.656301 0.000000
0.466486 0.655435 0.000000
0.505033 0.654569 0.000000
0.543584 0.653707 0.000000
0.582049 0.652850 0.000000
0.620337 0.652001 0.000000
0.658360 0.651160 0.000000
0.696028 0.650331 0.000000
0.733251 0.649515 0.000000
0.769939 0.648713 0.000000
0.806003 0.647928 0.000000
0.841352 0.647161 0.000000
0.875898 0.646415 0.000000
0.909549 0.645690 0.000000
0.942217 0.644990 0.000000
0.973812 0.644314 0.000000
1.000000 0.643665 0.000000
1.000000 0.643046 0.000000
1.000000 0.642456 0.000000
0.000000 0.702323 0.000000
0.000000 0.701675 0.000000
0.005314 0.700997 0.000000
0.035688 0.700292 0.000000
0.067228 0.699562 0.000000
0.099844 0.698809 0.000000
0.133448 0.698036 0.000000
0.167949 0.697245 0.000000
0.203259 0.696439 0.000000
0.239287 0.695619 0.000000
0.275946 0.694787 0.000000
0.313144 0.693947 0.000000
0.350794 0.693099 0.000000
0.388805 0.692247 0.000000
0.427088 0.691392 0.000000
0.465554 0.690536 0.000000
0.504112 0.689681 0.000000
0.542673 0.688830 0.000000
0.581149 0.687984 0.000000
0.619448 0.687145 0.000000
0.657482 0.686315 0.000000
0.695160 0.685497 0.000000
0.732393 0.684691 0.000000
0.769092 0.683899 0.000000
0.805166 0.683125 0.000000
0.840525 0.682368 0.000000
0.875080 0.681631 0.000000
0.908742 0.680916 0.000000
0.941419 0.680224 0.000000
0.973022 0.679558 0.000000
1.000000 0.678918 0.000000
1.000000 0.678306 0.000000
1.000000 0.677724 0.000000
0.000000 0.736899 0.000000
0.000000 0.736258 0.000000
0.004300 0.735588 0.000000
0.034683 0.734891 0.000000
0.066232 0.734170 0.000000
0.098857 0.733426 0.000000
0.132469 0.732663 0.000000
0.166980 0.731882 0.000000
0.202300 0.731085 0.000000
0.238338 0.730275 0.000000
0.275007 0.729454 0.000000
0.312216 0.728623 0.000000
0.349876 0.727786 0.000000
0.387898 0.726944 0.000000
0.426191 0.726100 0.000000
0.464667 0.725255 0.000000
0.503236 0.724411 0.000000
0.541809 0.723570 0.000000
0.580295 0.722735 0.000000
0.618604 0.721907 0.000000
0.656649 0.721087 0.000000
0.694338 0.720279 0.000000
0.731581 0.719483 0.000000
0.768290 0.718702 0.000000
0.804374 0.717937 0.000000
0.839743 0.717191 0.000000
0.874308 0.716463 0.000000
0.907978 0.715758 0.000000
0.940664 0.715075 0.000000
0.972276 0.714417 0.000000
1.000000 0.713786 0.000000
1.000000 0.713182 0.000000
1.000000 0.712608 0.000000
0.000000 0.771008 0.000000
0.000000 0.770375 0.000000
0.003335 0.769713 0.000000
0.033726 0.769025 0.000000
0.065283 0.768312 0.000000
0.097917 0.767577 0.000000
0.131539 0.766823 0.000000
0.166059 0.766051 0.000000
0.201388 0.765264 0.000000
0.237437 0.764464 0.000000
0.274116 0.763653 0.000000
0.311335 0.762833 0.000000
0.349005 0.762006 0.000000
0.387037 0.761175 0.000000
0.425341 0.760341 0.000000
0.463828 0.759506 0.000000
0.502407 0.758673 0.000000
0.540990 0.757843 0.000000
0.579487 0.757018 0.000000
0.617807 0.756200 0.000000
0.655862 0.755391 0.000000
0.693561 0.754593 0.000000
0.730815 0.753808 0.000000
0.767533 0.753036 0.000000
0.803627 0.752281 0.000000
0.839006 0.751544 0.000000
0.873580 0.750827 0.000000
0.907260 0.750130 0.000000
0.939955 0.749456 0.000000
0.971575 0.748807 0.000000
1.000000 0.748184 0.000000
1.000000 0.747588 0.000000
1.000000 0.747022 0.000000
0.000000 0.804568 0.000000
0.000000 0.803942 0.000000
0.002419 0.803288 0.000000
0.032818 0.802608 0.000000
0.064384 0.801903 0.000000
0.097027 0.801178 0.000000
0.130658 0.800432 0.000000
0.165187 0.799670 0.000000
0.200526 0.798892 0.000000
0.236584 0.798102 0.000000
0.273272 0.797300 0.000000
0.310502 0.796490 0.000000
0.348182 0.795674 0.000000
0.386224 0.794853 0.000000
0.424539 0.794029 0.000000
0.463036 0.793204 0.000000
0.501626 0.792381 0.000000
0.540219 0.791562 0.000000
0.578725 0.790747 0.000000
0.617056 0.789940 0.000000
0.655121 0.789141 0.000000
0.692830 0.788353 0.000000
0.730094 0.787578 0.000000
0.766823 0.786816 0.000000
0.802926 0.786071 0.000000
0.838314 0.785343 0.000000
0.872898 0.784635 0.000000
0.906587 0.783947 0.000000
0.939290 0.783282 0.000000
0.970919 0.782642 0.000000
1.000000 0.782027 0.000000
1.000000 0.781439 0.000000
1.000000 0.780880 0.000000
0.000000 0.837492 0.000000
0.000000 0.836873 0.000000
0.001553 0.836227 0.000000
0.031960 0.835554 0.000000
0.063534 0.834859 0.000000
0.096186 0.834141 0.000000
0.129825 0.833405 0.000000
0.164364 0.832651 0.000000
0.199712 0.831883 0.000000
0.235779 0.831102 0.000000
0.272478 0.830310 0.000000
0.309717 0.829510 0.000000
0.347407 0.828704 0.000000
0.385459 0.827892 0.000000
0.423784 0.827079 0.000000
0.462291 0.826264 0.000000
0.500891 0.825452 0.000000
0.539494 0.824642 0.000000
0.578011 0.823838 0.000000
0.616352 0.823040 0.000000
0.654427 0.822252 0.000000
0.692146 0.821474 0.000000
0.729419 0.820708 0.000000
0.766158 0.819956 0.000000
0.802271 0.819221 0.000000
0.837668 0.818502 0.000000
0.872261 0.817803 0.000000
0.905958 0.817124 0.000000
0.938671 0.816468 0.000000
0.970308 0.815835 0.000000
1.000000 0.815228 0.000000
1.000000 0.814648 0.000000
1.000000 0.814096 0.000000
0.000000 0.869694 0.000000
0.000000 0.869083 0.000000
0.000737 0.868444 0.000000
0.031152 0.867780 0.000000
0.062734 0.867092 0.000000
0.095394 0.866383 0.000000
0.129042 0.865655 0.000000
0.163590 0.864911 0.000000
0.198947 0.864151 0.000000
0.235024 0.863380 0.000000
0.271731 0.862598 0.000000
0.308980 0.861807 0.000000
0.346680 0.861010 0.000000
0.384742 0.860208 0.000000
0.423076 0.859405 0.000000
0.461593 0.858600 0.000000
0.500203 0.857797 0.000000
0.538816 0.856998 0.000000
0.577343 0.856203 0.000000
0.615694 0.855416 0.000000
0.653778 0.854637 0.000000
0.691507 0.853869 0.000000
0.728790 0.853112 0.000000
0.765538 0.852370 0.000000
0.801660 0.851644 0.000000
0.837067 0.850934 0.000000
0.871669 0.850244 0.000000
