public/luts/vibrant.cube
TITLE "OneMoment vibrant"
LUT_3D_SIZE 33
DOMAIN_MIN 0.0 0.0 0.0
DOMAIN_MAX 1.0 1.0 1.0
0.000000 0.000000 0.000000
0.028006 0.000000 0.000000
0.057688 0.000000 0.000000
0.088933 0.000000 0.000000
0.121631 0.000000 0.000000
0.155669 0.000000 0.000000
0.190936 0.000000 0.000000
0.227320 0.000000 0.000000
0.264710 0.000000 0.000000
0.302993 0.000000 0.000000
0.342058 0.000000 0.000000
0.381793 0.000000 0.000000
0.422087 0.000000 0.000000
0.462828 0.000000 0.000000
0.503904 0.000000 0.000000
0.545203 0.000000 0.000000
0.586614 0.000000 0.000000
0.628025 0.000000 0.000000
0.669324 0.000000 0.000000
0.710400 0.000000 0.000000
0.751141 0.000000 0.000000
0.791435 0.000000 0.000000
0.831170 0.000000 0.000000
0.870235 0.000000 0.000000
0.908518 0.000000 0.000000
0.945908 0.000000 0.000000
0.982292 0.000000 0.000000
1.000000 0.000000 0.000000
1.000000 0.000000 0.000000
1.000000 0.000000 0.000000
1.000000 0.000000 0.000000
1.000000 0.000000 0.000000
1.000000 0.000000 0.000000
0.000000 0.025367 0.000000
0.024250 0.024250 0.000000
0.053932 0.023067 0.000000
0.085177 0.021821 0.000000
0.117875 0.020518 0.000000
0.151913 0.019161 0.000000
0.187180 0.017755 0.000000
0.223564 0.016304 0.000000
0.260954 0.014814 0.000000
0.299237 0.013287 0.000000
0.338302 0.011730 0.000000
0.378037 0.010146 0.000000
0.418331 0.008540 0.000000
0.459072 0.006915 0.000000
0.500148 0.005278 0.000000
0.541447 0.003631 0.000000
0.582858 0.001981 0.000000
0.624269 0.000330 0.000000
0.665568 0.000000 0.000000
0.706644 0.000000 0.000000
0.747385 0.000000 0.000000
0.787679 0.000000 0.000000
0.827414 0.000000 0.000000
0.866479 0.000000 0.000000
0.904762 0.000000 0.000000
0.942152 0.000000 0.000000
0.978536 0.000000 0.000000
1.000000 0.000000 0.000000
1.000000 0.000000 0.000000
1.000000 0.000000 0.000000
1.000000 0.000000 0.000000
1.000000 0.000000 0.000000
1.000000 0.000000 0.000000
0.000000 0.052251 0.000000
0.020269 0.051134 0.000000
0.049951 0.049951 0.000000
0.081196 0.048705 0.000000
0.113894 0.047402 0.000000
0.147932 0.046045 0.000000
0.183199 0.044639 0.000000
0.219583 0.043188 0.000000
0.256973 0.041698 0.000000
0.295256 0.040172 0.000000
0.334321 0.038614 0.000000
0.374057 0.037030 0.000000
0.414351 0.035424 0.000000
0.455091 0.033800 0.000000
0.496167 0.032162 0.000000
0.537466 0.030516 0.000000
0.578877 0.028865 0.000000
0.620288 0.027214 0.000000
0.661588 0.025567 0.000000
0.702664 0.023930 0.000000
0.743404 0.022306 0.000000
0.783698 0.020699 0.000000
0.823434 0.019115 0.000000
0.862499 0.017558 0.000000
0.900782 0.016032 0.000000
0.938171 0.014541 0.000000
0.974555 0.013091 0.000000
1.000000 0.011685 0.000000
1.000000 0.010328 0.000000
1.000000 0.009024 0.000000
1.000000 0.007778 0.000000
1.000000 0.006595 0.000000
1.000000 0.005479 0.000000
0.000000 0.080551 0.000000
0.016079 0.079435 0.000000
0.045761 0.078252 0.000000
0.077006 0.077006 0.000000
0.109704 0.075703 0.000000
0.143742 0.074346 0.000000
0.179009 0.072940 0.000000
0.215393 0.071489 0.000000
0.252783 0.069999 0.000000
0.291066 0.068472 0.000000
0.330131 0.066915 0.000000
0.369866 0.065331 0.000000
0.410160 0.063724 0.000000
0.450901 0.062100 0.000000
0.491977 0.060463 0.000000
0.533276 0.058816 0.000000
0.574687 0.057165 0.000000
0.616098 0.055515 0.000000
0.657397 0.053868 0.000000
0.698473 0.052231 0.000000
0.739214 0.050606 0.000000
0.779508 0.049000 0.000000
0.819243 0.047416 0.000000
0.858308 0.045859 0.000000
0.896591 0.044332 0.000000
0.933981 0.042842 0.000000
0.970365 0.041391 0.000000
1.000000 0.039985 0.000000
1.000000 0.038628 0.000000
1.000000 0.037325 0.000000
1.000000 0.036079 0.000000
1.000000 0.034896 0.000000
1.000000 0.033779 0.000000
0.000000 0.110168 0.000000
0.011694 0.109051 0.000000
0.041375 0.107868 0.000000
0.072621 0.106622 0.000000
0.105319 0.105319 0.000000
0.139357 0.103962 0.000000
0.174624 0.102556 0.000000
0.211008 0.101105 0.000000
0.248397 0.099615 0.000000
0.286681 0.098088 0.000000
0.325746 0.096531 0.000000
0.365481 0.094947 0.000000
0.405775 0.093341 0.000000
0.446516 0.091716 0.000000
0.487592 0.090079 0.000000
0.528891 0.088432 0.000000
0.570302 0.086782 0.000000
0.611713 0.085131 0.000000
0.653012 0.083484 0.000000
0.694088 0.081847 0.000000
0.734829 0.080222 0.000000
0.775123 0.078616 0.000000
0.814858 0.077032 0.000000
0.853923 0.075475 0.000000
0.892206 0.073948 0.000000
0.929596 0.072458 0.000000
0.965980 0.071007 0.000000
1.000000 0.069601 0.000000
1.000000 0.068244 0.000000
1.000000 0.066941 0.000000
1.000000 0.065695 0.000000
1.000000 0.064512 0.000000
1.000000 0.063396 0.000000
0.000000 0.140998 0.000000
0.007129 0.139881 0.000000
0.036810 0.138698 0.000000
0.068056 0.137452 0.000000
0.100754 0.136149 0.000000
0.134792 0.134792 0.000000
0.170059 0.133386 0.000000
0.206443 0.131935 0.000000
0.243832 0.130445 0.000000
0.282116 0.128919 0.000000
0.321181 0.127361 0.000000
0.360916 0.125777 0.000000
0.401210 0.124171 0.000000
0.441951 0.122547 0.000000
0.483027 0.120909 0.000000
0.524326 0.119263 0.000000
0.565737 0.117612 0.000000
0.607148 0.115961 0.000000
0.648447 0.114314 0.000000
0.689523 0.112677 0.000000
0.730264 0.111053 0.000000
0.770558 0.109446 0.000000
0.810293 0.107862 0.000000
0.849358 0.106305 0.000000
0.887641 0.104779 0.000000
0.925031 0.103288 0.000000
0.961415 0.101838 0.000000
0.996682 0.100432 0.000000
1.000000 0.099075 0.000000
1.000000 0.097771 0.000000
1.000000 0.096526 0.000000
1.000000 0.095342 0.000000
1.000000 0.094226 0.000000
0.000000 0.172941 0.000000
0.002399 0.171825 0.000000
0.032081 0.170641 0.000000
0.063326 0.169396 0.000000
0.096024 0.168092 0.000000
0.130062 0.166735 0.000000
0.165329 0.165329 0.000000
0.201713 0.163879 0.000000
0.239103 0.162388 0.000000
0.277386 0.160862 0.000000
0.316451 0.159305 0.000000
0.356186 0.157720 0.000000
0.396480 0.156114 0.000000
0.437221 0.154490 0.000000
0.478297 0.152852 0.000000
0.519596 0.151206 0.000000
0.561007 0.149555 0.000000
0.602418 0.147904 0.000000
0.643717 0.146258 0.000000
0.684793 0.144620 0.000000
0.725534 0.142996 0.000000
0.765828 0.141390 0.000000
0.805563 0.139806 0.000000
0.844628 0.138248 0.000000
0.882912 0.136722 0.000000
0.920301 0.135231 0.000000
0.956685 0.133781 0.000000
0.991952 0.132375 0.000000
1.000000 0.131018 0.000000
1.000000 0.129714 0.000000
1.000000 0.128469 0.000000
1.000000 0.127286 0.000000
1.000000 0.126169 0.000000
0.000000 0.205896 0.000000
0.000000 0.204780 0.000000
0.027201 0.203596 0.000000
0.058447 0.202351 0.000000
0.091144 0.201047 0.000000
0.125183 0.199690 0.000000
0.160450 0.198284 0.000000
0.196834 0.196834 0.000000
0.234223 0.195343 0.000000
0.272506 0.193817 0.000000
0.311571 0.192260 0.000000
0.351307 0.190675 0.000000
0.391601 0.189069 0.000000
0.432341 0.187445 0.000000
0.473417 0.185807 0.000000
0.514717 0.184161 0.000000
0.556128 0.182510 0.000000
0.597539 0.180859 0.000000
0.638838 0.179213 0.000000
0.679914 0.177575 0.000000
0.720655 0.175951 0.000000
0.760948 0.174345 0.000000
0.800684 0.172761 0.000000
0.839749 0.171203 0.000000
0.878032 0.169677 0.000000
0.915422 0.168186 0.000000
0.951806 0.166736 0.000000
0.987073 0.165330 0.000000
1.000000 0.163973 0.000000
1.000000 0.162669 0.000000
1.000000 0.161424 0.000000
1.000000 0.160241 0.000000
1.000000 0.159124 0.000000
0.000000 0.239762 0.000000
0.000000 0.238645 0.000000
0.022187 0.237462 0.000000
0.053432 0.236216 0.000000
0.086130 0.234913 0.000000
0.120168 0.233556 0.000000
0.155435 0.232150 0.000000
0.191819 0.230699 0.000000
0.229209 0.229209 0.000000
0.267492 0.227683 0.000000
0.306557 0.226125 0.000000
0.346292 0.224541 0.000000
0.386586 0.222935 0.000000
0.427327 0.221311 0.000000
0.468403 0.219673 0.000000
0.509702 0.218027 0.000000
0.551113 0.216376 0.000000
0.592524 0.214725 0.000000
0.633824 0.213078 0.000000
0.674899 0.211441 0.000000
0.715640 0.209817 0.000000
0.755934 0.208210 0.000000
0.795669 0.206626 0.000000
0.834735 0.205069 0.000000
0.873018 0.203543 0.000000
0.910407 0.202052 0.000000
0.946791 0.200602 0.000000
0.982058 0.199196 0.000000
1.000000 0.197839 0.000000
1.000000 0.196535 0.000000
1.000000 0.195290 0.000000
1.000000 0.194106 0.000000
1.000000 0.192990 0.000000
0.000000 0.274437 0.000000
0.000000 0.273320 0.000000
0.017053 0.272137 0.000000
0.048298 0.270891 0.000000
0.080996 0.269588 0.000000
0.115034 0.268231 0.000000
0.150301 0.266825 0.000000
0.186685 0.265375 0.000000
0.224075 0.263884 0.000000
0.262358 0.262358 0.000000
0.301423 0.260800 0.000000
0.341158 0.259216 0.000000
0.381452 0.257610 0.000000
0.422193 0.255986 0.000000
0.463269 0.254348 0.000000
0.504568 0.252702 0.000000
0.545979 0.251051 0.000000
0.587390 0.249400 0.000000
0.628689 0.247754 0.000000
0.669765 0.246116 0.000000
0.710506 0.244492 0.000000
0.750800 0.242885 0.000000
0.790535 0.241301 0.000000
0.829600 0.239744 0.000000
0.867883 0.238218 0.000000
0.905273 0.236727 0.000000
0.941657 0.235277 0.000000
0.976924 0.233871 0.000000
1.000000 0.232514 0.000000
1.000000 0.231210 0.000000
1.000000 0.229965 0.000000
1.000000 0.228781 0.000000
1.000000 0.227665 0.000000
0.000000 0.309820 0.000000
0.000000 0.308704 0.000000
0.011813 0.307520 0.000000
0.043059 0.306275 0.000000
0.075757 0.304971 0.000000
0.109795 0.303614 0.000000
0.145062 0.302208 0.000000
0.181446 0.300758 0.000000
0.218835 0.299267 0.000000
0.257119 0.297741 0.000000
0.296184 0.296184 0.000000
0.335919 0.294600 0.000000
0.376213 0.292993 0.000000
0.416954 0.291369 0.000000
0.458030 0.289732 0.000000
0.499329 0.288085 0.000000
0.540740 0.286434 0.000000
0.582151 0.284783 0.000000
0.623450 0.283137 0.000000
0.664526 0.281499 0.000000
0.705267 0.279875 0.000000
0.745561 0.278269 0.000000
0.785296 0.276685 0.000000
0.824361 0.275127 0.000000
0.862644 0.273601 0.000000
0.900034 0.272111 0.000000
0.936418 0.270660 0.000000
0.971685 0.269254 0.000000
1.000000 0.267897 0.000000
1.000000 0.266594 0.000000
1.000000 0.265348 0.000000
1.000000 0.264165 0.000000
1.000000 0.263048 0.000000
0.000000 0.345811 0.000000
0.000000 0.344694 0.000000
0.006484 0.343511 0.000000
0.037730 0.342265 0.000000
0.070428 0.340962 0.000000
0.104466 0.339605 0.000000
0.139733 0.338199 0.000000
0.176117 0.336748 0.000000
0.213507 0.335258 0.000000
0.251790 0.333732 0.000000
0.290855 0.332174 0.000000
0.330590 0.330590 0.000000
0.370884 0.328984 0.000000
0.411625 0.327360 0.000000
0.452701 0.325722 0.000000
0.494000 0.324076 0.000000
0.535411 0.322425 0.000000
0.576822 0.320774 0.000000
0.618121 0.319127 0.000000
0.659197 0.317490 0.000000
0.699938 0.315866 0.000000
0.740232 0.314259 0.000000
0.779967 0.312675 0.000000
0.819032 0.311118 0.000000
0.857315 0.309592 0.000000
0.894705 0.308101 0.000000
0.931089 0.306651 0.000000
0.966356 0.305245 0.000000
1.000000 0.303888 0.000000
1.000000 0.302584 0.000000
1.000000 0.301339 0.000000
1.000000 0.300155 0.000000
1.000000 0.299039 0.000000
0.000000 0.382307 0.000000
0.000000 0.381191 0.000000
0.001081 0.380007 0.000000
0.032326 0.378762 0.000000
0.065024 0.377458 0.000000
0.099062 0.376101 0.000000
0.134329 0.374695 0.000000
0.170713 0.373245 0.000000
0.208103 0.371754 0.000000
0.246386 0.370228 0.000000
0.285451 0.368671 0.000000
0.325186 0.367087 0.000000
0.365480 0.365480 0.000000
0.406221 0.363856 0.000000
0.447297 0.362218 0.000000
0.488596 0.360572 0.000000
0.530007 0.358921 0.000000
0.571418 0.357270 0.000000
0.612717 0.355624 0.000000
0.653793 0.353986 0.000000
0.694534 0.352362 0.000000
0.734828 0.350756 0.000000
0.774563 0.349172 0.000000
0.813628 0.347614 0.000000
0.851911 0.346088 0.000000
0.889301 0.344597 0.000000
0.925685 0.343147 0.000000
0.960952 0.341741 0.000000
0.994990 0.340384 0.000000
1.000000 0.339081 0.000000
1.000000 0.337835 0.000000
1.000000 0.336652 0.000000
1.000000 0.335535 0.000000
0.000000 0.419208 0.000000
0.000000 0.418092 0.000000
0.000000 0.416908 0.000000
0.026862 0.415663 0.000000
0.059560 0.414359 0.000000
0.093598 0.413002 0.000000
0.128865 0.411596 0.000000
0.165249 0.410146 0.000000
0.202639 0.408655 0.000000
0.240922 0.407129 0.000000
0.279987 0.405572 0.000000
0.319722 0.403988 0.000000
0.360016 0.402381 0.000000
0.400757 0.400757 0.000000
0.441833 0.399120 0.000000
0.483132 0.397473 0.000000
0.524543 0.395822 0.000000
0.565954 0.394171 0.000000
0.607253 0.392525 0.000000
0.648329 0.390887 0.000000
0.689070 0.389263 0.000000
0.729364 0.387657 0.000000
0.769099 0.386073 0.000000
0.808164 0.384515 0.000000
0.846448 0.382989 0.000000
0.883837 0.381499 0.000000
0.920221 0.380048 0.000000
0.955488 0.378642 0.000000
0.989526 0.377285 0.000000
1.000000 0.375982 0.000000
1.000000 0.374736 0.000000
1.000000 0.373553 0.000000
1.000000 0.372436 0.000000
0.000000 0.456413 0.000000
0.000000 0.455296 0.000000
0.000000 0.454113 0.000000
0.021353 0.452867 0.000000
0.054051 0.451564 0.000000
0.088089 0.450207 0.000000
0.123356 0.448801 0.000000
0.159741 0.447350 0.000000
0.197130 0.445860 0.000000
0.235413 0.444334 0.000000
0.274478 0.442776 0.000000
0.314214 0.441192 0.000000
0.354508 0.439586 0.000000
0.395248 0.437962 0.000000
0.436324 0.436324 0.000000
0.477623 0.434678 0.000000
0.519034 0.433027 0.000000
0.560445 0.431376 0.000000
0.601745 0.429729 0.000000
0.642821 0.428092 0.000000
0.683561 0.426468 0.000000
0.723855 0.424861 0.000000
0.763591 0.423277 0.000000
0.802656 0.421720 0.000000
0.840939 0.420194 0.000000
0.878328 0.418703 0.000000
0.914712 0.417253 0.000000
0.949979 0.415847 0.000000
0.984018 0.414490 0.000000
1.000000 0.413186 0.000000
1.000000 0.411941 0.000000
1.000000 0.410757 0.000000
1.000000 0.409641 0.000000
0.000000 0.493820 0.000000
0.000000 0.492703 0.000000
0.000000 0.491520 0.000000
0.015815 0.490274 0.000000
0.048512 0.488971 0.000000
0.082551 0.487614 0.000000
0.117818 0.486208 0.000000
0.154202 0.484757 0.000000
0.191591 0.483267 0.000000
0.229874 0.481741 0.000000
0.268940 0.480183 0.000000
0.308675 0.478599 0.000000
0.348969 0.476993 0.000000
0.389710 0.475369 0.000000
0.430785 0.473731 0.000000
0.472085 0.472085 0.000000
0.513496 0.470434 0.000000
0.554907 0.468783 0.000000
0.596206 0.467136 0.000000
0.637282 0.465499 0.000000
0.678023 0.463875 0.000000
0.718317 0.462268 0.000000
0.758052 0.460684 0.000000
0.797117 0.459127 0.000000
0.835400 0.457601 0.000000
0.872790 0.456110 0.000000
0.909174 0.454660 0.000000
0.944441 0.453254 0.000000
0.978479 0.451897 0.000000
1.000000 0.450593 0.000000
1.000000 0.449348 0.000000
1.000000 0.448164 0.000000
1.000000 0.447048 0.000000
0.000000 0.531328 0.000000
0.000000 0.530212 0.000000
0.000000 0.529028 0.000000
0.010261 0.527783 0.000000
0.042959 0.526479 0.000000
0.076997 0.525122 0.000000
0.112264 0.523716 0.000000
0.148648 0.522266 0.000000
0.186038 0.520775 0.000000
0.224321 0.519249 0.000000
0.263386 0.517691 0.000000
0.303121 0.516107 0.000000
0.343415 0.514501 0.000000
0.384156 0.512877 0.000000
0.425232 0.511239 0.000000
0.466531 0.509593 0.000000
0.507942 0.507942 0.000000
0.549353 0.506291 0.000000
0.590652 0.504645 0.000000
0.631728 0.503007 0.000000
0.672469 0.501383 0.000000
0.712763 0.499777 0.000000
0.752498 0.498193 0.000000
0.791563 0.496635 0.000000
0.829846 0.495109 0.000000
0.867236 0.493618 0.000000
0.903620 0.492168 0.000000
0.938887 0.490762 0.000000
0.972925 0.489405 0.000000
1.000000 0.488101 0.000000
1.000000 0.486856 0.000000
1.000000 0.485672 0.000000
1.000000 0.484556 0.000000
0.000000 0.568836 0.000000
0.000000 0.567720 0.000000
0.000000 0.566536 0.000000
0.004707 0.565291 0.000000
0.037405 0.563987 0.000000
0.071443 0.562630 0.000000
0.106710 0.561224 0.000000
0.143094 0.559774 0.000000
0.180484 0.558283 0.000000
0.218767 0.556757 0.000000
0.257832 0.555200 0.000000
0.297567 0.553616 0.000000
0.337861 0.552009 0.000000
0.378602 0.550385 0.000000
0.419678 0.548748 0.000000
0.460977 0.547101 0.000000
0.502388 0.545450 0.000000
0.543799 0.543799 0.000000
0.585099 0.542153 0.000000
0.626174 0.540515 0.000000
0.666915 0.538891 0.000000
0.707209 0.537285 0.000000
0.746944 0.535701 0.000000
0.786010 0.534143 0.000000
0.824293 0.532617 0.000000
0.861682 0.531127 0.000000
0.898066 0.529676 0.000000
0.933333 0.528270 0.000000
0.967372 0.526913 0.000000
1.000000 0.525610 0.000000
1.000000 0.524364 0.000000
1.000000 0.523181 0.000000
1.000000 0.522064 0.000000
0.000000 0.606243 0.000000
0.000000 0.605127 0.000000
0.000000 0.603943 0.000000
0.000000 0.602698 0.000000
0.031866 0.601394 0.000000
0.065905 0.600037 0.000000
0.101172 0.598631 0.000000
0.137556 0.597181 0.000000
0.174945 0.595690 0.000000
0.213228 0.594164 0.000000
0.252293 0.592607 0.000000
0.292029 0.591023 0.000000
0.332323 0.589416 0.000000
0.373063 0.587792 0.000000
0.414139 0.586155 0.000000
0.455439 0.584508 0.000000
0.496850 0.582857 0.000000
0.538261 0.581206 0.000000
0.579560 0.579560 0.000000
0.620636 0.577922 0.000000
0.661376 0.576298 0.000000
0.701670 0.574692 0.000000
0.741406 0.573108 0.000000
0.780471 0.571550 0.000000
0.818754 0.570024 0.000000
0.856143 0.568534 0.000000
0.892528 0.567083 0.000000
0.927795 0.565677 0.000000
0.961833 0.564320 0.000000
0.994531 0.563017 0.000000
1.000000 0.561771 0.000000
1.000000 0.560588 0.000000
1.000000 0.559471 0.000000
0.000000 0.643448 0.000000
0.000000 0.642331 0.000000
0.000000 0.641148 0.000000
0.000000 0.639902 0.000000
0.026358 0.638599 0.000000
0.060396 0.637242 0.000000
0.095663 0.635836 0.000000
0.132047 0.634385 0.000000
0.169436 0.632895 0.000000
0.207720 0.631369 0.000000
0.246785 0.629811 0.000000
0.286520 0.628227 0.000000
0.326814 0.626621 0.000000
0.367555 0.624997 0.000000
0.408631 0.623359 0.000000
0.449930 0.621713 0.000000
0.491341 0.620062 0.000000
0.532752 0.618411 0.000000
0.574051 0.616764 0.000000
0.615127 0.615127 0.000000
0.655868 0.613503 0.000000
0.696162 0.611896 0.000000
0.735897 0.610312 0.000000
0.774962 0.608755 0.000000
0.813245 0.607229 0.000000
0.850635 0.605738 0.000000
0.887019 0.604288 0.000000
0.922286 0.602882 0.000000
0.956324 0.601525 0.000000
0.989022 0.600221 0.000000
1.000000 0.598976 0.000000
1.000000 0.597792 0.000000
1.000000 0.596676 0.000000
0.000000 0.680349 0.000000
0.000000 0.679232 0.000000
0.000000 0.678049 0.000000
0.000000 0.676803 0.000000
0.020894 0.675500 0.000000
0.054932 0.674143 0.000000
0.090199 0.672737 0.000000
0.126583 0.671287 0.000000
0.163973 0.669796 0.000000
0.202256 0.668270 0.000000
0.241321 0.666712 0.000000
0.281056 0.665128 0.000000
0.321350 0.663522 0.000000
0.362091 0.661898 0.000000
0.403167 0.660260 0.000000
0.444466 0.658614 0.000000
0.485877 0.656963 0.000000
0.527288 0.655312 0.000000
0.568587 0.653666 0.000000
0.609663 0.652028 0.000000
0.650404 0.650404 0.000000
0.690698 0.648797 0.000000
0.730433 0.647213 0.000000
0.769498 0.645656 0.000000
0.807781 0.644130 0.000000
0.845171 0.642639 0.000000
0.881555 0.641189 0.000000
0.916822 0.639783 0.000000
0.950860 0.638426 0.000000
0.983558 0.637122 0.000000
1.000000 0.635877 0.000000
1.000000 0.634693 0.000000
1.000000 0.633577 0.000000
0.000000 0.716845 0.000000
0.000000 0.715729 0.000000
0.000000 0.714545 0.000000
0.000000 0.713300 0.000000
0.015490 0.711996 0.000000
0.049528 0.710639 0.000000
0.084795 0.709233 0.000000
0.121179 0.707783 0.000000
0.158569 0.706292 0.000000
0.196852 0.704766 0.000000
0.235917 0.703209 0.000000
0.275652 0.701625 0.000000
0.315946 0.700018 0.000000
0.356687 0.698394 0.000000
0.397763 0.696757 0.000000
0.439062 0.695110 0.000000
0.480473 0.693459 0.000000
0.521884 0.691808 0.000000
0.563183 0.690162 0.000000
0.604259 0.688524 0.000000
0.645000 0.686900 0.000000
0.685294 0.685294 0.000000
0.725029 0.683710 0.000000
0.764094 0.682152 0.000000
0.802377 0.680626 0.000000
0.839767 0.679136 0.000000
0.876151 0.677685 0.000000
0.911418 0.676279 0.000000
0.945456 0.674922 0.000000
0.978154 0.673619 0.000000
1.000000 0.672373 0.000000
1.000000 0.671190 0.000000
1.000000 0.670073 0.000000
0.000000 0.752836 0.000000
0.000000 0.751719 0.000000
0.000000 0.750536 0.000000
0.000000 0.749290 0.000000
0.010161 0.747987 0.000000
0.044199 0.746630 0.000000
0.079466 0.745224 0.000000
0.115850 0.743773 0.000000
0.153240 0.742283 0.000000
0.191523 0.740757 0.000000
0.230588 0.739199 0.000000
0.270323 0.737615 0.000000
0.310617 0.736009 0.000000
0.351358 0.734385 0.000000
0.392434 0.732747 0.000000
0.433733 0.731101 0.000000
0.475144 0.729450 0.000000
0.516555 0.727799 0.000000
0.557854 0.726152 0.000000
0.598930 0.724515 0.000000
0.639671 0.722891 0.000000
0.679965 0.721284 0.000000
0.719700 0.719700 0.000000
0.758765 0.718143 0.000000
0.797049 0.716617 0.000000
0.834438 0.715126 0.000000
0.870822 0.713676 0.000000
0.906089 0.712270 0.000000
0.940127 0.710913 0.000000
0.972825 0.709609 0.000000
1.000000 0.708364 0.000000
1.000000 0.707180 0.000000
1.000000 0.706064 0.000000
0.000000 0.788219 0.000000
0.000000 0.787103 0.000000
0.000000 0.785919 0.000000
0.000000 0.784674 0.000000
0.004922 0.783370 0.000000
0.038960 0.782013 0.000000
0.074227 0.780607 0.000000
0.110611 0.779157 0.000000
0.148001 0.777666 0.000000
0.186284 0.776140 0.000000
0.225349 0.774583 0.000000
0.265084 0.772999 0.000000
0.305378 0.771392 0.000000
0.346119 0.769768 0.000000
0.387195 0.768130 0.000000
0.428494 0.766484 0.000000
0.469905 0.764833 0.000000
0.511316 0.763182 0.000000
0.552615 0.761536 0.000000
0.593691 0.759898 0.000000
0.634432 0.758274 0.000000
0.674726 0.756668 0.000000
0.714461 0.755084 0.000000
0.753526 0.753526 0.000000
0.791809 0.752000 0.000000
0.829199 0.750509 0.000000
0.865583 0.749059 0.000000
0.900850 0.747653 0.000000
0.934888 0.746296 0.000000
0.967586 0.744993 0.000000
0.998831 0.743747 0.000000
1.000000 0.742564 0.000000
1.000000 0.741447 0.000000
0.000000 0.822894 0.000000
0.000000 0.821778 0.000000
0.000000 0.820594 0.000000
0.000000 0.819349 0.000000
0.000000 0.818045 0.000000
0.033826 0.816688 0.000000
0.069093 0.815282 0.000000
0.105477 0.813832 0.000000
0.142866 0.812341 0.000000
0.181149 0.810815 0.000000
0.220215 0.809258 0.000000
0.259950 0.807674 0.000000
0.300244 0.806067 0.000000
0.340985 0.804443 0.000000
0.382060 0.802806 0.000000
0.423360 0.801159 0.000000
0.464771 0.799508 0.000000
0.506182 0.797857 0.000000
0.547481 0.796211 0.000000
0.588557 0.794573 0.000000
0.629298 0.792949 0.000000
0.669592 0.791343 0.000000
0.709327 0.789759 0.000000
0.748392 0.788201 0.000000
0.786675 0.786675 0.000000
0.824065 0.785185 0.000000
0.860449 0.783734 0.000000
0.895716 0.782328 0.000000
0.929754 0.780971 0.000000
0.962452 0.779668 0.000000
0.993697 0.778422 0.000000
1.000000 0.777239 0.000000
1.000000 0.776122 0.000000
0.000000 0.856760 0.000000
0.000000 0.855643 0.000000
0.000000 0.854460 0.000000
0.000000 0.853215 0.000000
0.000000 0.851911 0.000000
0.028811 0.850554 0.000000
0.064078 0.849148 0.000000
0.100462 0.847698 0.000000
0.137852 0.846207 0.000000
0.176135 0.844681 0.000000
0.215200 0.843123 0.000000
0.254936 0.841539 0.000000
0.295229 0.839933 0.000000
0.335970 0.838309 0.000000
0.377046 0.836671 0.000000
0.418345 0.835025 0.000000
0.459756 0.833374 0.000000
0.501167 0.831723 0.000000
0.542467 0.830077 0.000000
0.583543 0.828439 0.000000
0.624283 0.826815 0.000000
0.664577 0.825209 0.000000
0.704313 0.823624 0.000000
0.743378 0.822067 0.000000
0.781661 0.820541 0.000000
0.819050 0.819050 0.000000
0.855434 0.817600 0.000000
0.890701 0.816194 0.000000
0.924740 0.814837 0.000000
0.957437 0.813533 0.000000
0.988683 0.812288 0.000000
1.000000 0.811104 0.000000
1.000000 0.809988 0.000000
0.000000 0.889715 0.000000
0.000000 0.888598 0.000000
0.000000 0.887415 0.000000
0.000000 0.886170 0.000000
0.000000 0.884866 0.000000
0.023932 0.883509 0.000000
0.059199 0.882103 0.000000
0.095583 0.880653 0.000000
0.132972 0.879162 0.000000
0.171256 0.877636 0.000000
0.210321 0.876078 0.000000
0.250056 0.874494 0.000000
0.290350 0.872888 0.000000
0.331091 0.871264 0.000000
0.372167 0.869626 0.000000
0.413466 0.867980 0.000000
0.454877 0.866329 0.000000
0.496288 0.864678 0.000000
0.537587 0.863032 0.000000
0.578663 0.861394 0.000000
0.619404 0.859770 0.000000
0.659698 0.858164 0.000000
0.699433 0.856579 0.000000
0.738498 0.855022 0.000000
0.776781 0.853496 0.000000
0.814171 0.852005 0.000000
0.850555 0.850555 0.000000
