public/luts/vibrant.cube
TITLE "OneMoment vibrant"
LUT_3D_SIZE 5
DOMAIN_MIN 0.0 0.0 0.0
DOMAIN_MAX 1.0 1.0 1.0
0.000000 0.000000 0.000000
0.264710 0.000000 0.000000
0.586614 0.000000 0.000000
0.908518 0.000000 0.000000
1.000000 0.000000 0.000000
0.000000 0.239762 0.000000
0.229209 0.229209 0.000000
0.551113 0.216376 0.000000
0.873018 0.203543 0.000000
1.000000 0.192990 0.000000
0.000000 0.531328 0.000000
0.186038 0.520775 0.000000
0.507942 0.507942 0.000000
0.829846 0.495109 0.000000
1.000000 0.484556 0.000000
0.000000 0.822894 0.000000
0.142866 0.812341 0.000000
0.464771 0.799508 0.000000
0.786675 0.786675 0.000000
1.000000 0.776122 0.000000
0.000000 1.000000 0.000000
0.107366 1.000000 0.000000
0.429270 1.000000 0.000000
0.751174 1.000000 0.000000
1.000000 1.000000 0.000000
0.000000 0.000000 0.271679
0.261126 0.000000 0.261126
0.583030 0.000000 0.248293
0.904935 0.000000 0.235460
1.000000 0.000000 0.224907
0.000000 0.236178 0.236178
0.225625 0.225625 0.225625
0.547529 0.212792 0.212792
0.869434 0.199959 0.199959
1.000000 0.189406 0.189406
0.000000 0.527744 0.193007
0.182454 0.517191 0.182454
0.504358 0.504358 0.169621
0.826263 0.491525 0.156788
1.000000 0.480972 0.146235
0.000000 0.819310 0.149835
0.139282 0.808757 0.139282
0.461187 0.795924 0.126449
0.783091 0.783091 0.113616
1.000000 0.772538 0.103063
0.000000 1.000000 0.114335
0.103782 1.000000 0.103782
0.425686 1.000000 0.090949
0.747591 1.000000 0.078116
1.000000 1.000000 0.067563
0.000000 0.000000 0.602058
0.256768 0.000000 0.591505
0.578672 0.000000 0.578672
0.900576 0.000000 0.565839
1.000000 0.000000 0.555286
0.000000 0.231820 0.566557
0.221267 0.221267 0.556004
0.543171 0.208434 0.543171
0.865076 0.195601 0.530338
1.000000 0.185048 0.519785
0.000000 0.523386 0.523386
0.178096 0.512833 0.512833
0.500000 0.500000 0.500000
0.821904 0.487167 0.487167
1.000000 0.476614 0.476614
0.000000 0.814952 0.480215
0.134924 0.804399 0.469662
0.456829 0.791566 0.456829
0.778733 0.778733 0.443996
1.000000 0.768180 0.433443
0.000000 1.000000 0.444714
0.099424 1.000000 0.434161
0.421328 1.000000 0.421328
0.743232 1.000000 0.408495
1.000000 1.000000 0.397942
0.000000 0.000000 0.932437
0.252409 0.000000 0.921884
0.574314 0.000000 0.909051
0.896218 0.000000 0.896218
1.000000 0.000000 0.885665
0.000000 0.227462 0.896937
0.216909 0.216909 0.886384
0.538813 0.204076 0.873551
0.860718 0.191243 0.860718
1.000000 0.180690 0.850165
0.000000 0.519028 0.853765
0.173737 0.508475 0.843212
0.495642 0.495642 0.830379
0.817546 0.482809 0.817546
1.000000 0.472256 0.806993
0.000000 0.810594 0.810594
0.130566 0.800041 0.800041
0.452471 0.787208 0.787208
0.774375 0.774375 0.774375
1.000000 0.763822 0.763822
0.000000 1.000000 0.775093
0.095065 1.000000 0.764540
0.416970 1.000000 0.751707
0.738874 1.000000 0.738874
1.000000 1.000000 0.728321
0.000000 0.000000 1.000000
0.248826 0.000000 1.000000
0.570730 0.000000 1.000000
0.892634 0.000000 1.000000
1.000000 0.000000 1.000000
0.000000 0.223878 1.000000
0.213325 0.213325 1.000000
0.535229 0.200492 1.000000
0.857134 0.187659 1.000000
1.000000 0.177106 1.000000
0.000000 0.515444 1.000000
0.170154 0.504891 1.000000
0.492058 0.492058 1.000000
0.813962 0.479225 1.000000
1.000000 0.468672 1.000000
0.000000 0.807010 1.000000
0.126982 0.796457 1.000000
0.448887 0.783624 1.000000
0.770791 0.770791 1.000000
1.000000 0.760238 1.000000
0.000000 1.000000 1.000000
0.091482 1.000000 1.000000
0.413386 1.000000 1.000000
0.735290 1.000000 1.000000
1.000000 1.000000 1.000000
