public/luts/vibrant.cube
TITLE "OneMoment vibrant"
LUT_3D_SIZE 9
DOMAIN_MIN 0.0 0.0 0.0
DOMAIN_MAX 1.0 1.0 1.0
0.000000 0.000000 0.000000
0.121631 0.000000 0.000000
0.264710 0.000000 0.000000
0.422087 0.000000 0.000000
0.586614 0.000000 0.000000
0.751141 0.000000 0.000000
0.908518 0.000000 0.000000
1.000000 0.000000 0.000000
1.000000 0.000000 0.000000
0.000000 0.110168 0.000000
0.105319 0.105319 0.000000
0.248397 0.099615 0.000000
0.405775 0.093341 0.000000
0.570302 0.086782 0.000000
0.734829 0.080222 0.000000
0.892206 0.073948 0.000000
1.000000 0.068244 0.000000
1.000000 0.063396 0.000000
0.000000 0.239762 0.000000
0.086130 0.234913 0.000000
0.229209 0.229209 0.000000
0.386586 0.222935 0.000000
0.551113 0.216376 0.000000
0.715640 0.209817 0.000000
0.873018 0.203543 0.000000
1.000000 0.197839 0.000000
1.000000 0.192990 0.000000
0.000000 0.382307 0.000000
0.065024 0.377458 0.000000
0.208103 0.371754 0.000000
0.365480 0.365480 0.000000
0.530007 0.358921 0.000000
0.694534 0.352362 0.000000
0.851911 0.346088 0.000000
0.994990 0.340384 0.000000
1.000000 0.335535 0.000000
0.000000 0.531328 0.000000
0.042959 0.526479 0.000000
0.186038 0.520775 0.000000
0.343415 0.514501 0.000000
0.507942 0.507942 0.000000
0.672469 0.501383 0.000000
0.829846 0.495109 0.000000
0.972925 0.489405 0.000000
1.000000 0.484556 0.000000
0.000000 0.680349 0.000000
0.020894 0.675500 0.000000
0.163973 0.669796 0.000000
0.321350 0.663522 0.000000
0.485877 0.656963 0.000000
0.650404 0.650404 0.000000
0.807781 0.644130 0.000000
0.950860 0.638426 0.000000
1.000000 0.633577 0.000000
0.000000 0.822894 0.000000
0.000000 0.818045 0.000000
0.142866 0.812341 0.000000
0.300244 0.806067 0.000000
0.464771 0.799508 0.000000
0.629298 0.792949 0.000000
0.786675 0.786675 0.000000
0.929754 0.780971 0.000000
1.000000 0.776122 0.000000
0.000000 0.952488 0.000000
0.000000 0.947640 0.000000
0.123678 0.941936 0.000000
0.281055 0.935662 0.000000
0.445582 0.929102 0.000000
0.610109 0.922543 0.000000
0.767487 0.916269 0.000000
0.910565 0.910565 0.000000
1.000000 0.905716 0.000000
0.000000 1.000000 0.000000
0.000000 1.000000 0.000000
0.107366 1.000000 0.000000
0.264743 1.000000 0.000000
0.429270 1.000000 0.000000
0.593797 1.000000 0.000000
0.751174 1.000000 0.000000
0.894253 1.000000 0.000000
1.000000 1.000000 0.000000
0.000000 0.000000 0.124833
0.119984 0.000000 0.119984
0.263063 0.000000 0.114280
0.420440 0.000000 0.108006
0.584967 0.000000 0.101447
0.749494 0.000000 0.094888
0.906872 0.000000 0.088614
1.000000 0.000000 0.082910
1.000000 0.000000 0.078061
0.000000 0.108521 0.108521
0.103672 0.103672 0.103672
0.246751 0.097968 0.097968
0.404128 0.091694 0.091694
0.568655 0.085135 0.085135
0.733182 0.078576 0.078576
0.890560 0.072302 0.072302
1.000000 0.066598 0.066598
1.000000 0.061749 0.061749
0.000000 0.238115 0.089332
0.084483 0.233266 0.084483
0.227562 0.227562 0.078779
0.384940 0.221288 0.072505
0.549467 0.214729 0.065946
0.713993 0.208170 0.059387
0.871371 0.201896 0.053113
1.000000 0.196192 0.047409
1.000000 0.191343 0.042560
0.000000 0.380660 0.068226
0.063377 0.375811 0.063377
0.206456 0.370107 0.057673
0.363833 0.363833 0.051399
0.528360 0.357274 0.044840
0.692887 0.350715 0.038281
0.850265 0.344441 0.032007
0.993344 0.338737 0.026303
1.000000 0.333888 0.021454
0.000000 0.529681 0.046161
0.041312 0.524832 0.041312
0.184391 0.519128 0.035608
0.341768 0.512854 0.029334
0.506295 0.506295 0.022775
0.670822 0.499736 0.016216
0.828200 0.493462 0.009942
0.971279 0.487758 0.004238
1.000000 0.482909 0.000000
0.000000 0.678702 0.024096
0.019247 0.673853 0.019247
0.162326 0.668149 0.013543
0.319703 0.661875 0.007269
0.484230 0.655316 0.000710
0.648757 0.648757 0.000000
0.806135 0.642483 0.000000
0.949213 0.636779 0.000000
1.000000 0.631930 0.000000
0.000000 0.821248 0.002990
0.000000 0.816399 0.000000
0.141220 0.810695 0.000000
0.298597 0.804421 0.000000
0.463124 0.797862 0.000000
0.627651 0.791302 0.000000
0.785028 0.785028 0.000000
0.928107 0.779324 0.000000
1.000000 0.774476 0.000000
0.000000 0.950842 0.000000
0.000000 0.945993 0.000000
0.122031 0.940289 0.000000
0.279409 0.934015 0.000000
0.443935 0.927456 0.000000
0.608462 0.920897 0.000000
0.765840 0.914623 0.000000
0.908919 0.908919 0.000000
1.000000 0.904070 0.000000
0.000000 1.000000 0.000000
0.000000 1.000000 0.000000
0.105719 1.000000 0.000000
0.263096 1.000000 0.000000
0.427623 1.000000 0.000000
0.592150 1.000000 0.000000
0.749528 1.000000 0.000000
0.892607 1.000000 0.000000
1.000000 1.000000 0.000000
0.000000 0.000000 0.271679
0.118047 0.000000 0.266830
0.261126 0.000000 0.261126
0.418503 0.000000 0.254852
0.583030 0.000000 0.248293
0.747557 0.000000 0.241734
0.904935 0.000000 0.235460
1.000000 0.000000 0.229756
1.000000 0.000000 0.224907
0.000000 0.106584 0.255367
0.101735 0.101735 0.250518
0.244814 0.096031 0.244814
0.402191 0.089757 0.238540
0.566718 0.083198 0.231981
0.731245 0.076639 0.225421
0.888622 0.070365 0.219147
1.000000 0.064661 0.213443
1.000000 0.059812 0.208595
0.000000 0.236178 0.236178
0.082546 0.231329 0.231329
0.225625 0.225625 0.225625
0.383003 0.219351 0.219351
0.547529 0.212792 0.212792
0.712056 0.206233 0.206233
0.869434 0.199959 0.199959
1.000000 0.194255 0.194255
1.000000 0.189406 0.189406
0.000000 0.378723 0.215072
0.061440 0.373874 0.210223
0.204519 0.368170 0.204519
0.361896 0.361896 0.198245
0.526423 0.355337 0.191686
0.690950 0.348778 0.185127
0.848328 0.342504 0.178853
0.991406 0.336800 0.173149
1.000000 0.331951 0.168300
0.000000 0.527744 0.193007
0.039375 0.522895 0.188158
0.182454 0.517191 0.182454
0.339831 0.510917 0.176180
0.504358 0.504358 0.169621
0.668885 0.497799 0.163062
0.826263 0.491525 0.156788
0.969341 0.485821 0.151084
1.000000 0.480972 0.146235
0.000000 0.676765 0.170942
0.017310 0.671916 0.166093
0.160389 0.666212 0.160389
0.317766 0.659938 0.154115
0.482293 0.653379 0.147556
0.646820 0.646820 0.140997
0.804198 0.640546 0.134723
0.947276 0.634842 0.129019
1.000000 0.629993 0.124170
0.000000 0.819310 0.149835
0.000000 0.814461 0.144986
0.139282 0.808757 0.139282
0.296660 0.802483 0.133008
0.461187 0.795924 0.126449
0.625714 0.789365 0.119890
0.783091 0.783091 0.113616
0.926170 0.777387 0.107912
1.000000 0.772538 0.103063
0.000000 0.948905 0.130647
0.000000 0.944056 0.125798
0.120094 0.938352 0.120094
0.277471 0.932078 0.113820
0.441998 0.925519 0.107261
0.606525 0.918960 0.100702
0.763903 0.912686 0.094428
0.906982 0.906982 0.088724
1.000000 0.902133 0.083875
0.000000 1.000000 0.114335
0.000000 1.000000 0.109486
0.103782 1.000000 0.103782
0.261159 1.000000 0.097508
0.425686 1.000000 0.090949
0.590213 1.000000 0.084390
0.747591 1.000000 0.078116
0.890669 1.000000 0.072412
1.000000 1.000000 0.067563
0.000000 0.000000 0.433200
0.115916 0.000000 0.428351
0.258995 0.000000 0.422647
0.416373 0.000000 0.416373
0.580899 0.000000 0.409814
0.745426 0.000000 0.403255
0.902804 0.000000 0.396980
1.000000 0.000000 0.391276
1.000000 0.000000 0.386428
0.000000 0.104453 0.416887
0.099604 0.099604 0.412038
0.242683 0.093900 0.406334
0.400060 0.087626 0.400060
0.564587 0.081067 0.393501
0.729114 0.074508 0.386942
0.886492 0.068234 0.380668
1.000000 0.062530 0.374964
1.000000 0.057681 0.370115
0.000000 0.234047 0.397699
0.080415 0.229198 0.392850
0.223494 0.223494 0.387146
0.380872 0.217220 0.380872
0.545399 0.210661 0.374313
0.709926 0.204102 0.367754
0.867303 0.197828 0.361480
1.000000 0.192124 0.355776
1.000000 0.187275 0.350927
0.000000 0.376593 0.376593
0.059309 0.371744 0.371744
0.202388 0.366040 0.366040
0.359766 0.359766 0.359766
0.524293 0.353207 0.353207
0.688819 0.346648 0.346648
0.846197 0.340374 0.340374
0.989276 0.334670 0.334670
1.000000 0.329821 0.329821
0.000000 0.525613 0.354528
0.037244 0.520765 0.349679
0.180323 0.515061 0.343975
0.337701 0.508787 0.337701
0.502227 0.502227 0.331142
0.666754 0.495668 0.324583
0.824132 0.489394 0.318308
0.967211 0.483690 0.312604
1.000000 0.478841 0.307756
0.000000 0.674634 0.332463
0.015179 0.669785 0.327614
0.158258 0.664081 0.321910
0.315636 0.657807 0.315636
0.480162 0.651248 0.309077
0.644689 0.644689 0.302517
0.802067 0.638415 0.296243
0.945146 0.632711 0.290539
1.000000 0.627862 0.285691
0.000000 0.817180 0.311356
0.000000 0.812331 0.306507
0.137152 0.806627 0.300803
0.294529 0.800353 0.294529
0.459056 0.793794 0.287970
0.623583 0.787235 0.281411
0.780961 0.780961 0.275137
0.924039 0.775257 0.269433
1.000000 0.770408 0.264584
0.000000 0.946774 0.292168
0.000000 0.941925 0.287319
0.117963 0.936221 0.281615
0.275341 0.929947 0.275341
0.439868 0.923388 0.268782
0.604395 0.916829 0.262223
0.761772 0.910555 0.255949
0.904851 0.904851 0.250245
1.000000 0.900002 0.245396
0.000000 1.000000 0.275856
0.000000 1.000000 0.271007
0.101651 1.000000 0.265303
0.259029 1.000000 0.259029
0.423555 1.000000 0.252470
0.588082 1.000000 0.245911
0.745460 1.000000 0.239636
0.888539 1.000000 0.233932
1.000000 1.000000 0.229084
0.000000 0.000000 0.602058
0.113689 0.000000 0.597209
0.256768 0.000000 0.591505
0.414145 0.000000 0.585231
0.578672 0.000000 0.578672
0.743199 0.000000 0.572113
0.900576 0.000000 0.565839
1.000000 0.000000 0.560135
1.000000 0.000000 0.555286
0.000000 0.102226 0.585746
0.097377 0.097377 0.580897
0.240455 0.091673 0.575193
0.397833 0.085399 0.568919
0.562360 0.078840 0.562360
0.726887 0.072280 0.555801
0.884264 0.066006 0.549527
1.000000 0.060302 0.543823
1.000000 0.055454 0.538974
0.000000 0.231820 0.566557
0.078188 0.226971 0.561708
0.221267 0.221267 0.556004
0.378644 0.214993 0.549730
0.543171 0.208434 0.543171
0.707698 0.201875 0.536612
0.865076 0.195601 0.530338
1.000000 0.189897 0.524634
1.000000 0.185048 0.519785
0.000000 0.374365 0.545451
0.057082 0.369516 0.540602
0.200161 0.363812 0.534898
0.357538 0.357538 0.528624
0.522065 0.350979 0.522065
0.686592 0.344420 0.515506
0.843969 0.338146 0.509232
0.987048 0.332442 0.503528
1.000000 0.327593 0.498679
0.000000 0.523386 0.523386
0.035017 0.518537 0.518537
0.178096 0.512833 0.512833
0.335473 0.506559 0.506559
0.500000 0.500000 0.500000
0.664527 0.493441 0.493441
0.821904 0.487167 0.487167
0.964983 0.481463 0.481463
1.000000 0.476614 0.476614
0.000000 0.672407 0.501321
0.012952 0.667558 0.496472
0.156031 0.661854 0.490768
0.313408 0.655580 0.484494
0.477935 0.649021 0.477935
0.642462 0.642462 0.471376
0.799839 0.636188 0.465102
0.942918 0.630484 0.459398
1.000000 0.625635 0.454549
0.000000 0.814952 0.480215
0.000000 0.810103 0.475366
0.134924 0.804399 0.469662
0.292302 0.798125 0.463388
0.456829 0.791566 0.456829
0.621356 0.785007 0.450270
0.778733 0.778733 0.443996
0.921812 0.773029 0.438292
1.000000 0.768180 0.433443
0.000000 0.944546 0.461026
0.000000 0.939698 0.456177
0.115736 0.933994 0.450473
0.273113 0.927720 0.444199
0.437640 0.921160 0.437640
0.602167 0.914601 0.431081
0.759545 0.908327 0.424807
0.902623 0.902623 0.419103
1.000000 0.897774 0.414254
0.000000 1.000000 0.444714
0.000000 1.000000 0.439865
0.099424 1.000000 0.434161
0.256801 1.000000 0.427887
0.421328 1.000000 0.421328
0.585855 1.000000 0.414769
0.743232 1.000000 0.408495
0.886311 1.000000 0.402791
1.000000 1.000000 0.397942
0.000000 0.000000 0.770916
0.111461 0.000000 0.766068
0.254540 0.000000 0.760364
0.411918 0.000000 0.754089
0.576445 0.000000 0.747530
0.740971 0.000000 0.740971
0.898349 0.000000 0.734697
1.000000 0.000000 0.728993
1.000000 0.000000 0.724144
0.000000 0.099998 0.754604
0.095149 0.095149 0.749755
0.238228 0.089445 0.744051
0.395605 0.083171 0.737777
0.560132 0.076612 0.731218
0.724659 0.070053 0.724659
0.882037 0.063779 0.718385
1.000000 0.058075 0.712681
1.000000 0.053226 0.707832
0.000000 0.229592 0.735416
0.075961 0.224743 0.730567
0.219039 0.219039 0.724863
0.376417 0.212765 0.718589
0.540944 0.206206 0.712030
0.705471 0.199647 0.705471
0.862848 0.193373 0.699197
1.000000 0.187669 0.693493
1.000000 0.182820 0.688644
0.000000 0.372138 0.714309
0.054854 0.367289 0.709461
0.197933 0.361585 0.703757
0.355311 0.355311 0.697483
0.519838 0.348752 0.690923
0.684364 0.342193 0.684364
0.841742 0.335919 0.678090
0.984821 0.330215 0.672386
1.000000 0.325366 0.667537
0.000000 0.521159 0.692244
0.032789 0.516310 0.687396
0.175868 0.510606 0.681692
0.333246 0.504332 0.675417
0.497773 0.497773 0.668858
0.662299 0.491213 0.662299
0.819677 0.484939 0.656025
0.962756 0.479235 0.650321
1.000000 0.474387 0.645472
0.000000 0.670179 0.670179
0.010724 0.665330 0.665330
0.153803 0.659626 0.659626
0.311181 0.653352 0.653352
0.475707 0.646793 0.646793
0.640234 0.640234 0.640234
0.797612 0.633960 0.633960
0.940691 0.628256 0.628256
1.000000 0.623407 0.623407
0.000000 0.812725 0.649073
0.000000 0.807876 0.644224
0.132697 0.802172 0.638520
0.290074 0.795898 0.632246
0.454601 0.789339 0.625687
0.619128 0.782780 0.619128
0.776506 0.776506 0.612854
0.919585 0.770802 0.607150
1.000000 0.765953 0.602301
0.000000 0.942319 0.629885
0.000000 0.937470 0.625036
0.113508 0.931766 0.619332
0.270886 0.925492 0.613058
0.435413 0.918933 0.606499
0.599940 0.912374 0.599940
0.757317 0.906100 0.593666
0.900396 0.900396 0.587962
1.000000 0.895547 0.583113
0.000000 1.000000 0.613572
0.000000 1.000000 0.608724
0.097196 1.000000 0.603020
0.254574 1.000000 0.596745
0.419101 1.000000 0.590186
0.583627 1.000000 0.583627
0.741005 1.000000 0.577353
0.884084 1.000000 0.571649
1.000000 1.000000 0.566800
0.000000 0.000000 0.932437
0.109331 0.000000 0.927588
0.252409 0.000000 0.921884
0.409787 0.000000 0.915610
0.574314 0.000000 0.909051
0.738841 0.000000 0.902492
0.896218 0.000000 0.896218
1.000000 0.000000 0.890514
1.000000 0.000000 0.885665
0.000000 0.097867 0.916125
0.093018 0.093018 0.911276
0.236097 0.087314 0.905572
0.393475 0.081040 0.899298
0.558002 0.074481 0.892739
0.722529 0.067922 0.886180
0.879906 0.061648 0.879906
1.000000 0.055944 0.874202
1.000000 0.051095 0.869353
0.000000 0.227462 0.896937
0.073830 0.222613 0.892088
0.216909 0.216909 0.886384
0.374286 0.210635 0.880110
0.538813 0.204076 0.873551
0.703340 0.197517 0.866992
0.860718 0.191243 0.860718
1.000000 0.185539 0.855014
1.000000 0.180690 0.850165
0.000000 0.370007 0.875830
0.052724 0.365158 0.870981
0.195802 0.359454 0.865277
0.353180 0.353180 0.859003
0.517707 0.346621 0.852444
0.682234 0.340062 0.845885
0.839611 0.333788 0.839611
0.982690 0.328084 0.833907
1.000000 0.323235 0.829058
0.000000 0.519028 0.853765
0.030659 0.514179 0.848916
0.173737 0.508475 0.843212
0.331115 0.502201 0.836938
0.495642 0.495642 0.830379
0.660169 0.489083 0.823820
0.817546 0.482809 0.817546
0.960625 0.477105 0.811842
1.000000 0.472256 0.806993
0.000000 0.668049 0.831700
0.008594 0.663200 0.826851
0.151672 0.657496 0.821147
0.309050 0.651222 0.814873
0.473577 0.644663 0.808314
0.638104 0.638104 0.801755
0.795481 0.631830 0.795481
0.938560 0.626126 0.789777
1.000000 0.621277 0.784928
0.000000 0.810594 0.810594
0.000000 0.805745 0.805745
0.130566 0.800041 0.800041
0.287944 0.793767 0.793767
0.452471 0.787208 0.787208
0.616997 0.780649 0.780649
0.774375 0.774375 0.774375
0.917454 0.768671 0.768671
1.000000 0.763822 0.763822
0.000000 0.940188 0.791405
0.000000 0.935339 0.786557
0.111378 0.929635 0.780853
0.268755 0.923361 0.774579
0.433282 0.916802 0.768019
0.597809 0.910243 0.761460
0.755186 0.903969 0.755186
0.898265 0.898265 0.749482
1.000000 0.893416 0.744633
0.000000 1.000000 0.775093
0.000000 1.000000 0.770244
0.095065 1.000000 0.764540
0.252443 1.000000 0.758266
0.416970 1.000000 0.751707
0.581497 1.000000 0.745148
0.738874 1.000000 0.738874
0.881953 1.000000 0.733170
1.000000 1.000000 0.728321
0.000000 0.000000 1.000000
0.107393 0.000000 1.000000
0.250472 0.000000 1.000000
0.407850 0.000000 1.000000
0.572377 0.000000 1.000000
0.736904 0.000000 1.000000
0.894281 0.000000 1.000000
1.000000 0.000000 1.000000
1.000000 0.000000 1.000000
0.000000 0.095930 1.000000
0.091081 0.091081 1.000000
0.234160 0.085377 1.000000
0.391538 0.079103 1.000000
0.556065 0.072544 1.000000
0.720591 0.065985 1.000000
0.877969 0.059711 1.000000
1.000000 0.054007 1.000000
1.000000 0.049158 1.000000
0.000000 0.225524 1.000000
0.071893 0.220676 1.000000
0.214972 0.214972 1.000000
0.372349 0.208698 1.000000
0.536876 0.202138 1.000000
0.701403 0.195579 1.000000
0.858780 0.189305 1.000000
1.000000 0.183601 1.000000
1.000000 0.178752 0.997010
0.000000 0.368070 1.000000
0.050787 0.363221 1.000000
0.193865 0.357517 1.000000
0.351243 0.351243 1.000000
0.515770 0.344684 0.999290
0.680297 0.338125 0.992731
0.837674 0.331851 0.986457
0.980753 0.326147 0.980753
1.000000 0.321298 0.975904
0.000000 0.517091 1.000000
0.028721 0.512242 0.995762
0.171800 0.506538 0.990058
0.329178 0.500264 0.983784
0.493705 0.493705 0.977225
0.658232 0.487146 0.970666
0.815609 0.480872 0.964392
0.958688 0.475168 0.958688
1.000000 0.470319 0.953839
0.000000 0.666112 0.978546
0.006656 0.661263 0.973697
0.149735 0.655559 0.967993
0.307113 0.649285 0.961719
0.471640 0.642726 0.955160
0.636167 0.636167 0.948601
0.793544 0.629893 0.942327
0.936623 0.624189 0.936623
1.000000 0.619340 0.931774
0.000000 0.808657 0.957440
0.000000 0.803808 0.952591
0.128629 0.798104 0.946887
0.286007 0.791830 0.940613
0.450533 0.785271 0.934054
0.615060 0.778712 0.927495
0.772438 0.772438 0.921221
0.915517 0.766734 0.915517
1.000000 0.761885 0.910668
0.000000 0.938251 0.938251
0.000000 0.933402 0.933402
0.109440 0.927698 0.927698
0.266818 0.921424 0.921424
0.431345 0.914865 0.914865
0.595872 0.908306 0.908306
0.753249 0.902032 0.902032
0.896328 0.896328 0.896328
1.000000 0.891479 0.891479
0.000000 1.000000 0.921939
0.000000 1.000000 0.917090
0.093128 1.000000 0.911386
0.250506 1.000000 0.905112
0.415033 1.000000 0.898553
0.579560 1.000000 0.891994
0.736937 1.000000 0.885720
0.880016 1.000000 0.880016
1.000000 1.000000 0.875167
0.000000 0.000000 1.000000
0.105747 0.000000 1.000000
0.248826 0.000000 1.000000
0.406203 0.000000 1.000000
0.570730 0.000000 1.000000
0.735257 0.000000 1.000000
0.892634 0.000000 1.000000
1.000000 0.000000 1.000000
1.000000 0.000000 1.000000
0.000000 0.094284 1.000000
0.089435 0.089435 1.000000
0.232513 0.083731 1.000000
0.389891 0.077457 1.000000
0.554418 0.070898 1.000000
0.718945 0.064338 1.000000
0.876322 0.058064 1.000000
1.000000 0.052360 1.000000
1.000000 0.047512 1.000000
0.000000 0.223878 1.000000
0.070246 0.219029 1.000000
0.213325 0.213325 1.000000
0.370702 0.207051 1.000000
0.535229 0.200492 1.000000
0.699756 0.193933 1.000000
0.857134 0.187659 1.000000
1.000000 0.181955 1.000000
1.000000 0.177106 1.000000
0.000000 0.366423 1.000000
0.049140 0.361574 1.000000
0.192219 0.355870 1.000000
0.349596 0.349596 1.000000
0.514123 0.343037 1.000000
0.678650 0.336478 1.000000
0.836027 0.330204 1.000000
0.979106 0.324500 1.000000
1.000000 0.319651 1.000000
0.000000 0.515444 1.000000
0.027075 0.510595 1.000000
0.170154 0.504891 1.000000
0.327531 0.498617 1.000000
0.492058 0.492058 1.000000
0.656585 0.485499 1.000000
0.813962 0.479225 1.000000
0.957041 0.473521 1.000000
1.000000 0.468672 1.000000
0.000000 0.664465 1.000000
0.005010 0.659616 1.000000
0.148089 0.653912 1.000000
0.305466 0.647638 1.000000
0.469993 0.641079 1.000000
0.634520 0.634520 1.000000
0.791897 0.628246 1.000000
0.934976 0.622542 1.000000
1.000000 0.617693 1.000000
0.000000 0.807010 1.000000
0.000000 0.802161 1.000000
0.126982 0.796457 1.000000
0.284360 0.790183 1.000000
0.448887 0.783624 1.000000
0.613414 0.777065 1.000000
0.770791 0.770791 1.000000
0.913870 0.765087 1.000000
1.000000 0.760238 1.000000
0.000000 0.936604 1.000000
0.000000 0.931756 1.000000
0.107794 0.926052 1.000000
0.265171 0.919778 1.000000
0.429698 0.913218 1.000000
0.594225 0.906659 1.000000
0.751603 0.900385 1.000000
0.894681 0.894681 1.000000
1.000000 0.889832 1.000000
0.000000 1.000000 1.000000
0.000000 1.000000 1.000000
0.091482 1.000000 1.000000
0.248859 1.000000 1.000000
0.413386 1.000000 1.000000
0.577913 1.000000 1.000000
0.735290 1.000000 1.000000
0.878369 1.000000 1.000000
1.000000 1.000000 1.000000
