public/luts/warm-romance.cube
TITLE "OneMoment warm-romance"
LUT_3D_SIZE 33
DOMAIN_MIN 0.0 0.0 0.0
DOMAIN_MAX 1.0 1.0 1.0
0.059244 0.044539 0.029767
0.086474 0.044168 0.029530
0.114478 0.043788 0.029282
0.143204 0.043400 0.029024
0.172602 0.043007 0.028756
0.202620 0.042607 0.028478
0.233208 0.042203 0.028191
0.264315 0.041795 0.027895
0.295890 0.041383 0.027590
0.327882 0.040970 0.027276
0.360241 0.040554 0.026953
0.392914 0.040138 0.026623
0.425851 0.039721 0.026285
0.459000 0.039306 0.025940
0.492312 0.038891 0.025589
0.525733 0.038478 0.025231
0.559214 0.038068 0.024867
0.592702 0.037661 0.024499
0.626146 0.037258 0.024125
0.659496 0.036860 0.023748
0.692699 0.036467 0.023368
0.725703 0.036079 0.022985
0.758458 0.035697 0.022599
0.790912 0.035322 0.022213
0.823013 0.034954 0.021826
0.854709 0.034593 0.021440
0.885949 0.034241 0.021054
0.916680 0.033898 0.020671
0.946852 0.033563 0.020291
0.976412 0.033237 0.019914
1.000000 0.032922 0.019542
1.000000 0.032617 0.019175
1.000000 0.032322 0.018816
0.057495 0.071054 0.028954
0.084742 0.070690 0.028705
0.112764 0.070317 0.028445
0.141508 0.069938 0.028175
0.170924 0.069552 0.027895
0.200961 0.069160 0.027605
0.231569 0.068764 0.027305
0.262695 0.068364 0.026995
0.294290 0.067961 0.026676
0.326303 0.067556 0.026349
0.358681 0.067149 0.026013
0.391375 0.066741 0.025669
0.424333 0.066334 0.025317
0.457503 0.065927 0.024958
0.490835 0.065521 0.024593
0.524278 0.065117 0.024221
0.557780 0.064716 0.023843
0.591289 0.064318 0.023460
0.624755 0.063924 0.023073
0.658125 0.063534 0.022682
0.691349 0.063150 0.022287
0.724374 0.062771 0.021890
0.757150 0.062398 0.021491
0.789624 0.062031 0.021091
0.821745 0.061672 0.020691
0.853461 0.061320 0.020291
0.884720 0.060976 0.019892
0.915471 0.060640 0.019496
0.945662 0.060313 0.019103
0.975240 0.059996 0.018714
1.000000 0.059688 0.018330
1.000000 0.059390 0.017951
1.000000 0.059103 0.017580
0.055756 0.098342 0.028078
0.083022 0.097985 0.027817
0.111061 0.097620 0.027545
0.139824 0.097248 0.027262
0.169259 0.096871 0.026969
0.199316 0.096487 0.026666
0.229943 0.096100 0.026353
0.261090 0.095708 0.026030
0.292706 0.095314 0.025697
0.324739 0.094917 0.025356
0.357138 0.094519 0.025006
0.389853 0.094121 0.024648
0.422832 0.093722 0.024282
0.456024 0.093324 0.023908
0.489378 0.092927 0.023528
0.522842 0.092533 0.023142
0.556366 0.092141 0.022749
0.589897 0.091752 0.022352
0.623384 0.091367 0.021950
0.656776 0.090986 0.021544
0.690021 0.090611 0.021135
0.723068 0.090241 0.020724
0.755865 0.089876 0.020311
0.788360 0.089519 0.019897
0.820501 0.089168 0.019483
0.852238 0.088825 0.019069
0.883517 0.088489 0.018657
0.914288 0.088162 0.018247
0.944498 0.087844 0.017841
0.974096 0.087534 0.017439
1.000000 0.087234 0.017043
1.000000 0.086944 0.016652
1.000000 0.086664 0.016269
0.054037 0.126355 0.027137
0.081321 0.126006 0.026864
0.109379 0.125649 0.026579
0.138161 0.125285 0.026284
0.167616 0.124915 0.025977
0.197693 0.124541 0.025661
0.228340 0.124161 0.025334
0.259508 0.123779 0.024997
0.291144 0.123393 0.024650
0.323198 0.123006 0.024295
0.355619 0.122617 0.023930
0.388356 0.122227 0.023557
0.421357 0.121838 0.023177
0.454571 0.121449 0.022789
0.487947 0.121062 0.022394
0.521433 0.120676 0.021992
0.554979 0.120294 0.021585
0.588532 0.119914 0.021173
0.622042 0.119539 0.020756
0.655456 0.119168 0.020336
0.688723 0.118801 0.019912
0.721792 0.118440 0.019486
0.754610 0.118085 0.019058
0.787127 0.117737 0.018630
0.819290 0.117395 0.018201
0.851047 0.117061 0.017773
0.882348 0.116734 0.017347
0.913139 0.116415 0.016924
0.943369 0.116105 0.016505
0.972986 0.115804 0.016090
1.000000 0.115512 0.015680
1.000000 0.115230 0.015277
1.000000 0.114957 0.014882
0.052345 0.155045 0.026129
0.079647 0.154704 0.025843
0.107724 0.154355 0.025546
0.136526 0.153999 0.025237
0.166001 0.153638 0.024918
0.196098 0.153272 0.024587
0.226766 0.152902 0.024246
0.257955 0.152528 0.023895
0.289613 0.152151 0.023534
0.321689 0.151773 0.023164
0.354132 0.151393 0.022785
0.386891 0.151013 0.022397
0.419914 0.150633 0.022002
0.453151 0.150254 0.021598
0.486549 0.149876 0.021188
0.520059 0.149501 0.020772
0.553627 0.149127 0.020349
0.587203 0.148758 0.019922
0.620735 0.148392 0.019490
0.654172 0.148030 0.019054
0.687461 0.147673 0.018615
0.720552 0.147322 0.018174
0.753393 0.146976 0.017732
0.785932 0.146637 0.017288
0.818117 0.146304 0.016845
0.849896 0.145979 0.016403
0.881217 0.145661 0.015963
0.912029 0.145351 0.015526
0.942280 0.145050 0.015092
0.971917 0.144757 0.014664
1.000000 0.144473 0.014241
1.000000 0.144199 0.013826
1.000000 0.143934 0.013418
0.050686 0.184364 0.025053
0.078008 0.184031 0.024755
0.106104 0.183690 0.024445
0.134926 0.183343 0.024123
0.164421 0.182991 0.023789
0.194539 0.182633 0.023445
0.225229 0.182272 0.023090
0.256439 0.181907 0.022724
0.288119 0.181540 0.022349
0.320217 0.181171 0.021963
0.352683 0.180801 0.021569
0.385465 0.180430 0.021166
0.418511 0.180060 0.020755
0.451770 0.179690 0.020337
0.485192 0.179322 0.019911
0.518724 0.178956 0.019479
0.552316 0.178593 0.019041
0.585915 0.178233 0.018598
0.619470 0.177877 0.018150
0.652930 0.177525 0.017699
0.686243 0.177178 0.017245
0.719357 0.176836 0.016788
0.752220 0.176500 0.016331
0.784781 0.176170 0.015872
0.816988 0.175847 0.015414
0.848789 0.175531 0.014958
0.880132 0.175222 0.014503
0.910966 0.174922 0.014052
0.941237 0.174629 0.013604
0.970895 0.174345 0.013162
0.999886 0.174069 0.012726
1.000000 0.173803 0.012297
1.000000 0.173547 0.011877
0.049069 0.214265 0.023909
0.076410 0.213939 0.023598
0.104526 0.213607 0.023275
0.133368 0.213268 0.022939
0.162884 0.212925 0.022592
0.193024 0.212576 0.022233
0.223735 0.212224 0.021863
0.254967 0.211869 0.021483
0.286670 0.211511 0.021092
0.318791 0.211151 0.020692
0.351279 0.210791 0.020282
0.384084 0.210430 0.019864
0.417153 0.210069 0.019437
0.450436 0.209710 0.019003
0.483881 0.209352 0.018561
0.517437 0.208996 0.018113
0.551052 0.208643 0.017660
0.584675 0.208293 0.017201
0.618254 0.207946 0.016737
0.651738 0.207604 0.016270
0.685074 0.207267 0.015800
0.718211 0.206935 0.015328
0.751098 0.206609 0.014855
0.783682 0.206289 0.014381
0.815911 0.205975 0.013908
0.847734 0.205668 0.013436
0.879100 0.205369 0.012967
0.909954 0.205077 0.012501
0.940247 0.204794 0.012040
0.969926 0.204518 0.011583
0.998938 0.204251 0.011134
1.000000 0.203994 0.010692
1.000000 0.203745 0.010258
0.047500 0.244697 0.022696
0.074860 0.244380 0.022372
0.102997 0.244056 0.022035
0.131859 0.243726 0.021685
0.161396 0.243391 0.021324
0.191557 0.243052 0.020950
0.222291 0.242709 0.020566
0.253545 0.242363 0.020170
0.285270 0.242015 0.019765
0.317414 0.241665 0.019349
0.349926 0.241315 0.018924
0.382754 0.240964 0.018490
0.415847 0.240613 0.018047
0.449154 0.240264 0.017597
0.482624 0.239916 0.017139
0.516203 0.239570 0.016675
0.549843 0.239227 0.016205
0.583490 0.238887 0.015730
0.617092 0.238551 0.015251
0.650600 0.238219 0.014768
0.683960 0.237892 0.014282
0.717121 0.237570 0.013794
0.750031 0.237253 0.013305
0.782638 0.236943 0.012815
0.814891 0.236639 0.012327
0.846737 0.236342 0.011840
0.878124 0.236052 0.011355
0.909001 0.235770 0.010875
0.939315 0.235495 0.010399
0.969015 0.235229 0.009928
0.998048 0.234971 0.009465
1.000000 0.234721 0.009009
1.000000 0.234481 0.008562
0.045984 0.275613 0.021413
0.073364 0.275304 0.021075
0.101521 0.274989 0.020725
0.130405 0.274668 0.020361
0.159963 0.274342 0.019985
0.190146 0.274012 0.019597
0.220902 0.273679 0.019198
0.252180 0.273343 0.018787
0.283928 0.273004 0.018366
0.316095 0.272664 0.017934
0.348630 0.272323 0.017493
0.381482 0.271983 0.017043
0.414599 0.271642 0.016584
0.447931 0.271303 0.016118
0.481424 0.270965 0.015644
0.515028 0.270630 0.015164
0.548692 0.270297 0.014678
0.582363 0.269967 0.014186
0.615991 0.269641 0.013690
0.649522 0.269320 0.013191
0.682906 0.269003 0.012689
0.716091 0.268691 0.012185
0.749025 0.268385 0.011680
0.781656 0.268084 0.011175
0.813932 0.267790 0.010670
0.845801 0.267503 0.010168
0.877211 0.267222 0.009668
0.908111 0.266949 0.009173
0.938447 0.266684 0.008682
0.968168 0.266427 0.008197
0.997222 0.266178 0.007719
1.000000 0.265937 0.007250
1.000000 0.265705 0.006790
0.044527 0.306964 0.020061
0.071928 0.306664 0.019709
0.100106 0.306357 0.019345
0.129011 0.306045 0.018967
0.158591 0.305729 0.018576
0.188796 0.305408 0.018173
0.219574 0.305084 0.017759
0.250875 0.304758 0.017333
0.282646 0.304429 0.016896
0.314837 0.304099 0.016448
0.347397 0.303768 0.015991
0.380273 0.303438 0.015525
0.413414 0.303108 0.015050
0.446770 0.302779 0.014567
0.480288 0.302451 0.014077
0.513917 0.302126 0.013580
0.547605 0.301804 0.013077
0.581301 0.301485 0.012569
0.614953 0.301169 0.012057
0.648510 0.300858 0.011541
0.681918 0.300551 0.011022
0.715128 0.300250 0.010502
0.748086 0.299954 0.009981
0.780740 0.299663 0.009459
0.813040 0.299379 0.008939
0.844933 0.299102 0.008421
0.876366 0.298831 0.007906
0.907288 0.298568 0.007395
0.937646 0.298312 0.006890
0.967389 0.298063 0.006390
0.996464 0.297823 0.005898
1.000000 0.297591 0.005415
1.000000 0.297368 0.004941
0.043136 0.338701 0.018639
0.070556 0.338409 0.018274
0.098755 0.338112 0.017895
0.127682 0.337809 0.017502
0.157284 0.337501 0.017097
0.187512 0.337190 0.016679
0.218313 0.336876 0.016249
0.249637 0.336559 0.015808
0.281432 0.336240 0.015355
0.313647 0.335921 0.014892
0.346230 0.335600 0.014418
0.379131 0.335280 0.013935
0.412297 0.334960 0.013444
0.445677 0.334642 0.012944
0.479220 0.334325 0.012437
0.512874 0.334010 0.011924
0.546588 0.333698 0.011404
0.580309 0.333390 0.010879
0.613985 0.333085 0.010350
0.647567 0.332784 0.009818
0.681000 0.332488 0.009283
0.714234 0.332197 0.008746
0.747216 0.331911 0.008208
0.779896 0.331631 0.007671
0.812219 0.331357 0.007134
0.844135 0.331089 0.006601
0.875592 0.330828 0.006070
0.906537 0.330574 0.005544
0.936917 0.330328 0.005023
0.966682 0.330089 0.004509
0.995779 0.329858 0.004002
1.000000 0.329635 0.003505
1.000000 0.329420 0.003018
0.041813 0.370774 0.017148
0.069254 0.370491 0.016769
0.097475 0.370203 0.016376
0.126423 0.369909 0.015969
0.156047 0.369611 0.015549
0.186298 0.369309 0.015116
0.217122 0.369005 0.014670
0.248469 0.368698 0.014213
0.280288 0.368389 0.013744
0.312527 0.368080 0.013264
0.345135 0.367769 0.012775
0.378060 0.367460 0.012276
0.411251 0.367150 0.011767
0.444657 0.366842 0.011251
0.478225 0.366536 0.010727
0.511904 0.366232 0.010197
0.545643 0.365931 0.009660
0.579389 0.365633 0.009118
0.613091 0.365339 0.008572
0.646697 0.365048 0.008023
0.680156 0.364763 0.007471
0.713415 0.364482 0.006918
0.746422 0.364207 0.006363
0.779125 0.363937 0.005810
0.811473 0.363673 0.005257
0.843413 0.363416 0.004707
0.874893 0.363165 0.004161
0.905861 0.362921 0.003619
0.936264 0.362684 0.003083
0.966051 0.362454 0.002554
0.995170 0.362232 0.002033
1.000000 0.362018 0.001522
1.000000 0.361812 0.001021
0.040564 0.403135 0.015589
0.068026 0.402860 0.015196
0.096268 0.402581 0.014789
0.125238 0.402296 0.014367
0.154885 0.402008 0.013932
0.185158 0.401716 0.013484
0.216006 0.401421 0.013022
0.247377 0.401124 0.012549
0.279219 0.400826 0.012064
0.311483 0.400526 0.011568
0.344115 0.400227 0.011062
0.377065 0.399927 0.010546
0.410282 0.399628 0.010021
0.443712 0.399331 0.009488
0.477306 0.399036 0.008947
0.511010 0.398742 0.008400
0.544774 0.398452 0.007846
0.578546 0.398165 0.007287
0.612273 0.397881 0.006724
0.645905 0.397601 0.006158
0.679389 0.397326 0.005589
0.712673 0.397056 0.005019
0.745705 0.396791 0.004448
0.778433 0.396532 0.003878
0.810805 0.396278 0.003309
0.842769 0.396031 0.002743
0.874272 0.395790 0.002181
0.905264 0.395556 0.001623
0.935690 0.395329 0.001072
0.965500 0.395109 0.000528
0.994640 0.394896 0.000000
1.000000 0.394691 0.000000
1.000000 0.394494 0.000000
0.039393 0.435733 0.013963
0.066875 0.435467 0.013556
0.095138 0.435197 0.013135
0.124130 0.434921 0.012698
0.153800 0.434642 0.012248
0.184096 0.434360 0.011784
0.214967 0.434075 0.011307
0.246362 0.433788 0.010818
0.278229 0.433500 0.010317
0.310517 0.433211 0.009805
0.343174 0.432922 0.009282
0.376150 0.432633 0.008749
0.409391 0.432345 0.008207
0.442847 0.432058 0.007657
0.476466 0.431773 0.007099
0.510196 0.431491 0.006535
0.543985 0.431211 0.005964
0.577783 0.430935 0.005388
0.611536 0.430662 0.004808
0.645193 0.430393 0.004224
0.678702 0.430129 0.003638
0.712011 0.429869 0.003051
0.745068 0.429615 0.002464
0.777821 0.429366 0.001877
0.810217 0.429123 0.001292
0.842206 0.428886 0.000709
0.873733 0.428655 0.000131
0.904748 0.428431 0.000000
0.935197 0.428213 0.000000
0.965029 0.428002 0.000000
0.994191 0.427799 0.000000
1.000000 0.427603 0.000000
1.000000 0.427415 0.000000
0.038301 0.468518 0.012272
0.065805 0.468262 0.011851
0.094090 0.468000 0.011415
0.123104 0.467734 0.010964
0.152796 0.467465 0.010499
0.183115 0.467192 0.010019
0.214010 0.466917 0.009527
0.245429 0.466641 0.009021
0.277320 0.466363 0.008504
0.309633 0.466084 0.007975
0.342315 0.465805 0.007436
0.375315 0.465527 0.006886
0.408582 0.465250 0.006327
0.442063 0.464974 0.005760
0.475708 0.464700 0.005185
0.509464 0.464428 0.004603
0.543279 0.464159 0.004015
0.577102 0.463894 0.003422
0.610881 0.463632 0.002825
0.644563 0.463374 0.002224
0.678098 0.463120 0.001621
0.711432 0.462871 0.001017
0.744514 0.462627 0.000412
0.777292 0.462389 0.000000
0.809713 0.462156 0.000000
0.841726 0.461929 0.000000
0.873277 0.461708 0.000000
0.904316 0.461494 0.000000
0.934788 0.461286 0.000000
0.964643 0.461085 0.000000
0.993827 0.460891 0.000000
1.000000 0.460704 0.000000
1.000000 0.460525 0.000000
0.037293 0.501441 0.010518
0.064818 0.501194 0.010083
0.093125 0.500941 0.009633
0.122161 0.500685 0.009167
0.151876 0.500425 0.008686
0.182218 0.500162 0.008191
0.213137 0.499897 0.007683
0.244579 0.499631 0.007161
0.276495 0.499363 0.006627
0.308832 0.499095 0.006082
0.341539 0.498826 0.005526
0.374565 0.498559 0.004959
0.407857 0.498292 0.004384
0.441364 0.498027 0.003799
0.475034 0.497764 0.003207
0.508816 0.497503 0.002608
0.542657 0.497245 0.002002
0.576506 0.496990 0.001392
0.610310 0.496739 0.000777
0.644018 0.496492 0.000159
0.677579 0.496249 0.000000
0.710938 0.496011 0.000000
0.744046 0.495778 0.000000
0.776848 0.495550 0.000000
0.809294 0.495328 0.000000
0.841331 0.495111 0.000000
0.872907 0.494900 0.000000
0.903968 0.494696 0.000000
0.934464 0.494498 0.000000
0.964342 0.494306 0.000000
0.993548 0.494122 0.000000
1.000000 0.493944 0.000000
1.000000 0.493773 0.000000
0.036371 0.534452 0.008703
0.063917 0.534213 0.008254
0.092245 0.533970 0.007789
0.121303 0.533723 0.007308
0.151041 0.533472 0.006812
0.181407 0.533219 0.006302
0.212348 0.532964 0.005777
0.243815 0.532708 0.005240
0.275755 0.532450 0.004690
0.308117 0.532193 0.004128
0.340850 0.531935 0.003555
0.373900 0.531678 0.002972
0.407218 0.531422 0.002379
0.440750 0.531168 0.001777
0.474446 0.530915 0.001168
0.508254 0.530665 0.000551
0.542121 0.530418 0.000000
0.575995 0.530174 0.000000
0.609826 0.529934 0.000000
0.643560 0.529698 0.000000
0.677145 0.529466 0.000000
0.710530 0.529239 0.000000
0.743663 0.529016 0.000000
0.776491 0.528799 0.000000
0.808961 0.528587 0.000000
0.841023 0.528380 0.000000
0.872622 0.528180 0.000000
0.903708 0.527985 0.000000
0.934227 0.527797 0.000000
0.964127 0.527615 0.000000
0.993355 0.527440 0.000000
1.000000 0.527271 0.000000
1.000000 0.527110 0.000000
0.035535 0.567499 0.006830
0.063102 0.567269 0.006367
0.091452 0.567035 0.005887
0.120532 0.566797 0.005391
0.150293 0.566556 0.004880
0.180682 0.566313 0.004354
0.211647 0.566068 0.003814
0.243138 0.565822 0.003260
0.275103 0.565575 0.002694
0.307489 0.565327 0.002115
0.340247 0.565080 0.001526
0.373322 0.564834 0.000925
0.406665 0.564589 0.000315
0.440224 0.564345 0.000000
0.473945 0.564103 0.000000
0.507778 0.563864 0.000000
0.541671 0.563628 0.000000
0.575572 0.563395 0.000000
0.609428 0.563166 0.000000
0.643188 0.562941 0.000000
0.676799 0.562719 0.000000
0.710210 0.562503 0.000000
0.743367 0.562291 0.000000
0.776220 0.562084 0.000000
0.808715 0.561883 0.000000
0.840801 0.561686 0.000000
0.872425 0.561496 0.000000
0.903534 0.561312 0.000000
0.934076 0.561133 0.000000
0.963999 0.560961 0.000000
0.993250 0.560795 0.000000
1.000000 0.560636 0.000000
1.000000 0.560483 0.000000
0.034787 0.600531 0.004902
0.062375 0.600311 0.004424
0.090746 0.600086 0.003930
0.119849 0.599857 0.003419
0.149633 0.599626 0.002893
0.180045 0.599393 0.002351
0.211034 0.599158 0.001795
0.242549 0.598922 0.001226
0.274538 0.598685 0.000643
0.306949 0.598448 0.000048
0.339731 0.598211 0.000000
0.372832 0.597975 0.000000
0.406201 0.597741 0.000000
0.439784 0.597508 0.000000
0.473532 0.597277 0.000000
0.507391 0.597049 0.000000
0.541309 0.596824 0.000000
0.575236 0.596602 0.000000
0.609117 0.596383 0.000000
0.642903 0.596169 0.000000
0.676540 0.595958 0.000000
0.709976 0.595752 0.000000
0.743159 0.595551 0.000000
0.776036 0.595355 0.000000
0.808556 0.595164 0.000000
0.840667 0.594978 0.000000
0.872314 0.594798 0.000000
0.903447 0.594623 0.000000
0.934012 0.594455 0.000000
0.963958 0.594292 0.000000
0.993231 0.594135 0.000000
1.000000 0.593985 0.000000
1.000000 0.593841 0.000000
0.034128 0.633499 0.002921
0.061737 0.633287 0.002430
0.090130 0.633071 0.001921
0.119255 0.632852 0.001396
0.149061 0.632631 0.000854
0.179496 0.632407 0.000297
0.210509 0.632182 0.000000
0.242048 0.631956 0.000000
0.274061 0.631729 0.000000
0.306497 0.631503 0.000000
0.339304 0.631277 0.000000
0.372430 0.631051 0.000000
0.405824 0.630828 0.000000
0.439433 0.630606 0.000000
0.473206 0.630386 0.000000
0.507090 0.630168 0.000000
0.541035 0.629954 0.000000
0.574987 0.629743 0.000000
0.608894 0.629535 0.000000
0.642705 0.629331 0.000000
0.676368 0.629132 0.000000
0.709829 0.628936 0.000000
0.743037 0.628746 0.000000
0.775940 0.628560 0.000000
0.808484 0.628379 0.000000
0.840619 0.628204 0.000000
0.872290 0.628034 0.000000
0.903447 0.627869 0.000000
0.934035 0.627710 0.000000
0.964003 0.627557 0.000000
0.993298 0.627410 0.000000
1.000000 0.627268 0.000000
1.000000 0.627133 0.000000
0.033557 0.666351 0.000893
0.061187 0.666147 0.000387
0.089601 0.665941 0.000000
0.118749 0.665731 0.000000
0.148577 0.665519 0.000000
0.179035 0.665305 0.000000
0.210071 0.665090 0.000000
0.241634 0.664874 0.000000
0.273671 0.664657 0.000000
0.306132 0.664441 0.000000
0.338964 0.664225 0.000000
0.372115 0.664011 0.000000
0.405534 0.663798 0.000000
0.439168 0.663586 0.000000
0.472967 0.663377 0.000000
0.506877 0.663171 0.000000
0.540847 0.662967 0.000000
0.574824 0.662766 0.000000
0.608758 0.662570 0.000000
0.642594 0.662377 0.000000
0.676282 0.662188 0.000000
0.709768 0.662003 0.000000
0.743002 0.661823 0.000000
0.775929 0.661648 0.000000
0.808498 0.661477 0.000000
0.840657 0.661312 0.000000
0.872352 0.661152 0.000000
0.903532 0.660997 0.000000
0.934143 0.660848 0.000000
0.964134 0.660704 0.000000
0.993451 0.660566 0.000000
1.000000 0.660434 0.000000
1.000000 0.660308 0.000000
0.033075 0.699034 0.000000
0.060725 0.698840 0.000000
0.089161 0.698642 0.000000
0.118330 0.698442 0.000000
0.148181 0.698239 0.000000
0.178662 0.698035 0.000000
0.209721 0.697829 0.000000
0.241308 0.697623 0.000000
0.273369 0.697417 0.000000
0.305854 0.697211 0.000000
0.338710 0.697006 0.000000
0.371886 0.696802 0.000000
0.405330 0.696599 0.000000
0.438990 0.696398 0.000000
0.472814 0.696200 0.000000
0.506749 0.696004 0.000000
0.540745 0.695811 0.000000
0.574748 0.695621 0.000000
0.608706 0.695435 0.000000
0.642568 0.695253 0.000000
0.676281 0.695075 0.000000
0.709793 0.694901 0.000000
0.743051 0.694731 0.000000
0.776003 0.694566 0.000000
0.808596 0.694406 0.000000
0.840779 0.694251 0.000000
0.872498 0.694101 0.000000
0.903701 0.693956 0.000000
0.934335 0.693816 0.000000
0.964348 0.693682 0.000000
0.993688 0.693553 0.000000
1.000000 0.693430 0.000000
1.000000 0.693312 0.000000
0.032679 0.731499 0.000000
0.060350 0.731313 0.000000
0.088807 0.731124 0.000000
0.117998 0.730933 0.000000
0.147871 0.730739 0.000000
0.178375 0.730545 0.000000
0.209457 0.730349 0.000000
0.241067 0.730153 0.000000
0.273152 0.729957 0.000000
0.305661 0.729761 0.000000
0.338542 0.729566 0.000000
0.371743 0.729372 0.000000
0.405212 0.729180 0.000000
0.438897 0.728990 0.000000
0.472745 0.728802 0.000000
0.506706 0.728617 0.000000
0.540727 0.728435 0.000000
0.574755 0.728256 0.000000
0.608739 0.728080 0.000000
0.642626 0.727908 0.000000
0.676364 0.727741 0.000000
0.709900 0.727577 0.000000
0.743183 0.727418 0.000000
0.776159 0.727263 0.000000
0.808777 0.727113 0.000000
0.840983 0.726968 0.000000
0.872726 0.726828 0.000000
0.903952 0.726693 0.000000
0.934609 0.726563 0.000000
0.964644 0.726438 0.000000
0.994005 0.726318 0.000000
1.000000 0.726204 0.000000
1.000000 0.726095 0.000000
0.032369 0.763692 0.000000
0.060061 0.763515 0.000000
0.088539 0.763335 0.000000
0.117751 0.763152 0.000000
0.147646 0.762968 0.000000
0.178172 0.762783 0.000000
0.209278 0.762597 0.000000
0.240911 0.762411 0.000000
0.273020 0.762225 0.000000
0.305552 0.762039 0.000000
0.338458 0.761854 0.000000
0.371683 0.761671 0.000000
0.405176 0.761489 0.000000
0.438886 0.761309 0.000000
0.472759 0.761132 0.000000
0.506745 0.760957 0.000000
0.540791 0.760785 0.000000
0.574844 0.760617 0.000000
0.608853 0.760452 0.000000
0.642765 0.760291 0.000000
0.676527 0.760133 0.000000
0.710088 0.759980 0.000000
0.743395 0.759831 0.000000
0.776396 0.759687 0.000000
0.809038 0.759547 0.000000
0.841268 0.759412 0.000000
0.873033 0.759281 0.000000
0.904283 0.759156 0.000000
0.934962 0.759035 0.000000
0.965019 0.758920 0.000000
0.994402 0.758809 0.000000
1.000000 0.758704 0.000000
1.000000 0.758604 0.000000
0.032142 0.795561 0.000000
0.059854 0.795393 0.000000
0.088353 0.795221 0.000000
0.117586 0.795048 0.000000
0.147503 0.794873 0.000000
0.178052 0.794698 0.000000
0.209180 0.794521 0.000000
0.240836 0.794344 0.000000
0.272968 0.794168 0.000000
0.305525 0.793992 0.000000
0.338454 0.793818 0.000000
0.371703 0.793644 0.000000
0.405221 0.793473 0.000000
0.438955 0.793304 0.000000
0.472853 0.793137 0.000000
0.506864 0.792972 0.000000
0.540934 0.792811 0.000000
0.575012 0.792653 0.000000
0.609045 0.792498 0.000000
0.642982 0.792348 0.000000
0.676769 0.792201 0.000000
0.710355 0.792058 0.000000
0.743686 0.791919 0.000000
0.776710 0.791785 0.000000
0.809376 0.791655 0.000000
0.841629 0.791529 0.000000
0.873418 0.791409 0.000000
0.904689 0.791293 0.000000
0.935391 0.791182 0.000000
0.965470 0.791075 0.000000
0.994874 0.790974 0.000000
1.000000 0.790877 0.000000
1.000000 0.790785 0.000000
0.031997 0.827055 0.000000
0.059729 0.826895 0.000000
0.088248 0.826733 0.000000
0.117502 0.826568 0.000000
0.147441 0.826402 0.000000
0.178011 0.826236 0.000000
0.209161 0.826069 0.000000
0.240840 0.825902 0.000000
0.272996 0.825735 0.000000
0.305576 0.825569 0.000000
0.338528 0.825405 0.000000
0.371801 0.825241 0.000000
0.405343 0.825080 0.000000
0.439101 0.824921 0.000000
0.473024 0.824764 0.000000
0.507059 0.824610 0.000000
0.541154 0.824459 0.000000
0.575256 0.824311 0.000000
0.609314 0.824167 0.000000
0.643275 0.824026 0.000000
0.677086 0.823890 0.000000
0.710695 0.823757 0.000000
0.744050 0.823628 0.000000
0.777099 0.823504 0.000000
0.809787 0.823384 0.000000
0.842064 0.823268 0.000000
0.873875 0.823157 0.000000
0.905169 0.823051 0.000000
0.935893 0.822949 0.000000
0.965994 0.822851 0.000000
0.995418 0.822759 0.000000
1.000000 0.822671 0.000000
1.000000 0.822587 0.000000
0.031929 0.858121 0.000000
0.059681 0.857969 0.000000
0.088220 0.857815 0.000000
0.117495 0.857660 0.000000
0.147455 0.857503 0.000000
0.178047 0.857345 0.000000
0.209219 0.857188 0.000000
0.240920 0.857030 0.000000
0.273099 0.856873 0.000000
0.305702 0.856717 0.000000
0.338677 0.856562 0.000000
0.371974 0.856409 0.000000
0.405540 0.856257 0.000000
0.439322 0.856108 0.000000
0.473268 0.855961 0.000000
0.507327 0.855818 0.000000
0.541446 0.855677 0.000000
0.575572 0.855539 0.000000
0.609654 0.855405 0.000000
0.643639 0.855274 0.000000
0.677474 0.855148 0.000000
0.711107 0.855025 0.000000
0.744486 0.854906 0.000000
0.777557 0.854792 0.000000
0.810269 0.854681 0.000000
0.842568 0.854575 0.000000
0.874402 0.854474 0.000000
