public/luts/warm-romance.cube
TITLE "OneMoment warm-romance"
LUT_3D_SIZE 5
DOMAIN_MIN 0.0 0.0 0.0
DOMAIN_MAX 1.0 1.0 1.0
0.059244 0.044539 0.029767
0.295890 0.041383 0.027590
0.559214 0.038068 0.024867
0.823013 0.034954 0.021826
1.000000 0.032322 0.018816
0.045984 0.275613 0.021413
0.283928 0.273004 0.018366
0.548692 0.270297 0.014678
0.813932 0.267790 0.010670
1.000000 0.265705 0.006790
0.036371 0.534452 0.008703
0.275755 0.532450 0.004690
0.542121 0.530418 0.000000
0.808961 0.528587 0.000000
1.000000 0.527110 0.000000
0.032142 0.795561 0.000000
0.272968 0.794168 0.000000
0.540934 0.792811 0.000000
0.809376 0.791655 0.000000
1.000000 0.790785 0.000000
0.032942 1.000000 0.000000
0.275065 1.000000 0.000000
0.544472 1.000000 0.000000
0.814354 1.000000 0.000000
1.000000 1.000000 0.000000
0.057707 0.043449 0.270101
0.294485 0.040349 0.267835
0.557953 0.037095 0.265015
0.821898 0.034042 0.261877
1.000000 0.031465 0.258778
0.044888 0.274709 0.261451
0.282962 0.272155 0.258316
0.547872 0.269509 0.254530
0.813258 0.267064 0.250425
1.000000 0.265034 0.246457
0.035764 0.533754 0.248413
0.275280 0.531808 0.244312
0.541790 0.529837 0.239453
0.808777 0.528067 0.234275
1.000000 0.526645 0.229341
0.032025 0.795070 0.231765
0.272982 0.793732 0.226698
0.541093 0.792436 0.220766
0.809680 0.791341 0.214515
1.000000 0.790527 0.208614
0.033265 1.000000 0.213690
0.275519 1.000000 0.207753
0.545071 1.000000 0.200855
0.815099 1.000000 0.193638
1.000000 1.000000 0.186868
0.056052 0.042261 0.537032
0.292975 0.039221 0.534669
0.556606 0.036035 0.531741
0.820712 0.033051 0.528494
1.000000 0.030535 0.525298
0.043722 0.273726 0.528055
0.281943 0.271234 0.524822
0.547014 0.268656 0.520928
0.812561 0.266279 0.516715
1.000000 0.264311 0.512649
0.035142 0.533001 0.514652
0.274803 0.531116 0.510454
0.541475 0.529213 0.505486
0.808623 0.527511 0.500200
1.000000 0.526151 0.495168
0.031947 0.794546 0.497640
0.273049 0.793269 0.492475
0.541322 0.792042 0.486435
0.810071 0.791015 0.480075
1.000000 0.790262 0.474077
0.033676 1.000000 0.479237
0.276076 1.000000 0.473202
0.545790 1.000000 0.466196
0.815979 1.000000 0.458870
1.000000 1.000000 0.452003
0.054452 0.041095 0.803927
0.291521 0.038117 0.801467
0.555313 0.034999 0.798430
0.819581 0.032082 0.795075
1.000000 0.029628 0.791782
0.042612 0.272767 0.794622
0.280977 0.270336 0.791291
0.546210 0.267826 0.787289
0.811919 0.265517 0.782968
1.000000 0.263610 0.778804
0.034575 0.532271 0.780855
0.274382 0.530447 0.776558
0.541216 0.528613 0.771483
0.808525 0.526979 0.766088
1.000000 0.525680 0.760959
0.031924 0.794045 0.763478
0.273171 0.792830 0.758215
0.541606 0.791671 0.752067
0.810516 0.790712 0.745599
1.000000 0.790021 0.739504
0.034142 1.000000 0.744747
0.276687 1.000000 0.738614
0.546563 1.000000 0.731500
0.816914 1.000000 0.724066
1.000000 1.000000 0.717101
0.053059 0.040065 1.000000
0.290258 0.037142 1.000000
0.554196 0.034086 1.000000
0.818609 0.031231 1.000000
1.000000 0.028832 1.000000
0.041659 0.271923 1.000000
0.280156 0.269547 1.000000
0.545534 0.267099 1.000000
0.811388 0.264852 1.000000
1.000000 0.263000 1.000000
0.034112 0.531633 1.000000
0.274049 0.529865 1.000000
0.541029 0.528092 1.000000
0.808484 0.526520 1.000000
1.000000 0.525276 1.000000
0.031950 0.793614 1.000000
0.273328 0.792454 0.997413
0.541908 0.791356 0.991167
0.810964 0.790459 0.984602
1.000000 0.789823 0.978419
0.034609 1.000000 0.983737
0.277285 1.000000 0.977517
0.547306 1.000000 0.970305
0.817802 1.000000 0.962773
1.000000 1.000000 0.955721
