public/luts/warm-romance.cube
TITLE "OneMoment warm-romance"
LUT_3D_SIZE 9
DOMAIN_MIN 0.0 0.0 0.0
DOMAIN_MAX 1.0 1.0 1.0
0.059244 0.044539 0.029767
0.172602 0.043007 0.028756
0.295890 0.041383 0.027590
0.425851 0.039721 0.026285
0.559214 0.038068 0.024867
0.692699 0.036467 0.023368
0.823013 0.034954 0.021826
0.946852 0.033563 0.020291
1.000000 0.032322 0.018816
0.052345 0.155045 0.026129
0.166001 0.153638 0.024918
0.289613 0.152151 0.023534
0.419914 0.150633 0.022002
0.553627 0.149127 0.020349
0.687461 0.147673 0.018615
0.818117 0.146304 0.016845
0.942280 0.145050 0.015092
1.000000 0.143934 0.013418
0.045984 0.275613 0.021413
0.159963 0.274342 0.019985
0.283928 0.273004 0.018366
0.414599 0.271642 0.016584
0.548692 0.270297 0.014678
0.682906 0.269003 0.012689
0.813932 0.267790 0.010670
0.938447 0.266684 0.008682
1.000000 0.265705 0.006790
0.040564 0.403135 0.015589
0.154885 0.402008 0.013932
0.279219 0.400826 0.012064
0.410282 0.399628 0.010021
0.544774 0.398452 0.007846
0.679389 0.397326 0.005589
0.810805 0.396278 0.003309
0.935690 0.395329 0.001072
1.000000 0.394494 0.000000
0.036371 0.534452 0.008703
0.151041 0.533472 0.006812
0.275755 0.532450 0.004690
0.407218 0.531422 0.002379
0.542121 0.530418 0.000000
0.677145 0.529466 0.000000
0.808961 0.528587 0.000000
0.934227 0.527797 0.000000
1.000000 0.527110 0.000000
0.033557 0.666351 0.000893
0.148577 0.665519 0.000000
0.273671 0.664657 0.000000
0.405534 0.663798 0.000000
0.540847 0.662967 0.000000
0.676282 0.662188 0.000000
0.808498 0.661477 0.000000
0.934143 0.660848 0.000000
1.000000 0.660308 0.000000
0.032142 0.795561 0.000000
0.147503 0.794873 0.000000
0.272968 0.794168 0.000000
0.405221 0.793473 0.000000
0.540934 0.792811 0.000000
0.676769 0.792201 0.000000
0.809376 0.791655 0.000000
0.935391 0.791182 0.000000
1.000000 0.790785 0.000000
0.032014 0.918758 0.000000
0.147699 0.918207 0.000000
0.273516 0.917650 0.000000
0.406139 0.917111 0.000000
0.542232 0.916609 0.000000
0.678447 0.916159 0.000000
0.811424 0.915769 0.000000
0.937791 0.915445 0.000000
1.000000 0.915185 0.000000
0.032942 1.000000 0.000000
0.148924 1.000000 0.000000
0.275065 1.000000 0.000000
0.408029 1.000000 0.000000
0.544472 1.000000 0.000000
0.681036 1.000000 0.000000
0.814354 1.000000 0.000000
0.941046 1.000000 0.000000
1.000000 1.000000 0.000000
0.058502 0.044015 0.144944
0.171890 0.042495 0.143912
0.295211 0.040885 0.142724
0.425206 0.039238 0.141397
0.558604 0.037599 0.139955
0.692124 0.036013 0.138432
0.822473 0.034514 0.136867
0.946345 0.033137 0.135310
1.000000 0.031909 0.133815
0.051704 0.154563 0.141238
0.165390 0.153169 0.140007
0.289035 0.151696 0.138601
0.419371 0.150192 0.137045
0.553119 0.148701 0.135369
0.686988 0.147262 0.133612
0.817678 0.145908 0.131818
0.941874 0.144667 0.130044
1.000000 0.143564 0.128349
0.045453 0.275177 0.136448
0.159463 0.273919 0.135000
0.283460 0.272595 0.133359
0.414166 0.271248 0.131555
0.548294 0.269917 0.129624
0.682543 0.268638 0.127611
0.813603 0.267440 0.125570
0.938151 0.266347 0.123559
1.000000 0.265381 0.121647
0.040149 0.402748 0.130546
0.154500 0.401634 0.128869
0.278867 0.400465 0.126980
0.409964 0.399283 0.124914
0.544492 0.398121 0.122715
0.679141 0.397010 0.120434
0.810592 0.395977 0.118131
0.935510 0.395041 0.115872
1.000000 0.394219 0.113732
0.036074 0.534115 0.123581
0.150775 0.533148 0.121670
0.275522 0.532140 0.119526
0.407019 0.531126 0.117191
0.541957 0.530137 0.114718
0.677017 0.529200 0.112162
0.808867 0.528335 0.109590
0.934165 0.527560 0.107077
1.000000 0.526885 0.104702
0.033380 0.666064 0.115691
0.148430 0.665245 0.113545
0.273557 0.664397 0.111146
0.405453 0.663552 0.108544
0.540802 0.662736 0.105795
0.676272 0.661972 0.102964
0.808523 0.661276 0.100125
0.934201 0.660660 0.097356
1.000000 0.660133 0.094747
0.032081 0.795324 0.107104
0.147472 0.794648 0.104730
0.272969 0.793957 0.102082
0.405256 0.793276 0.099218
0.541005 0.792629 0.096201
0.676875 0.792033 0.093102
0.809516 0.791502 0.090001
0.935564 0.791043 0.086984
1.000000 0.790659 0.084146
0.032062 0.918567 0.098136
0.147777 0.918028 0.095545
0.273627 0.917485 0.092661
0.406284 0.916960 0.089549
0.542412 0.916474 0.086277
0.678663 0.916038 0.082923
0.811674 0.915663 0.079574
0.938074 0.915352 0.076321
1.000000 0.915105 0.073266
0.033091 1.000000 0.089183
0.149104 1.000000 0.086392
0.275277 1.000000 0.083291
0.408276 1.000000 0.079950
0.544753 1.000000 0.076444
0.681353 1.000000 0.072856
0.814706 1.000000 0.069278
0.941430 1.000000 0.065808
1.000000 1.000000 0.062553
0.057707 0.043449 0.270101
0.171128 0.041943 0.269047
0.294485 0.040349 0.267835
0.424517 0.038717 0.266483
0.557953 0.037095 0.265015
0.691512 0.035524 0.263466
0.821898 0.034042 0.261877
0.945805 0.032679 0.260295
1.000000 0.031465 0.258778
0.051019 0.154044 0.266321
0.164738 0.152664 0.265068
0.288418 0.151206 0.263638
0.418792 0.149718 0.262057
0.552578 0.148243 0.260356
0.686486 0.146820 0.258572
0.817213 0.145481 0.256754
0.941444 0.144256 0.254956
1.000000 0.143167 0.253239
0.044888 0.274709 0.261451
0.158930 0.273465 0.259981
0.282962 0.272155 0.258316
0.413706 0.270824 0.256487
0.547872 0.269509 0.254530
0.682160 0.268246 0.252492
0.813258 0.267064 0.250425
0.937841 0.265987 0.248391
1.000000 0.265034 0.246457
0.039710 0.402332 0.255465
0.154093 0.401232 0.253766
0.278496 0.400079 0.251853
0.409630 0.398912 0.249761
0.544196 0.397766 0.247537
0.678884 0.396672 0.245230
0.810372 0.395654 0.242902
0.935326 0.394733 0.240620
1.000000 0.393925 0.238457
0.035764 0.533754 0.248413
0.150497 0.532801 0.246480
0.275280 0.531808 0.244312
0.406814 0.530810 0.241953
0.541790 0.529837 0.239453
0.676889 0.528916 0.236872
0.808777 0.528067 0.234275
0.934110 0.527306 0.231738
1.000000 0.526645 0.229341
0.033198 0.665757 0.240437
0.148281 0.664952 0.238269
0.273443 0.664119 0.235846
0.405378 0.663290 0.233219
0.540764 0.662490 0.230444
0.676273 0.661742 0.227588
0.808561 0.661062 0.224723
0.934274 0.660461 0.221931
1.000000 0.659948 0.219300
0.032025 0.795070 0.231765
0.147449 0.794408 0.229369
0.272982 0.793732 0.226698
0.405306 0.793067 0.223809
0.541093 0.792436 0.220766
0.677002 0.791857 0.217641
0.809680 0.791341 0.214515
0.935764 0.790897 0.211474
1.000000 0.790527 0.208614
0.032126 0.918363 0.222717
0.147874 0.917838 0.220104
0.273759 0.917310 0.217197
0.406454 0.916802 0.214059
0.542620 0.916331 0.210762
0.678909 0.915912 0.207382
0.811958 0.915553 0.204007
0.938394 0.915257 0.200731
1.000000 0.915023 0.197654
0.033265 1.000000 0.213690
0.149310 1.000000 0.210877
0.275519 1.000000 0.207753
0.408555 1.000000 0.204387
0.545071 1.000000 0.200855
0.681710 1.000000 0.197241
0.815099 1.000000 0.193638
0.941859 1.000000 0.190144
1.000000 1.000000 0.186868
0.056883 0.042859 0.401907
0.170338 0.041368 0.400830
0.293732 0.039789 0.399593
0.423804 0.038174 0.398214
0.557281 0.036569 0.396720
0.690880 0.035015 0.395144
0.821305 0.033549 0.393528
0.945250 0.032203 0.391921
1.000000 0.031003 0.390381
0.050311 0.153503 0.398049
0.164064 0.152137 0.396773
0.287782 0.150695 0.395319
0.418195 0.149224 0.393711
0.552021 0.147766 0.391983
0.685970 0.146360 0.390172
0.816736 0.145038 0.388327
0.941005 0.143828 0.386504
1.000000 0.142753 0.384764
0.044305 0.274221 0.393095
0.158382 0.272991 0.391602
0.282452 0.271697 0.389912
0.413235 0.270382 0.388056
0.547442 0.269085 0.386073
0.681770 0.267839 0.384008
0.812907 0.266673 0.381914
0.937527 0.265612 0.379855
1.000000 0.264674 0.377898
0.039260 0.401900 0.387020
0.153678 0.400814 0.385298
0.278118 0.399677 0.383360
0.409291 0.398527 0.381242
0.543898 0.397398 0.378990
0.678627 0.396321 0.376657
0.810154 0.395320 0.374302
0.935145 0.394414 0.371995
1.000000 0.393620 0.369809
0.035450 0.533379 0.379877
0.150218 0.532441 0.377921
0.275038 0.531463 0.375728
0.406611 0.530482 0.373342
0.541628 0.529526 0.370816
0.676767 0.528622 0.368207
0.808694 0.527790 0.365584
0.934065 0.527045 0.363022
1.000000 0.526398 0.360602
0.033020 0.665440 0.371810
0.148137 0.664649 0.369619
0.273337 0.663832 0.367171
0.405311 0.663019 0.364517
0.540738 0.662237 0.361715
0.676287 0.661505 0.358832
0.808614 0.660842 0.355941
0.934365 0.660257 0.353124
1.000000 0.659758 0.350469
0.031980 0.794808 0.363049
0.147438 0.794161 0.360630
0.273008 0.793501 0.357934
0.405372 0.792852 0.355018
0.541199 0.792239 0.351948
0.677148 0.791676 0.348797
0.809866 0.791177 0.345644
0.935987 0.790749 0.342578
1.000000 0.790393 0.339695
0.032207 0.918155 0.353917
0.147988 0.917644 0.351281
0.273911 0.917132 0.348348
0.406645 0.916640 0.345184
0.542852 0.916187 0.341860
0.679181 0.915784 0.338453
0.812270 0.915442 0.335052
0.938743 0.915162 0.331751
1.000000 0.914943 0.328651
0.033461 1.000000 0.344812
0.149541 1.000000 0.341976
0.275787 1.000000 0.338827
0.408862 1.000000 0.335434
0.545419 1.000000 0.331875
0.682098 1.000000 0.328235
0.815527 1.000000 0.324605
0.942324 1.000000 0.321086
1.000000 1.000000 0.317787
0.056052 0.042261 0.537032
0.169543 0.040784 0.535932
0.292975 0.039221 0.534669
0.423087 0.037623 0.533263
0.556606 0.036035 0.531741
0.690246 0.034499 0.530137
0.820712 0.033051 0.528494
0.944695 0.031720 0.526862
1.000000 0.030535 0.525298
0.049599 0.152954 0.533095
0.163387 0.151603 0.531795
0.287144 0.150177 0.530315
0.417596 0.148723 0.528681
0.551465 0.147283 0.526924
0.685454 0.145894 0.525086
0.816261 0.144589 0.523214
0.940568 0.143395 0.521365
1.000000 0.142336 0.519602
0.043722 0.273726 0.528055
0.157834 0.272512 0.526538
0.281943 0.271234 0.524822
0.412766 0.269936 0.522939
0.547014 0.268656 0.520928
0.681384 0.267428 0.518835
0.812561 0.266279 0.516715
0.937220 0.265234 0.514630
1.000000 0.264311 0.512649
0.038813 0.401463 0.521888
0.153266 0.400392 0.520143
0.277744 0.399271 0.518179
0.408958 0.398137 0.516034
0.543606 0.397026 0.513755
0.678376 0.395967 0.511393
0.809944 0.394983 0.509012
0.934973 0.394093 0.506678
1.000000 0.393314 0.504469
0.035142 0.533001 0.514652
0.149945 0.532077 0.512673
0.274803 0.531116 0.510454
0.406417 0.530152 0.508041
0.541475 0.529213 0.505486
0.676656 0.528327 0.502850
0.808623 0.527511 0.500200
0.934033 0.526783 0.497612
1.000000 0.526151 0.495168
0.032852 0.665120 0.506491
0.148004 0.664344 0.504277
0.273242 0.663543 0.501803
0.405256 0.662748 0.499122
0.540725 0.661983 0.496293
0.676315 0.661269 0.493382
0.808683 0.660622 0.490463
0.934472 0.660054 0.487621
1.000000 0.659569 0.484943
0.031947 0.794546 0.497640
0.147440 0.793914 0.495197
0.273049 0.793269 0.492475
0.405453 0.792638 0.489532
0.541322 0.792042 0.486435
0.677312 0.791497 0.483255
0.810071 0.791015 0.480075
0.936230 0.790603 0.476984
1.000000 0.790262 0.474077
0.032303 0.917947 0.488421
0.148120 0.917451 0.485761
0.274081 0.916955 0.482803
0.406856 0.916480 0.479612
0.543104 0.916044 0.476260
0.679474 0.915660 0.472825
0.812603 0.915334 0.469397
0.939115 0.915070 0.466070
1.000000 0.914866 0.462946
0.033676 1.000000 0.479237
0.149791 1.000000 0.476377
0.276076 1.000000 0.473202
0.409191 1.000000 0.469782
0.545790 1.000000 0.466196
0.682510 1.000000 0.462527
0.815979 1.000000 0.458870
0.942814 1.000000 0.455326
1.000000 1.000000 0.452003
0.055236 0.041667 0.672149
0.168761 0.040206 0.671025
0.292232 0.038659 0.669736
0.422384 0.037078 0.668303
0.555944 0.035508 0.666753
0.689626 0.033989 0.665122
0.820132 0.032558 0.663451
0.944154 0.031243 0.661794
1.000000 0.030073 0.660206
0.048901 0.152411 0.668132
0.162725 0.151075 0.666808
0.286519 0.149665 0.665303
0.417012 0.148228 0.663641
0.550922 0.146805 0.661857
0.684953 0.145434 0.659991
0.815800 0.144146 0.658092
0.940146 0.142969 0.656217
1.000000 0.141924 0.654430
0.043153 0.273238 0.663005
0.157301 0.272038 0.661464
0.281447 0.270777 0.659723
0.412311 0.269496 0.657813
0.546600 0.268233 0.655774
0.681012 0.267022 0.653653
0.812229 0.265891 0.651506
0.936926 0.264861 0.649395
1.000000 0.263953 0.647391
0.038380 0.401032 0.656747
0.152868 0.399976 0.654978
0.277385 0.398871 0.652988
0.408639 0.397754 0.650817
0.543329 0.396661 0.648509
0.678140 0.395618 0.646121
0.809748 0.394651 0.643712
0.934816 0.393779 0.641352
1.000000 0.393014 0.639120
0.034848 0.532628 0.649418
0.149686 0.531720 0.647414
0.274583 0.530775 0.645170
0.406237 0.529827 0.642730
0.541337 0.528907 0.640148
0.676559 0.528037 0.637484
0.808567 0.527239 0.634807
0.934014 0.526526 0.632193
1.000000 0.525910 0.629726
0.032697 0.664807 0.641164
0.147885 0.664046 0.638926
0.273161 0.663261 0.636426
0.405216 0.662482 0.633718
0.540726 0.661734 0.630861
0.676357 0.661038 0.627922
0.808766 0.660409 0.624977
0.934593 0.659856 0.622108
1.000000 0.659387 0.619406
0.031928 0.794290 0.632221
0.147457 0.793672 0.629754
0.273104 0.793044 0.627007
0.405549 0.792430 0.624037
0.541459 0.791851 0.620911
0.677491 0.791324 0.617704
0.810289 0.790859 0.614497
0.936487 0.790463 0.611380
1.000000 0.790137 0.608450
0.032413 0.917745 0.622916
0.148266 0.917264 0.620232
0.274265 0.916784 0.617248
0.407080 0.916326 0.614030
0.543370 0.915908 0.610650
0.679782 0.915541 0.607188
0.812951 0.915232 0.603733
0.939501 0.914984 0.600380
1.000000 0.914795 0.597233
0.033905 1.000000 0.613652
0.150056 1.000000 0.610768
0.276378 1.000000 0.607568
0.409535 1.000000 0.604121
0.546174 1.000000 0.600506
0.682936 1.000000 0.596810
0.816446 1.000000 0.593126
0.943319 1.000000 0.589556
1.000000 1.000000 0.586209
0.054452 0.041095 0.803927
0.168013 0.039647 0.802780
0.291521 0.038117 0.801467
0.421713 0.036552 0.800007
0.555313 0.034999 0.798430
0.689035 0.033498 0.796772
0.819581 0.032082 0.795075
0.943640 0.030784 0.793392
1.000000 0.029628 0.791782
0.048234 0.151887 0.799833
0.162092 0.150566 0.798486
0.285924 0.149172 0.796956
0.416456 0.147751 0.795268
0.550406 0.146345 0.793456
0.684478 0.144991 0.791563
0.815365 0.143720 0.789638
0.939747 0.142558 0.787738
1.000000 0.141528 0.785928
0.042612 0.272767 0.794622
0.156794 0.271582 0.793058
0.280977 0.270336 0.791291
0.411881 0.269072 0.789355
0.546210 0.267826 0.787289
0.680662 0.266632 0.785141
0.811919 0.265517 0.782968
0.936654 0.264504 0.780832
1.000000 0.263610 0.778804
0.037971 0.400617 0.788275
0.152493 0.399575 0.786483
0.277048 0.398486 0.784468
0.408341 0.397386 0.782270
0.543071 0.396310 0.779936
0.677923 0.395285 0.777520
0.809570 0.394334 0.775084
0.934675 0.393477 0.772700
1.000000 0.392727 0.770444
0.034575 0.532271 0.780855
0.149448 0.531377 0.778828
0.274382 0.530447 0.776558
0.406076 0.529517 0.774092
0.541216 0.528613 0.771483
0.676478 0.527761 0.768792
0.808525 0.526979 0.766088
0.934010 0.526282 0.763449
1.000000 0.525680 0.760959
0.032560 0.664506 0.772509
0.147782 0.663760 0.770248
0.273096 0.662991 0.767724
0.405190 0.662229 0.764989
0.540740 0.661498 0.762105
0.676412 0.660819 0.759139
0.808860 0.660206 0.756167
0.934725 0.659669 0.753273
1.000000 0.659215 0.750549
0.031924 0.794045 0.763478
0.147487 0.793443 0.760988
0.273171 0.792830 0.758215
0.405655 0.792232 0.755219
0.541606 0.791671 0.752067
0.677678 0.791160 0.748832
0.810516 0.790712 0.745599
0.936751 0.790332 0.742457
1.000000 0.790021 0.739504
0.032534 0.917554 0.754088
0.148421 0.917088 0.751381
0.274458 0.916623 0.748373
0.407312 0.916182 0.745128
0.543643 0.915780 0.741721
0.680095 0.915430 0.738232
0.813303 0.915138 0.734750
0.939891 0.914906 0.731372
1.000000 0.914732 0.728202
0.034142 1.000000 0.744747
0.150327 1.000000 0.741840
0.276687 1.000000 0.738614
0.409883 1.000000 0.735141
0.546563 1.000000 0.731500
0.683364 1.000000 0.727776
0.816914 1.000000 0.724066
0.943825 1.000000 0.720471
1.000000 1.000000 0.717101
0.053721 0.040556 0.929041
0.167314 0.039123 0.927873
0.290858 0.037607 0.926535
0.421087 0.036058 0.925051
0.554726 0.034521 0.923448
0.688486 0.033036 0.921764
0.819069 0.031637 0.920042
0.943164 0.030353 0.918335
1.000000 0.029211 0.916703
0.047612 0.151395 0.924873
0.161503 0.150087 0.923505
0.285371 0.148708 0.921950
0.415941 0.147303 0.920237
0.549929 0.145914 0.918400
0.684039 0.144576 0.916481
0.814963 0.143320 0.914531
0.939381 0.142174 0.912607
1.000000 0.141157 0.910775
0.042110 0.272325 0.919582
0.156325 0.271154 0.917996
0.280544 0.269923 0.916206
0.411485 0.268675 0.914245
0.545853 0.267445 0.912153
0.680343 0.266268 0.909979
0.811637 0.265168 0.907781
0.936407 0.264170 0.905621
1.000000 0.263290 0.903572
0.037595 0.400228 0.913151
0.152150 0.399201 0.911337
0.276740 0.398126 0.909298
0.408071 0.397042 0.907075
0.542839 0.395982 0.904715
0.677729 0.394973 0.902273
0.809414 0.394038 0.899813
0.934555 0.393196 0.897405
1.000000 0.392460 0.895127
0.034328 0.531936 0.905644
0.149233 0.531056 0.903596
0.274203 0.530142 0.901302
0.405934 0.529227 0.898811
0.541113 0.528339 0.896176
0.676413 0.527503 0.893459
0.808498 0.526737 0.890730
0.934018 0.526056 0.888068
1.000000 0.525467 0.885555
0.032442 0.664226 0.897212
0.147697 0.663494 0.894929
0.273046 0.662740 0.892381
0.405178 0.661993 0.889621
0.540766 0.661279 0.886711
0.676477 0.660616 0.883720
0.808962 0.660019 0.880723
0.934862 0.659497 0.877805
1.000000 0.659056 0.875059
0.031932 0.793819 0.888096
0.147527 0.793230 0.885585
0.273247 0.792632 0.882788
0.405769 0.792050 0.879767
0.541758 0.791505 0.876589
0.677868 0.791010 0.873329
0.810744 0.790578 0.870070
0.937015 0.790212 0.866904
1.000000 0.789915 0.863929
0.032662 0.917377 0.878627
0.148581 0.916925 0.875898
0.274653 0.916476 0.872865
0.407545 0.916050 0.869596
0.543914 0.915665 0.866163
0.680405 0.915331 0.862648
0.813650 0.915055 0.859141
0.940273 0.914838 0.855739
1.000000 0.914677 0.852547
0.034380 1.000000 0.869211
0.150597 1.000000 0.866283
0.276993 1.000000 0.863033
0.410226 1.000000 0.859535
0.546944 1.000000 0.855868
0.683784 1.000000 0.852119
0.817371 1.000000 0.848383
0.944318 1.000000 0.844764
1.000000 1.000000 0.841372
0.053059 0.040065 1.000000
0.166682 0.038644 1.000000
0.290258 0.037142 1.000000
0.420522 0.035608 1.000000
0.554196 0.034086 1.000000
0.687992 0.032616 1.000000
0.818609 0.031231 1.000000
0.942736 0.029961 1.000000
1.000000 0.028832 1.000000
0.047051 0.150947 1.000000
0.160972 0.149652 1.000000
0.284872 0.148286 1.000000
0.415477 0.146896 1.000000
0.549500 0.145521 1.000000
0.683646 0.144198 1.000000
0.814604 0.142957 1.000000
0.939055 0.141824 1.000000
1.000000 0.140821 1.000000
0.041659 0.271923 1.000000
0.155904 0.270764 1.000000
0.280156 0.269547 1.000000
0.411131 0.268314 1.000000
0.545534 0.267099 1.000000
0.680059 0.265936 1.000000
0.811388 0.264852 1.000000
0.936191 0.263867 1.000000
1.000000 0.263000 1.000000
0.037259 0.399875 1.000000
0.151845 0.398860 1.000000
0.276468 0.397799 1.000000
0.407833 0.396730 1.000000
0.542636 0.395684 1.000000
0.677562 0.394690 1.000000
0.809281 0.393770 1.000000
0.934454 0.392942 1.000000
1.000000 0.392219 1.000000
0.034112 0.531633 1.000000
0.149047 0.530766 1.000000
0.274049 0.529865 1.000000
0.405815 0.528965 1.000000
0.541029 0.528092 1.000000
0.676364 0.527271 1.000000
0.808484 0.526520 1.000000
0.934037 0.525852 1.000000
1.000000 0.525276 1.000000
0.032344 0.663973 1.000000
0.147629 0.663253 1.000000
0.273011 0.662513 1.000000
0.405177 0.661781 1.000000
0.540801 0.661082 1.000000
0.676547 0.660434 0.998352
0.809066 0.659851 0.995332
0.934999 0.659343 0.992393
1.000000 0.658915 0.989626
0.031950 0.793614 1.000000
0.147575 0.793038 1.000000
0.273328 0.792454 0.997413
0.405884 0.791887 0.994369
0.541908 0.791356 0.991167
0.678054 0.790877 0.987883
0.810964 0.790459 0.984602
0.937267 0.790107 0.981414
1.000000 0.789823 0.978419
0.032790 0.917220 0.993220
0.148739 0.916780 0.990471
0.274844 0.916344 0.987417
0.407770 0.915933 0.984124
0.544174 0.915563 0.980668
0.680700 0.915244 0.977129
0.813981 0.914982 0.973599
0.940636 0.914779 0.970176
1.000000 0.914631 0.966963
0.034609 1.000000 0.983737
0.150856 1.000000 0.980789
0.277285 1.000000 0.977517
0.410552 1.000000 0.973996
0.547306 1.000000 0.970305
0.684181 1.000000 0.966532
0.817802 1.000000 0.962773
0.944782 1.000000 0.959133
1.000000 1.000000 0.955721
